tool_per_2010/calibration_input/ref__130445.it8
Rene - TRC level chart 22x29

ORIGINATOR          ""
DESCRIPTOR          "Output Characterisation"
CREATED             "6/27/2008"

INSTRUMENTATION     "Spectrophotometer   Spectrolino ; Serial number 12554"

MEASUREMENT_SOURCE  "Illumination=D50	ObserverAngle=2°	DensityStd=ANSI A	WhiteBase=Abs	Filter=No"
ILLUMINANT          "D50"
OBSERVER            "2°"
FILTER_STATUS       "ANSI A"

PRINT_CONDITIONS    ""

NUMBER_OF_FIELDS    7
BEGIN_DATA_FORMAT
SAMPLE_ID	LAB_L	LAB_A	LAB_B	XYZ_X	XYZ_Y	XYZ_Z	
END_DATA_FORMAT

NUMBER_OF_SETS      638

BEGIN_DATA
1	 95.10	 -0.31	 -3.85	 84.52	 87.86	 76.90	
2	 88.19	  0.20	 -4.92	 69.94	 72.47	 64.80	
3	 82.33	  0.02	 -3.82	 58.71	 60.91	 53.69	
4	 76.84	  0.21	 -2.85	 49.49	 51.26	 44.56	
5	 70.97	 -0.23	 -3.02	 40.55	 42.15	 36.89	
6	 65.58	 -0.41	 -2.67	 33.41	 34.79	 30.34	
7	 58.93	 -0.15	 -2.80	 25.94	 26.95	 23.70	
8	 54.02	  0.22	 -2.74	 21.24	 21.99	 19.40	
9	 48.62	  0.65	 -2.96	 16.78	 17.29	 15.42	
10	 42.72	  0.87	 -3.05	 12.63	 12.97	 11.69	
11	 36.46	  0.81	 -2.57	  9.01	  9.25	  8.29	
12	 31.10	  0.74	 -2.02	  6.52	  6.69	  5.94	
13	 26.53	  0.84	 -1.84	  4.81	  4.93	  4.38	
14	 22.86	  0.91	 -2.09	  3.68	  3.76	  3.40	
15	 19.01	  0.61	 -1.87	  2.68	  2.75	  2.48	
16	 15.61	  0.04	 -1.77	  1.95	  2.02	  1.84	
17	 13.35	 -0.03	 -1.78	  1.56	  1.62	  1.48	
18	 10.98	 -0.15	 -1.27	  1.21	  1.26	  1.12	
19	  9.05	 -0.15	 -1.18	  0.97	  1.01	  0.90	
20	  7.36	 -0.44	 -1.11	  0.77	  0.81	  0.73	
21	  6.33	 -0.37	 -1.18	  0.67	  0.70	  0.64	
22	  5.94	 -0.30	 -1.13	  0.63	  0.66	  0.60	
23	 31.64	  0.79	 -2.15	  6.75	  6.93	  6.17	
24	 31.30	  0.73	 -2.13	  6.61	  6.78	  6.04	
25	 31.16	  0.83	 -2.11	  6.56	  6.72	  5.98	
26	 30.94	  0.84	 -2.18	  6.46	  6.62	  5.91	
27	 30.55	  0.84	 -2.24	  6.31	  6.46	  5.79	
28	 30.05	  0.80	 -2.04	  6.10	  6.26	  5.56	
29	 29.80	  0.89	 -2.01	  6.01	  6.15	  5.47	
30	 29.20	  0.80	 -1.92	  5.77	  5.92	  5.25	
31	 28.76	  0.80	 -1.92	  5.61	  5.74	  5.10	
32	 28.43	  0.81	 -1.83	  5.49	  5.62	  4.97	
33	 27.73	  0.65	 -1.96	  5.22	  5.36	  4.77	
34	 27.11	  0.60	 -1.85	  4.99	  5.13	  4.56	
35	 27.06	  0.72	 -1.93	  4.99	  5.11	  4.56	
36	 26.66	  0.84	 -2.02	  4.86	  4.97	  4.45	
37	 26.24	  0.70	 -1.90	  4.71	  4.83	  4.30	
38	 25.97	  0.57	 -1.85	  4.61	  4.74	  4.21	
39	 25.71	  0.53	 -1.78	  4.52	  4.65	  4.12	
40	 25.30	  0.53	 -1.59	  4.39	  4.51	  3.98	
41	 25.00	  0.40	 -1.42	  4.29	  4.42	  3.86	
42	 24.73	  0.66	 -1.49	  4.22	  4.33	  3.80	
43	 24.40	  0.89	 -1.68	  4.13	  4.22	  3.74	
44	 24.29	  0.99	 -1.93	  4.11	  4.19	  3.75	
45	 42.58	  0.90	 -2.98	 12.55	 12.88	 11.59	
46	 41.90	  0.82	 -2.74	 12.10	 12.43	 11.12	
47	 41.44	  0.86	 -2.74	 11.83	 12.14	 10.87	
48	 40.86	  0.69	 -2.66	 11.45	 11.78	 10.52	
49	 40.46	  0.85	 -2.67	 11.23	 11.53	 10.31	
50	 40.02	  0.87	 -2.64	 10.97	 11.26	 10.07	
51	 39.59	  0.99	 -2.87	 10.74	 11.01	  9.92	
52	 39.08	  1.02	 -2.74	 10.45	 10.70	  9.61	
53	 38.60	  1.01	 -2.68	 10.18	 10.43	  9.35	
54	 38.09	  1.00	 -2.65	  9.90	 10.14	  9.09	
55	 37.56	  0.89	 -2.69	  9.60	  9.84	  8.85	
56	 36.88	  0.86	 -2.46	  9.23	  9.47	  8.46	
57	 36.21	  0.99	 -2.53	  8.90	  9.12	  8.17	
58	 35.75	  0.88	 -2.47	  8.66	  8.88	  7.95	
59	 35.21	  0.86	 -2.40	  8.39	  8.60	  7.69	
60	 34.75	  0.89	 -2.52	  8.17	  8.37	  7.52	
61	 34.30	  0.88	 -2.65	  7.95	  8.15	  7.36	
62	 33.88	  0.92	 -2.33	  7.76	  7.95	  7.10	
63	 33.25	  0.94	 -2.20	  7.47	  7.65	  6.81	
64	 32.83	  0.89	 -2.03	  7.28	  7.46	  6.60	
65	 32.41	  0.98	 -2.16	  7.10	  7.27	  6.47	
66	 31.96	  0.88	 -2.21	  6.90	  7.07	  6.31	
67	 29.51	  0.87	 -2.09	  5.90	  6.04	  5.39	
68	 29.15	  0.89	 -1.96	  5.76	  5.90	  5.24	
69	 28.84	  0.93	 -2.04	  5.65	  5.78	  5.15	
70	 28.44	  1.10	 -2.13	  5.51	  5.62	  5.03	
71	 27.66	  1.04	 -2.07	  5.22	  5.33	  4.77	
72	 27.43	  0.99	 -1.99	  5.14	  5.25	  4.68	
73	 27.00	  0.84	 -2.31	  4.98	  5.09	  4.60	
74	 26.62	  0.87	 -2.05	  4.85	  4.96	  4.44	
75	 26.37	  0.81	 -1.95	  4.76	  4.87	  4.35	
76	 26.10	  0.86	 -1.96	  4.67	  4.78	  4.27	
77	 25.58	  0.67	 -1.82	  4.49	  4.60	  4.09	
78	 25.14	  0.65	 -1.66	  4.35	  4.46	  3.94	
79	 24.83	  0.76	 -1.83	  4.26	  4.36	  3.88	
80	 24.55	  0.95	 -2.00	  4.19	  4.27	  3.83	
81	 24.15	  0.83	 -1.91	  4.06	  4.15	  3.71	
82	 23.90	  0.88	 -1.87	  3.98	  4.07	  3.63	
83	 45.36	  0.90	 -2.71	 14.41	 14.80	 13.17	
84	 44.88	  0.86	 -2.58	 14.07	 14.46	 12.82	
85	 44.37	  0.83	 -2.51	 13.71	 14.09	 12.48	
86	 43.90	  0.86	 -2.70	 13.41	 13.77	 12.27	
87	 43.41	  0.87	 -2.69	 13.08	 13.43	 11.97	
88	 42.94	  0.90	 -2.81	 12.78	 13.12	 11.74	
89	 39.57	  0.97	 -2.67	 10.73	 10.99	  9.84	
90	 39.06	  1.02	 -2.65	 10.44	 10.70	  9.58	
91	 38.61	  0.96	 -2.71	 10.18	 10.44	  9.37	
92	 38.14	  1.03	 -2.65	  9.93	 10.17	  9.12	
93	 37.73	  0.94	 -2.66	  9.69	  9.94	  8.92	
94	 36.97	  0.98	 -2.65	  9.29	  9.52	  8.55	
95	 36.27	  0.91	 -2.46	  8.92	  9.15	  8.18	
96	 35.76	  0.91	 -2.60	  8.67	  8.88	  7.98	
97	 35.24	  0.91	 -2.57	  8.41	  8.62	  7.75	
98	 34.83	  0.99	 -2.58	  8.22	  8.41	  7.57	
99	 34.20	  0.94	 -2.45	  7.92	  8.11	  7.27	
100	 33.77	  1.01	 -2.33	  7.72	  7.90	  7.06	
101	 33.13	  1.08	 -2.18	  7.43	  7.60	  6.76	
102	 32.67	  0.93	 -2.25	  7.21	  7.38	  6.59	
103	 32.22	  0.81	 -2.15	  7.01	  7.18	  6.39	
104	 31.73	  0.71	 -1.92	  6.79	  6.97	  6.16	
105	 31.43	  0.81	 -2.12	  6.67	  6.84	  6.09	
106	 30.94	  0.68	 -1.83	  6.45	  6.63	  5.84	
107	 30.82	  0.69	 -1.80	  6.40	  6.57	  5.79	
108	 30.57	  0.77	 -1.90	  6.31	  6.47	  5.72	
109	 30.28	  0.81	 -1.92	  6.20	  6.35	  5.62	
110	 29.84	  0.79	 -1.90	  6.02	  6.17	  5.46	
111	 26.98	  0.84	 -2.09	  4.97	  5.09	  4.56	
112	 26.69	  0.82	 -1.91	  4.87	  4.98	  4.44	
113	 26.40	  0.72	 -1.90	  4.76	  4.88	  4.35	
114	 26.09	  0.74	 -1.90	  4.66	  4.78	  4.26	
115	 25.64	  0.68	 -1.75	  4.51	  4.63	  4.10	
116	 25.27	  0.65	 -1.70	  4.39	  4.50	  3.98	
117	 25.07	  0.85	 -1.86	  4.34	  4.44	  3.95	
118	 24.63	  0.85	 -1.89	  4.20	  4.30	  3.84	
119	 24.35	  0.94	 -1.97	  4.12	  4.21	  3.77	
120	 24.02	  0.97	 -2.10	  4.02	  4.11	  3.70	
121	 45.43	  0.85	 -2.68	 14.45	 14.85	 13.20	
122	 44.80	  0.84	 -2.66	 14.01	 14.40	 12.80	
123	 44.29	  0.85	 -2.69	 13.66	 14.04	 12.50	
124	 43.82	  0.81	 -2.72	 13.34	 13.71	 12.22	
125	 43.33	  0.81	 -2.65	 13.02	 13.38	 11.91	
126	 42.88	  0.79	 -2.88	 12.72	 13.08	 11.72	
127	 42.40	  0.75	 -2.78	 12.41	 12.76	 11.41	
128	 41.78	  0.69	 -2.56	 12.01	 12.36	 10.99	
129	 41.07	  0.64	 -2.37	 11.57	 11.91	 10.55	
130	 40.69	  0.75	 -2.45	 11.35	 11.67	 10.37	
131	 40.34	  0.77	 -2.48	 11.15	 11.46	 10.19	
132	 39.85	  0.84	 -2.64	 10.87	 11.16	  9.98	
133	 36.20	  0.96	 -2.64	  8.89	  9.11	  8.19	
134	 35.80	  1.05	 -2.59	  8.70	  8.90	  8.00	
135	 35.29	  0.98	 -2.67	  8.44	  8.64	  7.79	
136	 34.77	  1.04	 -2.59	  8.20	  8.39	  7.55	
137	 34.26	  1.05	 -2.56	  7.96	  8.14	  7.32	
138	 33.78	  1.05	 -2.50	  7.73	  7.90	  7.10	
139	 33.30	  1.08	 -2.59	  7.51	  7.68	  6.93	
140	 32.85	  1.01	 -2.32	  7.30	  7.47	  6.68	
141	 32.37	  0.98	 -2.39	  7.09	  7.25	  6.51	
142	 31.88	  0.81	 -2.29	  6.86	  7.03	  6.30	
143	 31.40	  0.73	 -2.08	  6.65	  6.82	  6.07	
144	 30.86	  0.78	 -1.94	  6.43	  6.59	  5.84	
145	 30.83	  0.79	 -1.91	  6.42	  6.58	  5.82	
146	 30.59	  0.76	 -1.91	  6.32	  6.48	  5.73	
147	 30.16	  0.66	 -1.93	  6.13	  6.30	  5.58	
148	 29.78	  0.81	 -2.08	  6.00	  6.15	  5.48	
149	 29.50	  0.75	 -2.04	  5.88	  6.03	  5.37	
150	 28.91	  0.78	 -1.93	  5.66	  5.80	  5.15	
151	 28.49	  0.64	 -1.66	  5.49	  5.64	  4.96	
152	 28.16	  0.77	 -1.76	  5.38	  5.52	  4.87	
153	 27.54	  0.78	 -1.75	  5.16	  5.29	  4.67	
154	 27.10	  0.76	 -1.74	  5.01	  5.13	  4.53	
155	 24.94	  0.90	 -1.94	  4.30	  4.39	  3.93	
156	 24.67	  0.86	 -1.95	  4.22	  4.31	  3.86	
157	 24.39	  1.05	 -2.18	  4.14	  4.22	  3.82	
158	 24.16	  1.12	 -2.04	  4.08	  4.15	  3.73	
159	 45.45	  0.96	 -2.79	 14.48	 14.86	 13.25	
160	 44.97	  0.86	 -2.86	 14.13	 14.52	 12.97	
161	 44.48	  0.94	 -2.80	 13.81	 14.17	 12.65	
162	 43.87	  0.92	 -2.87	 13.39	 13.75	 12.31	
163	 43.39	  1.01	 -2.97	 13.09	 13.42	 12.06	
164	 42.90	  0.92	 -3.11	 12.75	 13.09	 11.82	
165	 42.24	  0.81	 -2.69	 12.31	 12.65	 11.30	
166	 41.62	  0.88	 -2.66	 11.94	 12.26	 10.94	
167	 41.19	  0.80	 -2.57	 11.66	 11.98	 10.67	
168	 40.69	  0.81	 -2.53	 11.36	 11.67	 10.39	
169	 40.15	  0.81	 -2.38	 11.04	 11.34	 10.06	
170	 39.74	  0.86	 -2.61	 10.81	 11.10	  9.92	
171	 39.39	  0.92	 -2.55	 10.61	 10.89	  9.71	
172	 38.87	  1.00	 -2.71	 10.33	 10.58	  9.50	
173	 38.38	  0.93	 -2.52	 10.05	 10.30	  9.20	
174	 37.94	  1.00	 -2.55	  9.82	 10.06	  8.99	
175	 37.46	  0.96	 -2.53	  9.55	  9.79	  8.75	
176	 36.89	  0.97	 -2.39	  9.25	  9.48	  8.44	
177	 33.22	  1.14	 -2.44	  7.48	  7.64	  6.86	
178	 32.76	  1.10	 -2.39	  7.27	  7.43	  6.66	
179	 32.30	  0.95	 -2.12	  7.05	  7.22	  6.42	
180	 31.84	  0.95	 -2.17	  6.85	  7.02	  6.25	
181	 31.53	  0.86	 -2.21	  6.71	  6.88	  6.14	
182	 30.97	  0.83	 -2.10	  6.48	  6.64	  5.91	
183	 30.88	  0.93	 -2.25	  6.45	  6.60	  5.91	
184	 30.57	  0.92	 -2.11	  6.32	  6.47	  5.77	
185	 30.20	  0.83	 -2.04	  6.17	  6.32	  5.62	
186	 29.91	  0.84	 -2.03	  6.05	  6.20	  5.51	
187	 29.40	  0.86	 -1.92	  5.86	  6.00	  5.32	
188	 28.86	  0.71	 -1.60	  5.64	  5.78	  5.07	
189	 28.51	  0.83	 -1.76	  5.52	  5.65	  4.99	
190	 28.18	  0.74	 -1.60	  5.39	  5.53	  4.85	
191	 27.44	  0.65	 -1.76	  5.12	  5.25	  4.64	
192	 26.99	  0.69	 -1.74	  4.96	  5.09	  4.50	
193	 26.84	  0.74	 -1.90	  4.92	  5.04	  4.48	
194	 26.40	  0.56	 -1.79	  4.75	  4.89	  4.33	
195	 25.99	  0.51	 -1.71	  4.61	  4.74	  4.20	
196	 25.77	  0.69	 -1.61	  4.55	  4.67	  4.11	
197	 25.48	  0.70	 -1.75	  4.46	  4.57	  4.05	
198	 25.10	  0.70	 -1.83	  4.34	  4.45	  3.96	
199	 44.46	  0.84	 -2.78	 13.78	 14.16	 12.63	
200	 43.94	  0.88	 -2.84	 13.43	 13.80	 12.34	
201	 43.44	  0.85	 -2.88	 13.09	 13.45	 12.05	
202	 42.95	  0.92	 -3.01	 12.79	 13.13	 11.81	
203	 42.36	  0.86	 -2.89	 12.40	 12.74	 11.43	
204	 41.84	  0.81	 -2.69	 12.07	 12.40	 11.07	
205	 41.42	  0.69	 -2.80	 11.79	 12.13	 10.87	
206	 40.80	  0.75	 -2.64	 11.42	 11.74	 10.48	
207	 40.39	  0.88	 -2.67	 11.19	 11.49	 10.27	
208	 39.90	  0.90	 -2.82	 10.91	 11.19	 10.06	
209	 39.36	  0.88	 -2.76	 10.59	 10.87	  9.76	
210	 38.86	  0.80	 -2.58	 10.30	 10.58	  9.45	
211	 38.53	  0.88	 -2.68	 10.13	 10.39	  9.32	
212	 38.01	  0.89	 -2.53	  9.84	 10.09	  9.02	
213	 37.43	  0.82	 -2.45	  9.52	  9.77	  8.72	
214	 36.85	  0.76	 -2.46	  9.21	  9.46	  8.45	
215	 36.14	  0.84	 -2.53	  8.85	  9.08	  8.14	
216	 35.56	  0.71	 -2.41	  8.54	  8.78	  7.84	
217	 35.04	  0.79	 -2.34	  8.30	  8.52	  7.60	
218	 34.63	  0.74	 -2.25	  8.09	  8.31	  7.40	
219	 34.16	  0.86	 -2.29	  7.88	  8.08	  7.21	
220	 33.66	  0.90	 -2.25	  7.66	  7.85	  6.99	
221	 30.95	  0.85	 -2.16	  6.47	  6.63	  5.92	
222	 30.69	  0.80	 -2.13	  6.36	  6.52	  5.81	
223	 30.25	  0.86	 -2.10	  6.19	  6.34	  5.65	
224	 29.89	  0.83	 -1.95	  6.04	  6.19	  5.49	
225	 29.57	  0.93	 -2.20	  5.93	  6.06	  5.43	
226	 29.23	  0.83	 -1.91	  5.79	  5.93	  5.26	
227	 28.81	  0.87	 -1.95	  5.63	  5.77	  5.12	
228	 28.23	  0.82	 -1.85	  5.41	  5.54	  4.91	
229	 27.59	  0.66	 -1.90	  5.17	  5.31	  4.72	
230	 27.19	  0.67	 -1.81	  5.03	  5.16	  4.57	
231	 26.84	  0.66	 -1.74	  4.91	  5.04	  4.45	
232	 26.48	  0.52	 -1.80	  4.77	  4.91	  4.36	
233	 26.16	  0.58	 -1.69	  4.67	  4.80	  4.24	
234	 25.81	  0.67	 -1.89	  4.56	  4.68	  4.17	
235	 25.50	  0.59	 -1.70	  4.46	  4.58	  4.05	
236	 25.16	  0.53	 -1.51	  4.34	  4.47	  3.92	
237	 24.94	  0.71	 -1.75	  4.29	  4.40	  3.90	
238	 24.37	  0.57	 -1.68	  4.10	  4.22	  3.73	
239	 24.05	  0.76	 -1.58	  4.02	  4.11	  3.63	
240	 23.78	  0.82	 -1.78	  3.94	  4.03	  3.59	
241	 45.30	  0.74	 -2.57	 14.34	 14.75	 13.07	
242	 44.81	  0.86	 -2.63	 14.02	 14.41	 12.80	
243	 41.21	  0.62	 -2.70	 11.65	 11.99	 10.73	
244	 40.82	  0.73	 -2.61	 11.43	 11.75	 10.49	
245	 40.33	  0.84	 -2.70	 11.15	 11.45	 10.25	
246	 39.97	  0.84	 -2.69	 10.94	 11.23	 10.06	
247	 39.47	  0.93	 -2.90	 10.66	 10.93	  9.86	
248	 39.12	  1.03	 -2.86	 10.48	 10.73	  9.67	
249	 38.62	  1.03	 -2.85	 10.19	 10.44	  9.41	
250	 38.03	  0.90	 -2.49	  9.85	 10.11	  9.02	
251	 37.52	  0.92	 -2.72	  9.58	  9.82	  8.84	
252	 36.91	  0.93	 -2.65	  9.26	  9.49	  8.52	
253	 36.09	  0.86	 -2.49	  8.83	  9.06	  8.10	
254	 35.51	  0.87	 -2.44	  8.54	  8.76	  7.83	
255	 35.17	  0.83	 -2.48	  8.37	  8.58	  7.69	
256	 34.67	  0.96	 -2.43	  8.14	  8.33	  7.46	
257	 34.14	  0.83	 -2.40	  7.87	  8.07	  7.23	
258	 33.58	  0.80	 -2.18	  7.61	  7.81	  6.94	
259	 33.18	  1.07	 -2.29	  7.46	  7.62	  6.81	
260	 32.58	  0.78	 -2.13	  7.16	  7.34	  6.53	
261	 32.06	  0.79	 -2.09	  6.93	  7.11	  6.32	
262	 31.73	  0.76	 -1.94	  6.79	  6.96	  6.16	
263	 31.38	  0.73	 -2.01	  6.64	  6.81	  6.04	
264	 30.94	  0.76	 -1.90	  6.46	  6.63	  5.86	
265	 28.64	  0.87	 -2.01	  5.57	  5.70	  5.08	
266	 28.26	  0.84	 -1.90	  5.42	  5.55	  4.93	
267	 27.59	  0.85	 -1.82	  5.18	  5.30	  4.70	
268	 27.32	  0.86	 -2.05	  5.09	  5.21	  4.66	
269	 27.00	  0.77	 -2.15	  4.97	  5.09	  4.58	
270	 26.70	  0.76	 -2.10	  4.87	  4.99	  4.47	
271	 26.48	  0.94	 -2.11	  4.81	  4.91	  4.41	
272	 25.91	  0.72	 -1.80	  4.60	  4.72	  4.19	
273	 25.58	  0.73	 -1.58	  4.49	  4.61	  4.05	
274	 25.29	  0.74	 -1.65	  4.40	  4.51	  3.98	
275	 24.93	  0.78	 -1.63	  4.29	  4.39	  3.88	
276	 24.49	  0.72	 -1.68	  4.15	  4.25	  3.77	
277	 24.18	  0.78	 -1.79	  4.06	  4.16	  3.70	
278	 23.92	  0.95	 -1.90	  3.99	  4.08	  3.65	
279	 45.18	  0.75	 -2.52	 14.26	 14.67	 12.99	
280	 44.72	  0.82	 -2.59	 13.96	 14.35	 12.73	
281	 44.26	  0.88	 -2.64	 13.65	 14.02	 12.46	
282	 43.67	  0.82	 -2.64	 13.25	 13.61	 12.11	
283	 43.13	  0.71	 -2.53	 12.87	 13.25	 11.75	
284	 42.81	  0.86	 -2.64	 12.69	 13.03	 11.61	
285	 42.18	  0.79	 -2.68	 12.27	 12.62	 11.26	
286	 41.70	  0.78	 -2.55	 11.97	 12.31	 10.95	
287	 38.44	  0.88	 -2.63	 10.08	 10.34	  9.26	
288	 38.10	  0.98	 -2.49	  9.90	 10.14	  9.05	
289	 37.51	  0.97	 -2.75	  9.58	  9.81	  8.84	
290	 36.91	  0.95	 -2.76	  9.26	  9.49	  8.56	
291	 36.08	  0.92	 -2.64	  8.83	  9.05	  8.14	
292	 35.70	  0.91	 -2.47	  8.64	  8.85	  7.92	
293	 35.31	  0.94	 -2.55	  8.45	  8.65	  7.77	
294	 34.72	  0.95	 -2.38	  8.16	  8.36	  7.47	
295	 34.20	  0.91	 -2.30	  7.91	  8.11	  7.23	
296	 33.79	  1.00	 -2.17	  7.73	  7.91	  7.03	
297	 33.12	  0.88	 -2.17	  7.41	  7.59	  6.75	
298	 32.68	  0.93	 -2.13	  7.22	  7.39	  6.57	
299	 32.16	  0.85	 -2.02	  6.98	  7.16	  6.34	
300	 31.69	  0.82	 -2.06	  6.78	  6.95	  6.17	
301	 31.33	  0.65	 -1.90	  6.61	  6.79	  6.00	
302	 30.88	  0.58	 -1.91	  6.42	  6.60	  5.84	
303	 30.75	  0.74	 -1.90	  6.38	  6.54	  5.79	
304	 30.44	  0.61	 -1.68	  6.24	  6.42	  5.63	
305	 29.98	  0.60	 -1.68	  6.06	  6.23	  5.47	
306	 29.68	  0.72	 -1.63	  5.95	  6.11	  5.35	
307	 29.32	  0.79	 -1.70	  5.82	  5.96	  5.25	
308	 28.93	  0.86	 -1.68	  5.68	  5.81	  5.11	
309	 26.37	  0.75	 -2.03	  4.75	  4.87	  4.36	
310	 26.06	  0.70	 -1.89	  4.65	  4.77	  4.25	
311	 25.67	  0.71	 -2.00	  4.52	  4.64	  4.15	
312	 25.37	  0.71	 -1.93	  4.42	  4.54	  4.05	
313	 25.08	  0.88	 -2.03	  4.35	  4.44	  3.99	
314	 24.68	  0.91	 -2.02	  4.22	  4.31	  3.87	
315	 24.45	  1.11	 -2.10	  4.17	  4.24	  3.82	
316	 23.99	  1.12	 -1.94	  4.03	  4.10	  3.67	
317	 45.39	  0.74	 -2.68	 14.41	 14.82	 13.17	
318	 44.94	  0.89	 -2.74	 14.11	 14.50	 12.91	
319	 44.37	  0.79	 -2.72	 13.71	 14.09	 12.56	
320	 43.75	  0.82	 -2.68	 13.30	 13.67	 12.17	
321	 43.31	  0.74	 -2.68	 12.99	 13.37	 11.91	
322	 42.86	  0.79	 -2.85	 12.71	 13.06	 11.70	
323	 42.26	  0.76	 -2.75	 12.32	 12.67	 11.33	
324	 41.61	  0.71	 -2.63	 11.91	 12.25	 10.92	
325	 41.12	  0.67	 -2.49	 11.60	 11.94	 10.61	
326	 40.63	  0.65	 -2.45	 11.30	 11.63	 10.33	
327	 40.14	  0.64	 -2.32	 11.01	 11.33	 10.03	
328	 39.75	  0.72	 -2.47	 10.79	 11.10	  9.87	
329	 39.33	  0.85	 -2.54	 10.57	 10.85	  9.68	
330	 38.95	  0.90	 -2.55	 10.36	 10.63	  9.49	
331	 35.15	  0.91	 -2.55	  8.37	  8.58	  7.70	
332	 34.78	  0.95	 -2.48	  8.19	  8.39	  7.52	
333	 34.25	  0.98	 -2.45	  7.94	  8.13	  7.29	
334	 33.76	  1.00	 -2.62	  7.71	  7.89	  7.12	
335	 33.22	  0.97	 -2.41	  7.46	  7.64	  6.85	
336	 32.77	  1.04	 -2.45	  7.27	  7.43	  6.68	
337	 32.30	  0.90	 -2.25	  7.05	  7.22	  6.45	
338	 31.77	  0.81	 -2.18	  6.81	  6.99	  6.23	
339	 31.33	  0.76	 -2.06	  6.62	  6.79	  6.04	
340	 30.97	  0.72	 -2.05	  6.47	  6.64	  5.90	
341	 30.79	  0.73	 -2.04	  6.39	  6.56	  5.83	
342	 30.41	  0.64	 -1.70	  6.23	  6.41	  5.63	
343	 30.15	  0.66	 -1.99	  6.13	  6.30	  5.59	
344	 29.72	  0.70	 -1.90	  5.97	  6.12	  5.42	
345	 29.27	  0.62	 -1.77	  5.78	  5.94	  5.24	
346	 28.90	  0.60	 -1.76	  5.64	  5.80	  5.12	
347	 28.50	  0.66	 -1.75	  5.50	  5.65	  4.98	
348	 28.06	  0.61	 -1.67	  5.33	  5.48	  4.82	
349	 27.40	  0.50	 -1.50	  5.09	  5.24	  4.58	
350	 27.06	  0.60	 -1.83	  4.98	  5.12	  4.54	
351	 26.73	  0.62	 -1.67	  4.87	  5.00	  4.41	
352	 26.49	  0.64	 -1.89	  4.79	  4.92	  4.37	
353	 24.38	  1.01	 -1.98	  4.14	  4.22	  3.78	
354	 24.15	  1.01	 -1.93	  4.07	  4.15	  3.71	
355	 45.42	  0.78	 -2.81	 14.43	 14.84	 13.24	
356	 44.92	  0.78	 -2.65	 14.09	 14.49	 12.87	
357	 44.43	  0.81	 -2.70	 13.75	 14.13	 12.58	
358	 44.07	  0.80	 -2.90	 13.51	 13.89	 12.44	
359	 43.46	  0.77	 -2.87	 13.10	 13.47	 12.06	
360	 42.89	  0.80	 -3.03	 12.73	 13.09	 11.78	
361	 42.35	  0.64	 -2.74	 12.36	 12.73	 11.38	
362	 41.79	  0.74	 -2.86	 12.02	 12.36	 11.09	
363	 41.14	  0.64	 -2.53	 11.61	 11.96	 10.64	
364	 40.58	  0.59	 -2.42	 11.26	 11.60	 10.30	
365	 40.20	  0.70	 -2.39	 11.06	 11.37	 10.09	
366	 39.81	  0.84	 -2.56	 10.85	 11.14	  9.94	
367	 39.30	  0.84	 -2.62	 10.55	 10.84	  9.69	
368	 38.86	  0.83	 -2.52	 10.30	 10.58	  9.44	
369	 38.39	  0.79	 -2.57	 10.04	 10.31	  9.22	
370	 37.89	  0.70	 -2.49	  9.75	 10.03	  8.95	
371	 37.27	  0.71	 -2.21	  9.42	  9.68	  8.57	
372	 36.77	  0.69	 -2.32	  9.15	  9.41	  8.37	
373	 36.08	  0.85	 -2.41	  8.82	  9.05	  8.08	
374	 35.58	  0.95	 -2.45	  8.58	  8.79	  7.86	
375	 32.29	  1.01	 -2.21	  7.06	  7.22	  6.44	
376	 31.84	  0.80	 -2.15	  6.84	  7.02	  6.25	
377	 31.44	  0.73	 -2.10	  6.66	  6.84	  6.09	
378	 31.13	  0.77	 -2.16	  6.54	  6.71	  5.98	
379	 30.93	  0.73	 -1.91	  6.45	  6.62	  5.85	
380	 30.63	  0.76	 -2.05	  6.33	  6.50	  5.78	
381	 30.28	  0.80	 -2.03	  6.19	  6.35	  5.64	
382	 29.85	  0.82	 -1.77	  6.03	  6.17	  5.44	
383	 29.38	  0.80	 -1.82	  5.84	  5.99	  5.29	
384	 29.05	  0.87	 -1.87	  5.72	  5.86	  5.18	
385	 28.54	  0.73	 -1.73	  5.52	  5.66	  4.99	
386	 27.98	  0.67	 -1.59	  5.31	  5.45	  4.78	
387	 27.48	  0.71	 -1.81	  5.13	  5.27	  4.66	
388	 27.19	  0.70	 -1.82	  5.03	  5.16	  4.57	
389	 26.81	  0.63	 -1.78	  4.89	  5.03	  4.45	
390	 26.45	  0.56	 -1.84	  4.77	  4.90	  4.35	
391	 26.17	  0.64	 -1.83	  4.68	  4.81	  4.27	
392	 25.79	  0.59	 -1.78	  4.55	  4.68	  4.15	
393	 25.33	  0.53	 -1.64	  4.40	  4.52	  3.99	
394	 25.17	  0.53	 -1.63	  4.35	  4.47	  3.95	
395	 24.84	  0.59	 -1.70	  4.25	  4.36	  3.86	
396	 24.55	  0.86	 -1.89	  4.18	  4.27	  3.82	
397	 43.39	  0.88	 -2.78	 13.07	 13.42	 11.99	
398	 42.87	  0.81	 -2.88	 12.72	 13.07	 11.72	
399	 42.39	  0.82	 -2.85	 12.41	 12.75	 11.43	
400	 41.88	  0.72	 -2.60	 12.08	 12.42	 11.06	
401	 41.33	  0.75	 -2.67	 11.74	 12.07	 10.78	
402	 40.75	  0.70	 -2.52	 11.38	 11.71	 10.42	
403	 40.37	  0.85	 -2.65	 11.17	 11.47	 10.25	
404	 39.80	  0.81	 -2.87	 10.84	 11.13	 10.03	
405	 39.46	  0.93	 -2.80	 10.66	 10.93	  9.83	
406	 38.91	  0.95	 -2.69	 10.35	 10.61	  9.51	
407	 38.34	  0.89	 -2.56	 10.02	 10.28	  9.19	
408	 37.92	  0.82	 -2.57	  9.78	 10.04	  8.98	
409	 37.46	  0.84	 -2.56	  9.54	  9.79	  8.76	
410	 36.74	  0.77	 -2.35	  9.15	  9.40	  8.36	
411	 35.90	  0.77	 -2.18	  8.72	  8.95	  7.93	
412	 35.52	  0.81	 -2.23	  8.54	  8.76	  7.78	
413	 35.00	  0.86	 -2.46	  8.29	  8.50	  7.61	
414	 34.59	  0.76	 -2.36	  8.08	  8.29	  7.41	
415	 34.01	  0.78	 -2.17	  7.81	  8.01	  7.12	
416	 33.53	  0.90	 -2.20	  7.60	  7.78	  6.93	
417	 33.06	  0.97	 -2.17	  7.39	  7.57	  6.73	
418	 32.52	  0.95	 -2.03	  7.15	  7.32	  6.48	
419	 30.26	  0.82	 -1.99	  6.19	  6.34	  5.63	
420	 29.95	  0.83	 -1.95	  6.07	  6.22	  5.51	
421	 29.52	  0.81	 -1.91	  5.90	  6.04	  5.36	
422	 29.21	  0.89	 -1.79	  5.78	  5.92	  5.22	
423	 28.73	  0.75	 -1.75	  5.59	  5.73	  5.06	
424	 28.38	  0.86	 -1.88	  5.47	  5.60	  4.97	
425	 27.79	  0.93	 -1.80	  5.26	  5.38	  4.76	
426	 27.27	  0.82	 -1.94	  5.07	  5.19	  4.62	
427	 26.95	  0.81	 -1.88	  4.96	  5.08	  4.51	
428	 26.62	  0.84	 -1.88	  4.85	  4.96	  4.41	
429	 26.15	  0.70	 -1.78	  4.68	  4.80	  4.25	
430	 25.85	  0.67	 -1.70	  4.58	  4.69	  4.15	
431	 25.57	  0.65	 -1.63	  4.49	  4.60	  4.06	
432	 25.16	  0.58	 -1.62	  4.35	  4.47	  3.94	
433	 24.77	  0.63	 -1.56	  4.23	  4.34	  3.82	
434	 24.54	  0.69	 -1.52	  4.16	  4.27	  3.75	
435	 24.23	  0.78	 -1.75	  4.07	  4.17	  3.70	
436	 23.81	  0.82	 -1.72	  3.95	  4.04	  3.59	
437	 45.06	  0.72	 -2.43	 14.18	 14.59	 12.88	
438	 44.71	  0.87	 -2.57	 13.95	 14.33	 12.71	
439	 44.23	  0.86	 -2.53	 13.62	 14.00	 12.41	
440	 43.73	  0.95	 -2.61	 13.30	 13.65	 12.13	
441	 40.24	  0.82	 -2.58	 11.09	 11.39	 10.17	
442	 39.90	  0.83	 -2.56	 10.90	 11.19	  9.98	
443	 39.54	  0.92	 -2.56	 10.70	 10.97	  9.79	
444	 39.02	  0.95	 -2.66	 10.41	 10.67	  9.56	
445	 38.57	  0.96	 -2.74	 10.16	 10.41	  9.35	
446	 38.05	  0.83	 -2.74	  9.85	 10.12	  9.10	
447	 37.62	  1.03	 -2.83	  9.64	  9.87	  8.91	
448	 36.89	  0.94	 -2.53	  9.25	  9.48	  8.48	
449	 36.04	  0.84	 -2.51	  8.80	  9.03	  8.09	
450	 35.60	  0.89	 -2.41	  8.58	  8.80	  7.86	
451	 35.07	  0.84	 -2.31	  8.32	  8.53	  7.60	
452	 34.60	  0.80	 -2.29	  8.09	  8.30	  7.40	
453	 34.25	  0.83	 -2.25	  7.93	  8.13	  7.24	
454	 33.63	  0.97	 -2.24	  7.65	  7.83	  6.98	
455	 33.14	  1.07	 -2.18	  7.44	  7.60	  6.76	
456	 32.59	  0.82	 -2.17	  7.17	  7.35	  6.54	
457	 32.12	  0.80	 -2.09	  6.96	  7.14	  6.34	
458	 31.67	  0.73	 -1.97	  6.76	  6.94	  6.14	
459	 31.20	  0.66	 -1.67	  6.56	  6.74	  5.90	
460	 30.86	  0.72	 -1.77	  6.42	  6.59	  5.80	
461	 30.79	  0.74	 -1.73	  6.40	  6.56	  5.77	
462	 30.42	  0.77	 -1.94	  6.25	  6.41	  5.68	
463	 27.64	  0.78	 -1.79	  5.19	  5.32	  4.71	
464	 27.26	  0.75	 -1.85	  5.06	  5.19	  4.60	
465	 27.05	  0.80	 -1.93	  4.99	  5.11	  4.55	
466	 26.76	  0.77	 -2.00	  4.89	  5.01	  4.48	
467	 26.34	  0.64	 -2.00	  4.74	  4.86	  4.35	
468	 26.16	  0.77	 -1.91	  4.68	  4.80	  4.28	
469	 25.91	  0.78	 -2.04	  4.60	  4.72	  4.23	
470	 25.36	  0.71	 -1.74	  4.42	  4.53	  4.02	
471	 24.87	  0.77	 -1.61	  4.27	  4.37	  3.86	
472	 24.66	  0.89	 -1.66	  4.22	  4.31	  3.81	
473	 24.26	  0.83	 -1.68	  4.09	  4.18	  3.70	
474	 23.80	  0.83	 -1.68	  3.95	  4.04	  3.58	
475	 45.34	  0.78	 -2.72	 14.38	 14.79	 13.16	
476	 44.73	  0.81	 -2.53	 13.96	 14.35	 12.71	
477	 44.24	  0.81	 -2.46	 13.63	 14.01	 12.39	
478	 43.76	  0.86	 -2.74	 13.31	 13.67	 12.20	
479	 43.27	  0.86	 -2.70	 12.98	 13.34	 11.89	
480	 42.73	  0.78	 -2.70	 12.62	 12.98	 11.58	
481	 42.24	  0.80	 -2.58	 12.32	 12.66	 11.26	
482	 41.67	  0.81	 -2.59	 11.96	 12.29	 10.94	
483	 41.11	  0.71	 -2.42	 11.60	 11.94	 10.58	
484	 40.52	  0.76	 -2.49	 11.25	 11.57	 10.29	
485	 37.49	  0.97	 -2.49	  9.57	  9.80	  8.75	
486	 36.82	  0.93	 -2.47	  9.21	  9.44	  8.43	
487	 36.30	  0.84	 -2.46	  8.93	  9.17	  8.19	
488	 35.72	  0.84	 -2.43	  8.64	  8.87	  7.92	
489	 35.26	  0.94	 -2.33	  8.43	  8.63	  7.69	
490	 34.82	  0.94	 -2.39	  8.21	  8.41	  7.52	
