tool_per_2010/calibration_input/ref__114010.it8
Rene - TRC level chart 22x29

ORIGINATOR          ""
DESCRIPTOR          "Output Characterisation"
CREATED             "6/26/2008"

INSTRUMENTATION     "Spectrophotometer   Spectrolino ; Serial number 12554"

MEASUREMENT_SOURCE  "Illumination=D50	ObserverAngle=2°	DensityStd=ANSI A	WhiteBase=Abs	Filter=No"
ILLUMINANT          "D50"
OBSERVER            "2°"
FILTER_STATUS       "ANSI A"

PRINT_CONDITIONS    ""

NUMBER_OF_FIELDS    7
BEGIN_DATA_FORMAT
SAMPLE_ID	LAB_L	LAB_A	LAB_B	XYZ_X	XYZ_Y	XYZ_Z	
END_DATA_FORMAT

NUMBER_OF_SETS      638

BEGIN_DATA
1	 94.95	 -0.32	 -4.02	 84.16	 87.49	 76.78	
2	 87.98	  0.33	 -5.12	 69.56	 72.02	 64.62	
3	 82.04	  0.18	 -4.03	 58.27	 60.38	 53.43	
4	 76.66	  0.38	 -3.07	 49.27	 50.97	 44.50	
5	 71.07	 -0.03	 -3.11	 40.74	 42.28	 37.07	
6	 64.96	 -0.15	 -2.91	 32.73	 34.00	 29.82	
7	 58.81	  0.17	 -2.92	 25.89	 26.82	 23.65	
8	 53.37	  0.48	 -3.12	 20.71	 21.39	 19.05	
9	 47.98	  0.94	 -3.31	 16.33	 16.77	 15.11	
10	 41.93	  1.17	 -3.33	 12.17	 12.45	 11.33	
11	 36.13	  1.32	 -2.98	  8.90	  9.08	  8.25	
12	 30.49	  1.17	 -2.37	  6.31	  6.44	  5.79	
13	 26.13	  1.32	 -2.39	  4.72	  4.79	  4.35	
14	 22.19	  1.28	 -2.35	  3.52	  3.57	  3.27	
15	 18.43	  0.89	 -2.02	  2.57	  2.61	  2.38	
16	 15.21	  0.38	 -1.98	  1.89	  1.95	  1.79	
17	 12.75	  0.14	 -1.81	  1.47	  1.52	  1.40	
18	 10.66	  0.04	 -1.54	  1.17	  1.21	  1.10	
19	  8.73	 -0.17	 -0.93	  0.93	  0.97	  0.85	
20	  6.99	 -0.37	 -1.08	  0.74	  0.77	  0.69	
21	  5.96	 -0.39	 -1.10	  0.63	  0.66	  0.60	
22	  5.44	 -0.32	 -0.93	  0.57	  0.60	  0.55	
23	 31.24	  1.30	 -2.65	  6.63	  6.75	  6.13	
24	 30.84	  1.19	 -2.65	  6.46	  6.58	  5.98	
25	 30.50	  1.17	 -2.52	  6.32	  6.44	  5.83	
26	 30.21	  1.26	 -2.43	  6.21	  6.32	  5.70	
27	 29.81	  1.27	 -2.56	  6.05	  6.16	  5.59	
28	 29.35	  1.27	 -2.32	  5.87	  5.98	  5.38	
29	 29.02	  1.29	 -2.31	  5.75	  5.85	  5.26	
30	 28.56	  1.25	 -2.17	  5.57	  5.67	  5.08	
31	 28.17	  1.18	 -2.34	  5.42	  5.52	  4.99	
32	 27.72	  1.22	 -2.09	  5.26	  5.35	  4.79	
33	 27.29	  1.14	 -2.33	  5.10	  5.20	  4.70	
34	 26.81	  1.13	 -2.05	  4.93	  5.03	  4.50	
35	 26.49	  1.17	 -2.30	  4.83	  4.92	  4.45	
36	 26.30	  1.31	 -2.45	  4.78	  4.85	  4.42	
37	 25.79	  1.02	 -2.35	  4.58	  4.67	  4.24	
38	 25.55	  0.99	 -2.31	  4.50	  4.60	  4.17	
39	 25.33	  1.09	 -2.34	  4.44	  4.52	  4.11	
40	 24.94	  0.95	 -2.17	  4.31	  4.40	  3.97	
41	 24.51	  0.88	 -1.83	  4.17	  4.26	  3.79	
42	 24.28	  1.09	 -1.89	  4.11	  4.19	  3.74	
43	 24.05	  1.17	 -2.04	  4.05	  4.11	  3.70	
44	 23.76	  1.21	 -2.24	  3.97	  4.03	  3.66	
45	 41.69	  1.06	 -3.40	 12.01	 12.30	 11.22	
46	 41.19	  1.11	 -3.16	 11.71	 11.99	 10.86	
47	 40.68	  1.17	 -3.15	 11.40	 11.66	 10.58	
48	 40.14	  1.13	 -2.99	 11.08	 11.34	 10.24	
49	 39.80	  1.11	 -2.96	 10.88	 11.13	 10.05	
50	 39.37	  1.16	 -2.93	 10.63	 10.87	  9.82	
51	 38.90	  1.30	 -3.12	 10.38	 10.60	  9.63	
52	 38.47	  1.30	 -2.99	 10.15	 10.35	  9.38	
53	 38.02	  1.29	 -2.95	  9.90	 10.10	  9.14	
54	 37.51	  1.32	 -3.01	  9.62	  9.81	  8.91	
55	 36.93	  1.32	 -3.02	  9.32	  9.50	  8.64	
56	 36.32	  1.24	 -2.83	  8.99	  9.17	  8.30	
57	 35.86	  1.36	 -2.93	  8.77	  8.94	  8.12	
58	 35.46	  1.14	 -2.76	  8.54	  8.73	  7.89	
59	 34.92	  1.17	 -2.83	  8.28	  8.46	  7.67	
60	 34.46	  1.25	 -2.75	  8.07	  8.23	  7.45	
61	 34.04	  1.33	 -2.93	  7.88	  8.03	  7.31	
62	 33.62	  1.30	 -2.68	  7.68	  7.83	  7.08	
63	 32.96	  1.23	 -2.58	  7.37	  7.52	  6.79	
64	 32.66	  1.29	 -2.41	  7.25	  7.38	  6.63	
65	 32.15	  1.25	 -2.63	  7.02	  7.15	  6.48	
66	 31.65	  1.24	 -2.50	  6.80	  6.93	  6.25	
67	 28.82	  1.26	 -2.47	  5.67	  5.77	  5.23	
68	 28.48	  1.19	 -2.41	  5.53	  5.64	  5.10	
69	 28.18	  1.39	 -2.50	  5.44	  5.52	  5.02	
70	 27.75	  1.38	 -2.46	  5.29	  5.37	  4.87	
71	 27.33	  1.30	 -2.23	  5.13	  5.21	  4.69	
72	 27.01	  1.25	 -2.34	  5.01	  5.10	  4.61	
73	 26.84	  1.33	 -2.48	  4.96	  5.04	  4.59	
74	 26.34	  1.24	 -2.40	  4.78	  4.86	  4.42	
75	 26.14	  1.23	 -2.40	  4.71	  4.79	  4.36	
76	 25.79	  1.23	 -2.35	  4.60	  4.68	  4.25	
77	 25.41	  1.16	 -2.16	  4.47	  4.55	  4.10	
78	 24.84	  0.96	 -2.12	  4.27	  4.36	  3.93	
79	 24.56	  1.06	 -2.00	  4.19	  4.27	  3.83	
80	 24.34	  1.08	 -2.28	  4.13	  4.21	  3.82	
81	 23.99	  1.21	 -2.27	  4.03	  4.10	  3.72	
82	 23.58	  1.06	 -2.26	  3.90	  3.97	  3.61	
83	 44.75	  1.15	 -3.03	 14.03	 14.36	 12.90	
84	 44.21	  1.09	 -2.94	 13.65	 13.98	 12.54	
85	 43.73	  1.05	 -2.78	 13.32	 13.65	 12.19	
86	 43.33	  1.08	 -2.96	 13.06	 13.38	 12.02	
87	 42.84	  1.19	 -3.18	 12.75	 13.05	 11.80	
88	 42.23	  1.24	 -3.15	 12.37	 12.65	 11.44	
89	 38.71	  1.28	 -3.24	 10.28	 10.49	  9.57	
90	 38.38	  1.24	 -3.17	 10.08	 10.30	  9.38	
91	 37.94	  1.25	 -3.19	  9.85	 10.06	  9.17	
92	 37.44	  1.28	 -2.98	  9.58	  9.78	  8.87	
93	 37.00	  1.30	 -3.16	  9.35	  9.54	  8.71	
94	 36.45	  1.16	 -2.98	  9.05	  9.25	  8.40	
95	 36.17	  1.30	 -2.82	  8.92	  9.10	  8.23	
96	 35.59	  1.28	 -2.93	  8.62	  8.80	  7.99	
97	 35.12	  1.26	 -2.85	  8.39	  8.56	  7.76	
98	 34.59	  1.20	 -2.94	  8.13	  8.29	  7.55	
99	 34.11	  1.22	 -2.87	  7.90	  8.06	  7.33	
100	 33.52	  1.33	 -2.63	  7.64	  7.78	  7.03	
101	 33.08	  1.37	 -2.87	  7.44	  7.57	  6.90	
102	 32.54	  1.23	 -2.79	  7.19	  7.33	  6.67	
103	 32.03	  1.28	 -2.53	  6.97	  7.10	  6.40	
104	 31.55	  1.08	 -2.32	  6.74	  6.89	  6.17	
105	 31.18	  1.17	 -2.53	  6.60	  6.73	  6.08	
106	 30.73	  1.02	 -2.25	  6.40	  6.54	  5.85	
107	 30.27	  0.98	 -2.23	  6.21	  6.35	  5.68	
108	 29.99	  1.16	 -2.21	  6.11	  6.23	  5.58	
109	 29.64	  1.22	 -2.20	  5.98	  6.09	  5.45	
110	 29.16	  1.25	 -2.18	  5.80	  5.90	  5.29	
111	 26.57	  1.12	 -2.55	  4.85	  4.94	  4.51	
112	 26.23	  1.05	 -2.27	  4.73	  4.83	  4.36	
113	 26.08	  1.11	 -2.46	  4.69	  4.77	  4.35	
114	 25.69	  1.00	 -2.32	  4.55	  4.64	  4.21	
115	 25.35	  0.97	 -2.19	  4.44	  4.53	  4.09	
116	 25.17	  1.08	 -2.32	  4.39	  4.47	  4.06	
117	 24.81	  1.09	 -2.20	  4.27	  4.35	  3.94	
118	 24.33	  1.02	 -2.23	  4.12	  4.20	  3.81	
119	 24.07	  1.10	 -2.13	  4.05	  4.12	  3.72	
120	 23.77	  1.15	 -2.40	  3.96	  4.03	  3.68	
121	 44.82	  1.08	 -2.95	 14.06	 14.41	 12.91	
122	 44.16	  1.16	 -2.83	 13.62	 13.95	 12.47	
123	 43.73	  1.07	 -3.03	 13.32	 13.65	 12.28	
124	 43.28	  1.10	 -3.08	 13.03	 13.35	 12.03	
125	 42.71	  1.01	 -3.02	 12.64	 12.96	 11.67	
126	 42.18	  0.98	 -3.24	 12.31	 12.62	 11.44	
127	 41.83	  1.09	 -3.17	 12.10	 12.39	 11.22	
128	 41.09	  1.05	 -2.88	 11.64	 11.92	 10.72	
129	 40.43	  0.98	 -2.77	 11.23	 11.51	 10.33	
130	 40.05	  0.95	 -2.93	 11.00	 11.28	 10.17	
131	 39.65	  1.07	 -2.86	 10.79	 11.04	  9.94	
132	 39.14	  1.10	 -2.82	 10.50	 10.74	  9.67	
133	 35.87	  1.29	 -2.97	  8.77	  8.94	  8.13	
134	 35.50	  1.31	 -2.90	  8.58	  8.75	  7.95	
135	 35.07	  1.37	 -2.96	  8.38	  8.53	  7.77	
136	 34.59	  1.29	 -2.90	  8.14	  8.30	  7.55	
137	 34.19	  1.34	 -2.93	  7.95	  8.10	  7.38	
138	 33.72	  1.21	 -2.83	  7.72	  7.88	  7.16	
139	 33.20	  1.44	 -2.89	  7.51	  7.63	  6.96	
140	 32.65	  1.33	 -2.62	  7.25	  7.38	  6.67	
141	 32.20	  1.31	 -2.57	  7.05	  7.17	  6.48	
142	 31.77	  1.27	 -2.58	  6.86	  6.99	  6.32	
143	 31.28	  1.13	 -2.41	  6.64	  6.77	  6.09	
144	 30.67	  0.97	 -2.31	  6.37	  6.51	  5.85	
145	 30.39	  1.03	 -2.26	  6.26	  6.40	  5.74	
146	 30.01	  1.04	 -2.31	  6.11	  6.24	  5.61	
147	 29.63	  1.01	 -2.26	  5.96	  6.09	  5.46	
148	 29.15	  1.04	 -2.36	  5.77	  5.90	  5.32	
149	 28.87	  1.13	 -2.33	  5.68	  5.79	  5.22	
150	 28.40	  1.09	 -2.34	  5.50	  5.61	  5.06	
151	 27.88	  0.93	 -1.94	  5.29	  5.41	  4.81	
152	 27.55	  1.01	 -1.88	  5.18	  5.29	  4.70	
153	 27.23	  1.07	 -1.96	  5.08	  5.18	  4.61	
154	 26.80	  1.05	 -2.20	  4.92	  5.02	  4.52	
155	 24.69	  1.05	 -2.29	  4.24	  4.32	  3.92	
156	 24.41	  1.26	 -2.19	  4.16	  4.23	  3.82	
157	 24.15	  1.37	 -2.38	  4.09	  4.15	  3.78	
158	 23.85	  1.36	 -2.24	  4.00	  4.06	  3.68	
159	 44.88	  1.12	 -2.99	 14.11	 14.46	 12.96	
160	 44.37	  1.18	 -3.04	 13.77	 14.09	 12.67	
161	 43.96	  1.15	 -3.15	 13.49	 13.81	 12.46	
162	 43.36	  1.21	 -3.15	 13.10	 13.40	 12.10	
163	 42.84	  1.26	 -3.19	 12.77	 13.05	 11.81	
164	 42.41	  1.23	 -3.28	 12.49	 12.77	 11.59	
165	 41.76	  1.11	 -2.91	 12.06	 12.34	 11.10	
166	 41.09	  1.11	 -2.92	 11.64	 11.92	 10.73	
167	 40.60	  0.96	 -2.76	 11.33	 11.62	 10.41	
168	 40.10	  1.06	 -2.85	 11.04	 11.31	 10.17	
169	 39.66	  0.99	 -2.80	 10.78	 11.05	  9.93	
170	 39.15	  1.06	 -3.04	 10.50	 10.75	  9.74	
171	 38.80	  1.32	 -3.03	 10.33	 10.54	  9.55	
172	 38.20	  1.27	 -2.95	  9.99	 10.20	  9.23	
173	 37.72	  1.18	 -2.78	  9.72	  9.93	  8.95	
174	 37.34	  1.26	 -2.85	  9.52	  9.72	  8.78	
175	 36.96	  1.16	 -3.00	  9.31	  9.52	  8.65	
176	 36.25	  1.22	 -2.72	  8.95	  9.14	  8.24	
177	 33.02	  1.43	 -2.77	  7.42	  7.55	  6.85	
178	 32.58	  1.47	 -2.80	  7.23	  7.35	  6.69	
179	 32.08	  1.46	 -2.75	  7.01	  7.12	  6.47	
180	 31.58	  1.26	 -2.69	  6.77	  6.90	  6.27	
181	 31.30	  1.25	 -2.48	  6.65	  6.78	  6.11	
182	 30.75	  1.21	 -2.49	  6.43	  6.55	  5.91	
183	 30.44	  1.24	 -2.53	  6.30	  6.42	  5.81	
184	 30.03	  1.12	 -2.53	  6.13	  6.25	  5.66	
185	 29.63	  1.20	 -2.45	  5.98	  6.09	  5.50	
186	 29.24	  1.19	 -2.31	  5.82	  5.93	  5.34	
187	 28.83	  1.23	 -2.31	  5.67	  5.77	  5.20	
188	 28.27	  1.05	 -2.04	  5.45	  5.56	  4.96	
189	 27.93	  1.08	 -2.21	  5.33	  5.43	  4.88	
190	 27.51	  1.09	 -2.06	  5.18	  5.28	  4.72	
191	 27.02	  1.02	 -2.00	  5.00	  5.10	  4.56	
192	 26.73	  0.99	 -2.13	  4.89	  5.00	  4.49	
193	 26.45	  1.07	 -2.21	  4.81	  4.90	  4.42	
194	 26.03	  1.00	 -2.12	  4.66	  4.76	  4.28	
195	 25.72	  0.94	 -2.03	  4.55	  4.65	  4.17	
196	 25.44	  0.96	 -2.10	  4.47	  4.56	  4.10	
197	 25.23	  1.07	 -2.03	  4.41	  4.49	  4.03	
198	 24.91	  1.03	 -2.14	  4.30	  4.39	  3.96	
199	 43.82	  1.17	 -3.02	 13.40	 13.72	 12.33	
200	 43.34	  1.19	 -3.10	 13.08	 13.38	 12.07	
201	 42.84	  1.21	 -3.28	 12.76	 13.05	 11.84	
202	 42.31	  1.19	 -3.27	 12.42	 12.70	 11.53	
203	 41.85	  1.20	 -3.19	 12.13	 12.41	 11.24	
204	 41.27	  1.03	 -2.93	 11.74	 12.03	 10.83	
205	 40.81	  1.06	 -2.96	 11.47	 11.74	 10.59	
206	 40.18	  1.04	 -2.94	 11.09	 11.36	 10.25	
207	 39.78	  1.13	 -2.97	 10.87	 11.12	 10.04	
208	 39.31	  1.22	 -3.08	 10.61	 10.84	  9.83	
209	 38.86	  1.18	 -3.12	 10.35	 10.58	  9.61	
210	 38.36	  1.24	 -2.93	 10.08	 10.29	  9.31	
211	 37.90	  1.24	 -2.93	  9.83	 10.03	  9.08	
212	 37.35	  1.17	 -2.80	  9.52	  9.73	  8.78	
213	 36.85	  1.19	 -2.86	  9.26	  9.46	  8.55	
214	 36.30	  1.15	 -2.69	  8.97	  9.16	  8.25	
215	 35.85	  1.23	 -2.69	  8.75	  8.93	  8.05	
216	 35.33	  1.13	 -2.77	  8.48	  8.66	  7.84	
217	 34.82	  1.13	 -2.57	  8.23	  8.41	  7.56	
218	 34.49	  1.18	 -2.64	  8.08	  8.25	  7.44	
219	 34.14	  1.10	 -2.72	  7.90	  8.07	  7.31	
220	 33.51	  1.25	 -2.52	  7.63	  7.78	  7.00	
221	 30.38	  1.17	 -2.54	  6.27	  6.39	  5.79	
222	 30.05	  1.22	 -2.47	  6.14	  6.25	  5.65	
223	 29.73	  1.11	 -2.38	  6.01	  6.13	  5.52	
224	 29.26	  1.22	 -2.42	  5.83	  5.94	  5.37	
225	 29.02	  1.30	 -2.33	  5.75	  5.85	  5.27	
226	 28.58	  1.37	 -2.35	  5.59	  5.68	  5.12	
227	 28.24	  1.19	 -2.25	  5.45	  5.55	  4.99	
228	 27.70	  1.25	 -2.13	  5.26	  5.35	  4.79	
229	 27.26	  1.17	 -2.23	  5.09	  5.19	  4.67	
230	 26.93	  1.08	 -2.14	  4.97	  5.07	  4.55	
231	 26.58	  1.05	 -2.22	  4.85	  4.95	  4.46	
232	 26.22	  0.93	 -2.15	  4.72	  4.82	  4.34	
233	 25.89	  1.00	 -2.20	  4.61	  4.71	  4.25	
234	 25.57	  1.11	 -2.18	  4.52	  4.60	  4.15	
235	 25.12	  0.78	 -1.99	  4.35	  4.45	  3.99	
236	 24.80	  0.86	 -1.99	  4.26	  4.35	  3.90	
237	 24.56	  0.89	 -2.13	  4.18	  4.27	  3.86	
238	 24.20	  0.91	 -1.86	  4.08	  4.16	  3.72	
239	 23.72	  0.99	 -1.87	  3.94	  4.01	  3.59	
240	 23.53	  1.22	 -2.09	  3.90	  3.96	  3.57	
241	 44.79	  1.07	 -2.79	 14.04	 14.39	 12.84	
242	 44.19	  1.10	 -2.98	 13.64	 13.97	 12.54	
243	 40.59	  1.14	 -3.08	 11.35	 11.61	 10.51	
244	 40.16	  1.02	 -3.00	 11.07	 11.35	 10.25	
245	 39.69	  1.12	 -3.09	 10.82	 11.07	 10.03	
246	 39.36	  1.26	 -3.01	 10.64	 10.87	  9.84	
247	 38.92	  1.35	 -3.04	 10.40	 10.61	  9.62	
248	 38.50	  1.41	 -2.97	 10.18	 10.37	  9.39	
249	 38.09	  1.30	 -3.07	  9.93	 10.14	  9.21	
250	 37.50	  1.37	 -2.86	  9.62	  9.81	  8.86	
251	 37.05	  1.22	 -2.98	  9.37	  9.56	  8.68	
252	 36.51	  1.24	 -2.89	  9.09	  9.28	  8.40	
253	 36.05	  1.24	 -2.74	  8.85	  9.04	  8.15	
254	 35.45	  1.21	 -2.72	  8.55	  8.72	  7.88	
255	 34.97	  1.34	 -2.79	  8.33	  8.49	  7.68	
256	 34.61	  1.27	 -2.81	  8.15	  8.31	  7.53	
257	 34.04	  1.20	 -2.78	  7.87	  8.03	  7.28	
258	 33.49	  1.15	 -2.44	  7.61	  7.77	  6.97	
259	 33.10	  1.31	 -2.77	  7.45	  7.58	  6.89	
260	 32.42	  1.16	 -2.47	  7.13	  7.27	  6.55	
261	 31.92	  1.17	 -2.42	  6.91	  7.05	  6.34	
262	 31.59	  1.22	 -2.32	  6.78	  6.91	  6.19	
263	 31.22	  1.29	 -2.51	  6.63	  6.75	  6.09	
264	 30.74	  1.18	 -2.30	  6.42	  6.54	  5.87	
265	 27.93	  1.16	 -2.39	  5.33	  5.43	  4.92	
266	 27.62	  1.22	 -2.33	  5.22	  5.32	  4.80	
267	 27.20	  1.20	 -2.07	  5.07	  5.16	  4.62	
268	 27.03	  1.26	 -2.22	  5.02	  5.11	  4.60	
269	 26.64	  1.24	 -2.37	  4.89	  4.97	  4.50	
270	 26.47	  1.30	 -2.32	  4.83	  4.91	  4.45	
271	 26.22	  1.29	 -2.43	  4.75	  4.82	  4.39	
272	 25.75	  1.20	 -2.15	  4.59	  4.66	  4.20	
273	 25.38	  1.12	 -2.13	  4.46	  4.54	  4.09	
274	 25.18	  1.18	 -2.11	  4.40	  4.47	  4.03	
275	 24.74	  1.06	 -2.02	  4.25	  4.33	  3.89	
276	 24.30	  1.08	 -1.93	  4.12	  4.19	  3.75	
277	 23.98	  1.10	 -2.09	  4.02	  4.09	  3.69	
278	 23.62	  1.31	 -2.31	  3.93	  3.99	  3.63	
279	 44.61	  1.17	 -2.93	 13.93	 14.27	 12.78	
280	 44.12	  1.19	 -2.89	 13.60	 13.92	 12.46	
281	 43.70	  1.29	 -3.02	 13.34	 13.63	 12.25	
282	 43.17	  1.11	 -2.97	 12.96	 13.27	 11.93	
283	 42.60	  1.04	 -2.92	 12.58	 12.89	 11.58	
284	 42.32	  1.11	 -3.01	 12.41	 12.71	 11.45	
285	 41.74	  1.15	 -3.07	 12.06	 12.34	 11.14	
286	 41.12	  1.09	 -2.94	 11.66	 11.94	 10.75	
287	 37.89	  1.32	 -2.99	  9.83	 10.03	  9.09	
288	 37.43	  1.22	 -3.06	  9.57	  9.77	  8.89	
289	 36.95	  1.41	 -3.06	  9.34	  9.51	  8.66	
290	 36.59	  1.37	 -2.99	  9.15	  9.32	  8.47	
291	 36.05	  1.35	 -2.86	  8.86	  9.03	  8.18	
292	 35.68	  1.31	 -2.87	  8.68	  8.85	  8.02	
293	 35.15	  1.20	 -2.84	  8.40	  8.57	  7.77	
294	 34.57	  1.28	 -2.78	  8.13	  8.28	  7.50	
295	 34.18	  1.21	 -2.74	  7.94	  8.10	  7.33	
296	 33.65	  1.24	 -2.64	  7.69	  7.84	  7.08	
297	 33.19	  1.29	 -2.56	  7.48	  7.63	  6.87	
298	 32.53	  1.29	 -2.56	  7.19	  7.32	  6.61	
299	 32.10	  1.35	 -2.61	  7.01	  7.13	  6.45	
300	 31.54	  1.20	 -2.38	  6.75	  6.88	  6.18	
301	 31.03	  1.06	 -2.37	  6.53	  6.67	  5.99	
302	 30.63	  0.99	 -2.24	  6.36	  6.50	  5.82	
303	 30.26	  1.12	 -2.32	  6.22	  6.34	  5.70	
304	 29.83	  0.97	 -2.10	  6.03	  6.17	  5.50	
305	 29.55	  1.05	 -2.10	  5.93	  6.05	  5.40	
306	 29.27	  1.09	 -2.14	  5.82	  5.94	  5.31	
307	 28.85	  1.18	 -2.13	  5.67	  5.78	  5.17	
308	 28.43	  1.28	 -2.23	  5.52	  5.62	  5.05	
309	 26.02	  1.09	 -2.62	  4.66	  4.75	  4.36	
310	 25.78	  1.12	 -2.50	  4.59	  4.67	  4.27	
311	 25.50	  1.14	 -2.30	  4.50	  4.58	  4.15	
312	 25.20	  1.25	 -2.46	  4.41	  4.48	  4.09	
313	 24.78	  1.16	 -2.24	  4.27	  4.35	  3.94	
314	 24.64	  1.21	 -2.33	  4.23	  4.30	  3.91	
315	 24.27	  1.35	 -2.23	  4.13	  4.18	  3.79	
316	 23.79	  1.38	 -2.32	  3.98	  4.04	  3.68	
317	 44.86	  1.11	 -2.89	 14.10	 14.44	 12.92	
318	 44.36	  1.16	 -2.94	 13.76	 14.09	 12.63	
319	 43.94	  1.12	 -2.98	 13.47	 13.79	 12.39	
320	 43.26	  1.23	 -3.13	 13.04	 13.33	 12.03	
321	 42.79	  1.21	 -2.97	 12.73	 13.02	 11.70	
322	 42.32	  1.05	 -3.19	 12.40	 12.71	 11.51	
323	 41.66	  1.11	 -3.11	 11.99	 12.28	 11.11	
324	 41.16	  1.06	 -3.02	 11.68	 11.96	 10.80	
325	 40.59	  1.01	 -3.01	 11.33	 11.61	 10.48	
326	 39.94	  1.03	 -2.82	 10.95	 11.22	 10.09	
327	 39.59	  0.96	 -2.63	 10.73	 11.01	  9.84	
328	 39.25	  1.10	 -2.82	 10.56	 10.80	  9.72	
329	 38.82	  1.18	 -2.80	 10.33	 10.56	  9.50	
330	 38.36	  1.21	 -2.92	 10.08	 10.29	  9.31	
331	 34.97	  1.21	 -2.94	  8.31	  8.48	  7.72	
332	 34.62	  1.18	 -2.96	  8.14	  8.31	  7.57	
333	 34.18	  1.36	 -2.78	  7.95	  8.10	  7.34	
334	 33.74	  1.43	 -2.96	  7.75	  7.88	  7.20	
335	 33.18	  1.37	 -2.83	  7.49	  7.62	  6.93	
336	 32.68	  1.40	 -2.76	  7.27	  7.39	  6.71	
337	 32.24	  1.41	 -2.60	  7.07	  7.19	  6.50	
338	 31.70	  1.24	 -2.53	  6.82	  6.95	  6.28	
339	 31.20	  1.20	 -2.58	  6.61	  6.74	  6.10	
340	 30.82	  1.10	 -2.32	  6.44	  6.57	  5.90	
341	 30.39	  1.03	 -2.29	  6.26	  6.40	  5.74	
342	 29.89	  1.12	 -2.28	  6.07	  6.19	  5.56	
343	 29.53	  1.12	 -2.28	  5.93	  6.05	  5.43	
344	 29.18	  1.11	 -2.19	  5.79	  5.91	  5.29	
345	 28.62	  1.10	 -2.07	  5.58	  5.69	  5.08	
346	 28.23	  0.97	 -2.07	  5.43	  5.54	  4.95	
347	 27.87	  1.10	 -2.16	  5.30	  5.41	  4.85	
348	 27.37	  1.04	 -2.20	  5.12	  5.23	  4.70	
349	 26.91	  0.83	 -1.72	  4.94	  5.06	  4.47	
350	 26.79	  0.97	 -2.28	  4.91	  5.02	  4.53	
351	 26.53	  1.01	 -2.07	  4.83	  4.93	  4.42	
352	 26.21	  1.09	 -2.26	  4.73	  4.82	  4.35	
353	 23.99	  1.15	 -2.42	  4.03	  4.10	  3.75	
354	 23.74	  1.30	 -2.37	  3.96	  4.02	  3.67	
355	 44.80	  1.08	 -2.98	 14.05	 14.40	 12.91	
356	 44.35	  1.28	 -3.07	 13.78	 14.08	 12.67	
357	 43.91	  1.18	 -3.01	 13.46	 13.77	 12.38	
358	 43.40	  1.16	 -3.05	 13.12	 13.42	 12.09	
359	 42.95	  1.11	 -3.30	 12.81	 13.12	 11.91	
360	 42.39	  1.13	 -3.23	 12.46	 12.75	 11.56	
361	 41.80	  1.08	 -3.00	 12.08	 12.37	 11.15	
362	 41.19	  1.07	 -3.01	 11.70	 11.98	 10.81	
363	 40.62	  1.08	 -2.77	 11.35	 11.63	 10.42	
364	 40.04	  1.02	 -2.70	 11.01	 11.28	 10.10	
365	 39.56	  1.19	 -2.78	 10.75	 10.99	  9.87	
366	 39.22	  1.12	 -2.85	 10.54	 10.79	  9.72	
367	 38.75	  1.12	 -2.83	 10.28	 10.52	  9.48	
368	 38.27	  1.17	 -2.85	 10.02	 10.24	  9.24	
369	 37.94	  1.28	 -2.86	  9.85	 10.06	  9.08	
370	 37.29	  1.15	 -2.86	  9.48	  9.69	  8.76	
371	 36.78	  1.12	 -2.59	  9.21	  9.42	  8.45	
372	 36.42	  1.10	 -2.77	  9.02	  9.23	  8.33	
373	 36.02	  1.14	 -2.76	  8.83	  9.02	  8.15	
374	 35.52	  1.21	 -2.79	  8.58	  8.76	  7.93	
375	 31.88	  1.32	 -2.63	  6.91	  7.03	  6.37	
376	 31.63	  1.43	 -2.69	  6.81	  6.92	  6.29	
377	 31.29	  1.30	 -2.48	  6.65	  6.77	  6.11	
378	 30.79	  1.15	 -2.52	  6.43	  6.56	  5.93	
379	 30.42	  1.15	 -2.30	  6.28	  6.41	  5.75	
380	 30.05	  1.20	 -2.30	  6.14	  6.26	  5.62	
381	 29.68	  1.35	 -2.35	  6.01	  6.11	  5.50	
382	 29.29	  1.29	 -2.39	  5.85	  5.95	  5.37	
383	 28.91	  1.27	 -2.22	  5.71	  5.80	  5.21	
384	 28.56	  1.37	 -2.35	  5.58	  5.67	  5.12	
385	 28.05	  1.23	 -2.23	  5.38	  5.48	  4.92	
386	 27.52	  1.05	 -1.91	  5.17	  5.28	  4.69	
387	 27.12	  1.17	 -2.06	  5.04	  5.14	  4.60	
388	 26.82	  1.14	 -2.17	  4.94	  5.03	  4.52	
389	 26.42	  1.04	 -2.09	  4.80	  4.89	  4.39	
390	 26.18	  1.17	 -2.18	  4.72	  4.81	  4.33	
391	 25.98	  1.17	 -2.38	  4.66	  4.74	  4.31	
392	 25.49	  1.04	 -2.19	  4.49	  4.58	  4.13	
393	 25.05	  0.99	 -2.13	  4.34	  4.43	  3.99	
394	 24.99	  1.01	 -2.07	  4.33	  4.41	  3.97	
395	 24.63	  0.91	 -1.93	  4.21	  4.30	  3.84	
396	 24.30	  1.11	 -2.15	  4.12	  4.19	  3.79	
397	 42.55	  1.14	 -3.21	 12.56	 12.86	 11.65	
398	 42.26	  1.18	 -3.17	 12.38	 12.67	 11.47	
399	 41.74	  1.13	 -3.06	 12.05	 12.33	 11.14	
400	 41.26	  1.17	 -3.03	 11.76	 12.03	 10.86	
401	 40.63	  1.12	 -3.01	 11.37	 11.63	 10.51	
402	 40.24	  1.07	 -2.82	 11.13	 11.39	 10.24	
403	 39.89	  1.25	 -2.98	 10.95	 11.18	 10.10	
404	 39.38	  1.29	 -2.94	 10.66	 10.88	  9.82	
405	 38.81	  1.34	 -3.06	 10.34	 10.55	  9.57	
406	 38.44	  1.32	 -2.98	 10.13	 10.33	  9.36	
407	 37.80	  1.23	 -2.86	  9.77	  9.98	  9.01	
408	 37.39	  1.16	 -2.75	  9.54	  9.75	  8.78	
409	 36.85	  1.23	 -2.71	  9.26	  9.45	  8.51	
410	 36.35	  1.24	 -2.75	  9.00	  9.19	  8.29	
411	 35.75	  1.18	 -2.50	  8.70	  8.88	  7.95	
412	 35.49	  1.18	 -2.64	  8.57	  8.75	  7.88	
413	 34.95	  1.20	 -2.81	  8.30	  8.47	  7.68	
414	 34.42	  1.13	 -2.73	  8.04	  8.21	  7.43	
415	 33.94	  1.15	 -2.60	  7.81	  7.98	  7.19	
416	 33.59	  1.22	 -2.50	  7.66	  7.81	  7.02	
417	 33.11	  1.34	 -2.67	  7.45	  7.59	  6.87	
418	 32.49	  1.27	 -2.54	  7.17	  7.30	  6.59	
419	 29.49	  1.14	 -2.38	  5.91	  6.03	  5.44	
420	 29.28	  1.30	 -2.29	  5.85	  5.95	  5.35	
421	 28.87	  1.12	 -2.28	  5.67	  5.79	  5.21	
422	 28.51	  1.29	 -2.26	  5.55	  5.65	  5.08	
423	 28.09	  1.28	 -2.20	  5.40	  5.49	  4.93	
424	 27.78	  1.23	 -2.07	  5.28	  5.37	  4.81	
425	 27.37	  1.31	 -2.14	  5.14	  5.23	  4.69	
426	 26.88	  1.21	 -2.13	  4.97	  5.05	  4.54	
427	 26.63	  1.22	 -2.32	  4.88	  4.96	  4.49	
428	 26.42	  1.23	 -2.37	  4.81	  4.89	  4.44	
429	 25.96	  1.05	 -2.34	  4.64	  4.73	  4.29	
430	 25.57	  0.99	 -2.04	  4.51	  4.60	  4.13	
431	 25.28	  1.10	 -2.13	  4.42	  4.51	  4.06	
432	 24.93	  1.01	 -2.03	  4.31	  4.39	  3.94	
433	 24.47	  0.80	 -1.85	  4.15	  4.25	  3.79	
434	 24.27	  0.97	 -1.91	  4.10	  4.18	  3.74	
435	 24.00	  1.11	 -2.23	  4.03	  4.10	  3.72	
436	 23.64	  1.19	 -2.20	  3.93	  3.99	  3.62	
437	 44.63	  1.12	 -2.84	 13.94	 14.28	 12.76	
438	 44.26	  1.14	 -2.80	 13.69	 14.02	 12.52	
439	 43.73	  1.08	 -2.87	 13.33	 13.65	 12.23	
440	 43.22	  1.14	 -3.03	 13.00	 13.31	 11.98	
441	 39.57	  1.18	 -3.03	 10.75	 10.99	  9.95	
442	 39.23	  1.20	 -2.85	 10.56	 10.79	  9.72	
443	 38.89	  1.26	 -3.01	 10.38	 10.60	  9.60	
444	 38.45	  1.42	 -2.94	 10.15	 10.34	  9.36	
445	 37.96	  1.38	 -2.97	  9.87	 10.06	  9.12	
446	 37.57	  1.21	 -2.88	  9.64	  9.85	  8.90	
447	 37.03	  1.27	 -3.01	  9.36	  9.55	  8.68	
448	 36.38	  1.19	 -2.91	  9.01	  9.21	  8.35	
449	 35.95	  1.24	 -2.84	  8.80	  8.98	  8.13	
450	 35.59	  1.33	 -2.76	  8.63	  8.80	  7.95	
451	 34.99	  1.20	 -2.71	  8.32	  8.49	  7.67	
452	 34.46	  1.18	 -2.62	  8.06	  8.23	  7.42	
453	 34.00	  1.32	 -2.64	  7.86	  8.01	  7.23	
454	 33.49	  1.29	 -2.57	  7.62	  7.77	  7.00	
455	 32.88	  1.24	 -2.57	  7.34	  7.48	  6.75	
456	 32.42	  1.34	 -2.45	  7.15	  7.27	  6.54	
457	 32.03	  1.25	 -2.57	  6.97	  7.10	  6.41	
458	 31.52	  1.11	 -2.34	  6.74	  6.88	  6.17	
459	 31.02	  1.06	 -2.15	  6.52	  6.66	  5.94	
460	 30.73	  1.11	 -2.17	  6.41	  6.54	  5.84	
461	 30.32	  1.00	 -2.24	  6.23	  6.37	  5.70	
462	 29.90	  1.15	 -2.18	  6.08	  6.20	  5.54	
463	 27.15	  1.21	 -2.18	  5.06	  5.15	  4.63	
464	 26.92	  1.07	 -2.25	  4.97	  5.07	  4.57	
465	 26.66	  1.13	 -2.35	  4.88	  4.98	  4.51	
466	 26.39	  1.18	 -2.26	  4.80	  4.88	  4.41	
467	 26.12	  1.15	 -2.27	  4.70	  4.79	  4.33	
468	 25.79	  1.21	 -2.35	  4.60	  4.68	  4.24	
469	 25.58	  1.09	 -2.44	  4.52	  4.61	  4.20	
470	 25.10	  1.21	 -2.22	  4.38	  4.45	  4.02	
471	 24.68	  1.14	 -2.09	  4.24	  4.31	  3.88	
472	 24.46	  1.13	 -2.16	  4.17	  4.24	  3.83	
473	 24.00	  1.09	 -2.08	  4.03	  4.10	  3.70	
474	 23.56	  1.11	 -2.00	  3.90	  3.97	  3.57	
475	 44.78	  1.10	 -2.85	 14.04	 14.39	 12.85	
476	 44.21	  1.12	 -3.00	 13.65	 13.99	 12.56	
477	 43.69	  1.13	 -2.88	 13.31	 13.63	 12.20	
478	 43.23	  1.18	 -3.05	 13.01	 13.32	 11.99	
479	 42.70	  1.28	 -3.09	 12.68	 12.96	 11.69	
480	 42.24	  1.15	 -3.05	 12.37	 12.66	 11.42	
481	 41.60	  1.08	 -2.78	 11.95	 12.24	 10.97	
482	 41.18	  1.15	 -2.78	 11.70	 11.98	 10.73	
483	 40.62	  1.05	 -2.94	 11.35	 11.63	 10.48	
484	 40.12	  1.12	 -2.88	 11.07	 11.32	 10.19	
485	 36.84	  1.38	 -2.92	  9.28	  9.45	  8.57	
486	 36.46	  1.28	 -2.74	  9.07	  9.25	  8.34	
487	 36.05	  1.27	 -2.73	  8.85	  9.03	  8.15	
488	 35.54	  1.37	 -2.84	  8.61	  8.77	  7.95	
489	 35.18	  1.32	 -2.73	  8.43	  8.59	  7.76	
490	 34.67	  1.33	 -2.66	  8.18	  8.34	  7.52	
