tool_per_2010/w11macro/calibration_input/ref__122122.it8
Rene - TRC level chart 22x29

ORIGINATOR          ""
DESCRIPTOR          "Output Characterisation"
CREATED             "6/26/2008"

INSTRUMENTATION     "Spectrophotometer   Spectrolino ; Serial number 12554"

MEASUREMENT_SOURCE  "Illumination=D50	ObserverAngle=2°	DensityStd=ANSI A	WhiteBase=Abs	Filter=No"
ILLUMINANT          "D50"
OBSERVER            "2°"
FILTER_STATUS       "ANSI A"

PRINT_CONDITIONS    ""

NUMBER_OF_FIELDS    7
BEGIN_DATA_FORMAT
SAMPLE_ID	LAB_L	LAB_A	LAB_B	XYZ_X	XYZ_Y	XYZ_Z	
END_DATA_FORMAT

NUMBER_OF_SETS      638

BEGIN_DATA
1	 95.13	 -0.28	 -4.03	 84.60	 87.93	 77.17	
2	 88.22	  0.28	 -5.01	 70.03	 72.53	 64.94	
3	 82.21	  0.16	 -3.90	 58.55	 60.68	 53.57	
4	 76.49	  0.34	 -3.01	 48.97	 50.68	 44.20	
5	 70.55	 -0.03	 -3.20	 40.02	 41.53	 36.49	
6	 65.07	 -0.16	 -2.87	 32.85	 34.13	 29.91	
7	 58.37	  0.10	 -3.14	 25.43	 26.36	 23.37	
8	 53.65	  0.56	 -2.88	 20.98	 21.65	 19.16	
9	 48.15	  1.00	 -3.30	 16.48	 16.91	 15.23	
10	 42.16	  1.18	 -3.26	 12.32	 12.60	 11.44	
11	 35.98	  1.26	 -2.81	  8.82	  9.00	  8.14	
12	 30.63	  1.07	 -2.30	  6.36	  6.49	  5.83	
13	 26.07	  1.21	 -2.30	  4.69	  4.77	  4.32	
14	 22.42	  1.28	 -2.35	  3.58	  3.63	  3.33	
15	 18.66	  0.93	 -1.91	  2.62	  2.67	  2.42	
16	 15.23	  0.37	 -1.99	  1.90	  1.95	  1.79	
17	 12.98	  0.18	 -1.99	  1.51	  1.56	  1.45	
18	 10.61	 -0.06	 -1.43	  1.16	  1.21	  1.09	
19	  8.62	 -0.16	 -1.05	  0.92	  0.96	  0.85	
20	  6.85	 -0.39	 -0.96	  0.72	  0.76	  0.68	
21	  5.96	 -0.28	 -0.94	  0.63	  0.66	  0.59	
22	  5.45	 -0.23	 -0.97	  0.58	  0.60	  0.55	
23	 31.22	  1.16	 -2.37	  6.61	  6.75	  6.06	
24	 30.87	  1.09	 -2.40	  6.46	  6.60	  5.94	
25	 30.67	  1.12	 -2.35	  6.38	  6.51	  5.85	
26	 30.48	  1.13	 -2.56	  6.30	  6.43	  5.83	
27	 30.15	  1.33	 -2.25	  6.19	  6.30	  5.64	
28	 29.77	  1.23	 -2.19	  6.03	  6.14	  5.50	
29	 29.38	  1.27	 -2.19	  5.88	  5.99	  5.36	
30	 28.93	  1.36	 -2.16	  5.72	  5.81	  5.20	
31	 28.55	  1.25	 -2.14	  5.57	  5.67	  5.07	
32	 28.06	  1.04	 -2.04	  5.37	  5.48	  4.89	
33	 27.50	  1.15	 -2.20	  5.18	  5.27	  4.74	
34	 26.94	  1.01	 -1.94	  4.97	  5.07	  4.52	
35	 26.56	  1.08	 -2.10	  4.85	  4.94	  4.43	
36	 26.34	  1.14	 -2.26	  4.78	  4.86	  4.39	
37	 25.85	  0.99	 -2.12	  4.60	  4.69	  4.22	
38	 25.53	  0.98	 -2.03	  4.50	  4.59	  4.12	
39	 25.30	  1.09	 -2.16	  4.43	  4.51	  4.07	
40	 24.92	  0.91	 -1.90	  4.30	  4.39	  3.92	
41	 24.60	  0.97	 -1.68	  4.20	  4.29	  3.80	
42	 24.34	  1.13	 -1.99	  4.13	  4.21	  3.77	
43	 24.23	  1.22	 -2.08	  4.10	  4.17	  3.76	
44	 23.87	  1.32	 -2.20	  4.01	  4.06	  3.68	
45	 42.17	  1.10	 -3.18	 12.31	 12.61	 11.42	
46	 41.54	  1.00	 -2.94	 11.91	 12.21	 10.99	
47	 41.04	  1.03	 -2.94	 11.60	 11.89	 10.71	
48	 40.57	  0.97	 -2.69	 11.31	 11.60	 10.38	
49	 40.25	  1.09	 -2.84	 11.14	 11.40	 10.25	
50	 39.73	  1.13	 -2.88	 10.84	 11.09	  9.99	
51	 39.28	  1.18	 -3.01	 10.59	 10.82	  9.80	
52	 38.85	  1.22	 -2.85	 10.35	 10.57	  9.53	
53	 38.30	  1.19	 -3.00	 10.04	 10.26	  9.30	
54	 37.82	  1.13	 -2.71	  9.77	  9.99	  8.98	
55	 37.34	  1.20	 -2.85	  9.52	  9.72	  8.79	
56	 36.59	  1.04	 -2.66	  9.10	  9.32	  8.38	
57	 35.90	  1.11	 -2.78	  8.76	  8.96	  8.09	
58	 35.45	  1.07	 -2.47	  8.53	  8.73	  7.81	
59	 34.93	  1.12	 -2.55	  8.28	  8.46	  7.60	
60	 34.45	  1.19	 -2.59	  8.06	  8.23	  7.41	
61	 33.93	  1.20	 -2.66	  7.82	  7.97	  7.20	
62	 33.46	  1.17	 -2.44	  7.60	  7.75	  6.96	
63	 32.95	  1.21	 -2.36	  7.37	  7.52	  6.73	
64	 32.53	  1.26	 -2.28	  7.18	  7.32	  6.54	
65	 32.10	  1.17	 -2.27	  6.99	  7.13	  6.37	
66	 31.64	  1.09	 -2.31	  6.78	  6.93	  6.21	
67	 29.22	  1.08	 -2.30	  5.81	  5.93	  5.33	
68	 28.86	  1.20	 -2.14	  5.68	  5.78	  5.18	
69	 28.50	  1.11	 -2.19	  5.54	  5.65	  5.07	
70	 28.04	  1.25	 -2.26	  5.38	  5.47	  4.93	
71	 27.45	  1.13	 -2.16	  5.16	  5.25	  4.72	
72	 27.09	  1.12	 -2.09	  5.03	  5.13	  4.59	
73	 26.79	  1.17	 -2.16	  4.93	  5.02	  4.51	
74	 26.37	  1.07	 -2.13	  4.78	  4.87	  4.38	
75	 26.09	  1.08	 -2.13	  4.69	  4.78	  4.30	
76	 25.78	  0.95	 -2.14	  4.58	  4.67	  4.21	
77	 25.37	  0.91	 -2.04	  4.44	  4.54	  4.07	
78	 24.91	  0.83	 -1.94	  4.29	  4.39	  3.92	
79	 24.65	  0.96	 -2.03	  4.22	  4.30	  3.87	
80	 24.31	  1.05	 -2.11	  4.12	  4.20	  3.78	
81	 24.03	  0.96	 -2.10	  4.03	  4.11	  3.71	
82	 23.61	  1.05	 -2.11	  3.91	  3.98	  3.60	
83	 45.16	  1.02	 -2.89	 14.29	 14.66	 13.11	
84	 44.53	  0.94	 -2.75	 13.84	 14.21	 12.67	
85	 44.08	  0.97	 -2.68	 13.54	 13.89	 12.37	
86	 43.65	  0.93	 -2.97	 13.25	 13.59	 12.21	
87	 43.15	  0.92	 -2.96	 12.92	 13.26	 11.91	
88	 42.59	  1.05	 -3.04	 12.57	 12.88	 11.61	
89	 39.13	  1.16	 -2.87	 10.50	 10.73	  9.68	
90	 38.73	  1.18	 -2.83	 10.27	 10.50	  9.46	
91	 38.27	  1.22	 -3.00	 10.03	 10.24	  9.28	
92	 37.76	  1.22	 -2.94	  9.75	  9.95	  9.01	
93	 37.32	  1.14	 -2.78	  9.50	  9.71	  8.75	
94	 36.68	  1.14	 -2.88	  9.16	  9.37	  8.48	
95	 35.93	  1.18	 -2.74	  8.78	  8.97	  8.10	
96	 35.42	  1.15	 -2.67	  8.52	  8.71	  7.85	
97	 34.96	  1.10	 -2.68	  8.29	  8.48	  7.65	
98	 34.55	  1.11	 -2.85	  8.10	  8.27	  7.51	
99	 33.91	  1.12	 -2.52	  7.80	  7.96	  7.16	
100	 33.46	  1.22	 -2.56	  7.60	  7.75	  6.98	
101	 32.92	  1.16	 -2.55	  7.35	  7.50	  6.76	
102	 32.41	  1.10	 -2.41	  7.12	  7.27	  6.53	
103	 31.96	  1.14	 -2.41	  6.92	  7.07	  6.35	
104	 31.39	  0.92	 -2.20	  6.66	  6.82	  6.09	
105	 31.16	  1.05	 -2.42	  6.58	  6.72	  6.05	
106	 30.60	  0.91	 -2.10	  6.33	  6.48	  5.77	
107	 30.48	  0.89	 -2.17	  6.28	  6.43	  5.75	
108	 30.28	  0.98	 -2.27	  6.21	  6.35	  5.70	
109	 29.91	  0.97	 -2.17	  6.07	  6.20	  5.54	
110	 29.53	  1.08	 -1.92	  5.92	  6.05	  5.36	
111	 26.72	  0.97	 -2.44	  4.89	  4.99	  4.54	
112	 26.31	  0.94	 -2.04	  4.75	  4.85	  4.34	
113	 26.07	  1.02	 -2.28	  4.67	  4.77	  4.32	
114	 25.70	  0.96	 -2.06	  4.55	  4.64	  4.17	
115	 25.42	  0.99	 -1.96	  4.46	  4.55	  4.07	
116	 25.01	  0.84	 -1.99	  4.32	  4.42	  3.96	
117	 24.90	  1.11	 -2.13	  4.31	  4.38	  3.95	
118	 24.38	  1.15	 -2.18	  4.15	  4.22	  3.81	
119	 23.99	  1.21	 -2.07	  4.03	  4.10	  3.69	
120	 23.70	  1.26	 -2.12	  3.95	  4.01	  3.62	
121	 45.09	  0.97	 -2.86	 14.23	 14.60	 13.05	
122	 44.52	  1.00	 -2.67	 13.84	 14.20	 12.63	
123	 44.05	  0.96	 -2.75	 13.52	 13.87	 12.37	
124	 43.57	  0.98	 -2.80	 13.20	 13.54	 12.11	
125	 43.06	  1.03	 -2.82	 12.87	 13.20	 11.81	
126	 42.54	  0.94	 -3.04	 12.52	 12.85	 11.58	
127	 42.07	  1.01	 -3.02	 12.24	 12.54	 11.31	
128	 41.46	  0.86	 -2.81	 11.84	 12.15	 10.90	
129	 40.83	  0.86	 -2.63	 11.45	 11.76	 10.50	
130	 40.37	  0.81	 -2.78	 11.17	 11.48	 10.30	
131	 40.02	  0.93	 -2.70	 10.98	 11.26	 10.09	
132	 39.52	  0.96	 -2.71	 10.69	 10.96	  9.83	
133	 35.84	  1.08	 -2.73	  8.73	  8.93	  8.06	
134	 35.46	  1.14	 -2.74	  8.55	  8.73	  7.89	
135	 34.96	  1.15	 -2.69	  8.30	  8.48	  7.65	
136	 34.54	  1.26	 -2.77	  8.11	  8.27	  7.49	
137	 34.08	  1.21	 -2.75	  7.89	  8.05	  7.29	
138	 33.56	  1.18	 -2.52	  7.64	  7.80	  7.02	
139	 33.05	  1.29	 -2.61	  7.42	  7.56	  6.83	
140	 32.56	  1.22	 -2.41	  7.19	  7.34	  6.59	
141	 32.10	  1.05	 -2.39	  6.97	  7.13	  6.40	
142	 31.63	  0.95	 -2.33	  6.76	  6.92	  6.21	
143	 31.13	  0.93	 -2.25	  6.55	  6.71	  6.00	
144	 30.63	  0.82	 -2.07	  6.34	  6.50	  5.78	
145	 30.60	  0.87	 -2.24	  6.33	  6.48	  5.81	
146	 30.34	  0.87	 -2.07	  6.22	  6.37	  5.68	
147	 29.87	  0.86	 -2.06	  6.04	  6.18	  5.51	
148	 29.50	  0.95	 -2.23	  5.90	  6.04	  5.41	
149	 29.23	  1.00	 -2.16	  5.80	  5.93	  5.30	
150	 28.68	  0.85	 -2.03	  5.58	  5.72	  5.10	
151	 28.12	  0.76	 -1.67	  5.37	  5.50	  4.84	
152	 27.93	  0.76	 -1.76	  5.30	  5.43	  4.80	
153	 27.28	  0.84	 -1.88	  5.08	  5.20	  4.62	
154	 26.86	  0.81	 -1.92	  4.92	  5.04	  4.49	
155	 24.72	  1.08	 -2.17	  4.25	  4.32	  3.91	
156	 24.42	  1.03	 -2.13	  4.15	  4.23	  3.82	
157	 24.12	  1.21	 -2.28	  4.07	  4.14	  3.76	
158	 23.83	  1.14	 -2.30	  3.98	  4.05	  3.69	
159	 45.26	  0.99	 -2.84	 14.35	 14.73	 13.15	
160	 44.69	  0.96	 -2.92	 13.96	 14.32	 12.83	
161	 44.31	  0.95	 -2.93	 13.70	 14.06	 12.60	
162	 43.76	  0.98	 -2.93	 13.33	 13.68	 12.26	
163	 43.21	  1.02	 -2.95	 12.97	 13.30	 11.95	
164	 42.67	  1.09	 -3.23	 12.63	 12.94	 11.73	
165	 42.05	  0.90	 -2.80	 12.21	 12.53	 11.22	
166	 41.49	  0.90	 -2.73	 11.86	 12.18	 10.89	
167	 40.92	  0.78	 -2.63	 11.50	 11.82	 10.55	
168	 40.42	  0.90	 -2.60	 11.21	 11.51	 10.27	
169	 39.97	  0.86	 -2.38	 10.94	 11.23	  9.96	
170	 39.57	  0.93	 -2.64	 10.72	 10.99	  9.83	
171	 39.18	  1.11	 -2.87	 10.52	 10.77	  9.70	
172	 38.63	  1.05	 -2.80	 10.20	 10.44	  9.40	
173	 38.23	  0.95	 -2.63	  9.97	 10.22	  9.15	
174	 37.74	  1.05	 -2.81	  9.71	  9.94	  8.97	
175	 37.25	  0.98	 -2.60	  9.44	  9.67	  8.67	
176	 36.61	  1.02	 -2.50	  9.11	  9.33	  8.35	
177	 32.92	  1.23	 -2.52	  7.36	  7.50	  6.75	
178	 32.52	  1.16	 -2.51	  7.17	  7.32	  6.59	
179	 32.03	  1.03	 -2.40	  6.94	  7.10	  6.37	
180	 31.60	  1.01	 -2.34	  6.76	  6.91	  6.20	
181	 31.21	  1.00	 -2.35	  6.59	  6.74	  6.05	
182	 30.70	  1.01	 -2.22	  6.38	  6.52	  5.84	
183	 30.68	  0.95	 -2.19	  6.37	  6.52	  5.82	
184	 30.36	  0.98	 -2.25	  6.24	  6.38	  5.72	
185	 29.99	  0.98	 -2.10	  6.10	  6.23	  5.56	
186	 29.51	  0.97	 -2.14	  5.91	  6.04	  5.40	
187	 29.13	  0.93	 -2.11	  5.76	  5.89	  5.26	
188	 28.68	  0.87	 -1.91	  5.58	  5.71	  5.07	
189	 28.25	  0.91	 -1.98	  5.43	  5.55	  4.94	
190	 27.85	  0.86	 -1.87	  5.28	  5.40	  4.79	
191	 27.15	  0.69	 -1.93	  5.02	  5.15	  4.58	
192	 26.67	  0.75	 -1.90	  4.86	  4.98	  4.43	
193	 26.51	  0.82	 -2.16	  4.81	  4.92	  4.43	
194	 26.11	  0.72	 -2.02	  4.67	  4.78	  4.28	
195	 25.77	  0.72	 -1.89	  4.55	  4.67	  4.16	
196	 25.43	  0.81	 -1.94	  4.45	  4.56	  4.07	
197	 25.30	  0.76	 -1.78	  4.40	  4.51	  4.01	
198	 24.83	  0.71	 -1.94	  4.25	  4.36	  3.90	
199	 44.18	  1.02	 -2.84	 13.62	 13.96	 12.48	
200	 43.70	  0.92	 -2.92	 13.28	 13.63	 12.22	
201	 43.18	  1.07	 -2.98	 12.96	 13.28	 11.93	
202	 42.70	  0.94	 -3.10	 12.63	 12.96	 11.70	
203	 42.23	  0.95	 -3.03	 12.33	 12.65	 11.40	
204	 41.65	  0.96	 -2.92	 11.97	 12.27	 11.04	
205	 40.99	  0.83	 -2.80	 11.54	 11.86	 10.64	
206	 40.48	  0.82	 -2.70	 11.23	 11.54	 10.33	
207	 40.08	  0.94	 -2.78	 11.02	 11.30	 10.15	
208	 39.67	  0.98	 -2.87	 10.78	 11.05	  9.95	
209	 39.11	  0.95	 -2.87	 10.46	 10.73	  9.67	
210	 38.63	  0.96	 -2.64	 10.19	 10.44	  9.36	
211	 38.26	  0.98	 -2.67	  9.99	 10.23	  9.18	
212	 37.61	  0.94	 -2.61	  9.63	  9.87	  8.85	
213	 37.13	  0.85	 -2.45	  9.36	  9.61	  8.57	
214	 36.63	  0.86	 -2.48	  9.10	  9.34	  8.35	
215	 35.80	  1.00	 -2.64	  8.70	  8.91	  8.01	
216	 35.31	  0.85	 -2.51	  8.44	  8.65	  7.76	
217	 34.82	  0.83	 -2.48	  8.20	  8.41	  7.54	
218	 34.38	  0.87	 -2.46	  7.99	  8.19	  7.35	
219	 33.97	  0.96	 -2.46	  7.81	  7.99	  7.17	
220	 33.36	  1.07	 -2.33	  7.54	  7.71	  6.89	
221	 30.57	  1.03	 -2.41	  6.33	  6.47	  5.83	
222	 30.33	  0.95	 -2.28	  6.23	  6.37	  5.72	
223	 29.95	  1.00	 -2.28	  6.08	  6.22	  5.58	
224	 29.63	  1.08	 -2.14	  5.96	  6.09	  5.44	
225	 29.30	  1.10	 -2.17	  5.84	  5.96	  5.33	
226	 28.80	  1.02	 -2.19	  5.64	  5.76	  5.16	
227	 28.45	  1.09	 -2.06	  5.51	  5.63	  5.02	
228	 27.89	  0.97	 -2.13	  5.30	  5.42	  4.85	
229	 27.27	  1.01	 -2.09	  5.09	  5.19	  4.65	
230	 26.89	  1.00	 -2.07	  4.95	  5.05	  4.53	
231	 26.59	  0.92	 -2.02	  4.84	  4.95	  4.43	
232	 26.19	  0.80	 -1.96	  4.70	  4.81	  4.30	
233	 25.86	  0.89	 -1.98	  4.60	  4.70	  4.20	
234	 25.54	  0.87	 -2.09	  4.49	  4.59	  4.13	
235	 25.11	  0.75	 -1.82	  4.35	  4.45	  3.96	
236	 24.84	  0.60	 -1.82	  4.25	  4.36	  3.88	
237	 24.59	  0.81	 -2.14	  4.19	  4.28	  3.87	
238	 24.17	  0.90	 -1.91	  4.06	  4.15	  3.72	
239	 23.78	  0.89	 -1.80	  3.95	  4.03	  3.59	
240	 23.49	  1.06	 -1.96	  3.88	  3.95	  3.54	
241	 45.07	  0.95	 -2.80	 14.22	 14.59	 13.02	
242	 44.49	  0.96	 -2.83	 13.82	 14.18	 12.67	
243	 41.04	  1.02	 -2.82	 11.60	 11.89	 10.67	
244	 40.53	  0.95	 -2.78	 11.29	 11.58	 10.39	
245	 40.08	  1.04	 -2.80	 11.03	 11.30	 10.15	
246	 39.64	  1.14	 -2.75	 10.79	 11.03	  9.90	
247	 39.10	  1.20	 -2.94	 10.49	 10.72	  9.68	
248	 38.78	  1.17	 -2.89	 10.30	 10.53	  9.51	
249	 38.36	  1.11	 -2.91	 10.06	 10.29	  9.30	
250	 37.81	  1.13	 -2.77	  9.76	  9.98	  8.99	
251	 37.34	  1.18	 -2.79	  9.52	  9.72	  8.77	
252	 36.55	  1.08	 -2.72	  9.09	  9.30	  8.38	
253	 35.87	  1.06	 -2.62	  8.74	  8.94	  8.04	
254	 35.29	  0.97	 -2.47	  8.44	  8.64	  7.74	
255	 34.90	  1.17	 -2.57	  8.27	  8.45	  7.59	
256	 34.44	  1.15	 -2.62	  8.05	  8.22	  7.41	
257	 33.90	  1.12	 -2.66	  7.79	  7.96	  7.19	
258	 33.29	  1.07	 -2.33	  7.51	  7.67	  6.86	
259	 32.90	  1.23	 -2.57	  7.35	  7.49	  6.76	
260	 32.33	  1.15	 -2.34	  7.09	  7.23	  6.48	
261	 31.81	  1.04	 -2.20	  6.85	  7.00	  6.25	
262	 31.40	  1.00	 -2.02	  6.67	  6.82	  6.05	
263	 31.07	  0.98	 -2.21	  6.53	  6.68	  5.97	
264	 30.63	  0.99	 -2.10	  6.36	  6.50	  5.79	
265	 28.35	  1.05	 -2.24	  5.48	  5.59	  5.02	
266	 28.00	  1.04	 -2.01	  5.35	  5.46	  4.87	
267	 27.30	  1.05	 -1.98	  5.10	  5.20	  4.64	
268	 27.06	  1.06	 -2.17	  5.02	  5.12	  4.60	
269	 26.72	  1.05	 -2.37	  4.90	  5.00	  4.53	
270	 26.38	  0.97	 -2.22	  4.77	  4.88	  4.40	
271	 26.18	  1.02	 -2.24	  4.71	  4.81	  4.34	
272	 25.68	  0.99	 -1.97	  4.54	  4.64	  4.15	
273	 25.31	  0.91	 -1.90	  4.42	  4.52	  4.03	
274	 25.05	  0.87	 -1.97	  4.33	  4.43	  3.97	
275	 24.68	  0.91	 -1.89	  4.22	  4.31	  3.85	
276	 24.23	  1.04	 -1.94	  4.09	  4.17	  3.74	
277	 23.85	  1.06	 -2.13	  3.98	  4.05	  3.66	
278	 23.70	  1.22	 -2.25	  3.95	  4.01	  3.64	
279	 44.95	  0.97	 -2.72	 14.13	 14.50	 12.91	
280	 44.42	  1.01	 -2.77	 13.78	 14.13	 12.60	
281	 44.16	  1.02	 -2.83	 13.60	 13.95	 12.47	
282	 43.45	  0.98	 -2.80	 13.12	 13.46	 12.03	
283	 42.96	  0.89	 -2.78	 12.79	 13.13	 11.74	
284	 42.54	  0.96	 -2.83	 12.53	 12.85	 11.52	
285	 42.01	  0.90	 -2.87	 12.18	 12.50	 11.22	
286	 41.46	  0.93	 -2.81	 11.85	 12.15	 10.90	
287	 38.27	  1.12	 -2.75	 10.01	 10.24	  9.21	
288	 37.83	  1.08	 -2.69	  9.76	  9.99	  8.97	
289	 37.27	  1.03	 -2.73	  9.46	  9.69	  8.72	
290	 36.67	  1.15	 -2.69	  9.16	  9.36	  8.43	
291	 35.87	  1.07	 -2.67	  8.74	  8.94	  8.05	
292	 35.45	  1.06	 -2.53	  8.53	  8.72	  7.82	
293	 35.01	  0.99	 -2.50	  8.31	  8.50	  7.63	
294	 34.48	  1.02	 -2.49	  8.05	  8.24	  7.40	
295	 33.98	  1.03	 -2.51	  7.82	  8.00	  7.19	
296	 33.48	  1.00	 -2.37	  7.58	  7.76	  6.95	
297	 32.93	  1.11	 -2.40	  7.35	  7.51	  6.73	
298	 32.36	  1.05	 -2.24	  7.09	  7.25	  6.47	
299	 31.92	  1.13	 -2.39	  6.90	  7.05	  6.33	
300	 31.46	  0.97	 -2.20	  6.70	  6.85	  6.12	
301	 31.01	  0.80	 -2.05	  6.49	  6.66	  5.92	
302	 30.57	  0.75	 -1.81	  6.30	  6.47	  5.70	
303	 30.49	  0.90	 -2.09	  6.29	  6.44	  5.74	
304	 30.18	  0.79	 -1.99	  6.15	  6.31	  5.60	
305	 29.82	  0.77	 -1.90	  6.01	  6.16	  5.46	
306	 29.52	  0.78	 -1.95	  5.89	  6.04	  5.36	
307	 29.11	  0.91	 -1.80	  5.75	  5.88	  5.19	
308	 28.71	  1.03	 -1.95	  5.61	  5.73	  5.09	
309	 26.13	  0.96	 -2.31	  4.69	  4.79	  4.34	
310	 25.74	  0.89	 -2.23	  4.56	  4.66	  4.21	
311	 25.51	  1.06	 -2.13	  4.49	  4.58	  4.12	
312	 25.11	  0.98	 -2.19	  4.36	  4.45	  4.02	
313	 24.74	  1.07	 -2.03	  4.25	  4.33	  3.89	
314	 24.43	  1.08	 -2.23	  4.16	  4.23	  3.84	
315	 24.25	  1.17	 -2.05	  4.11	  4.18	  3.76	
316	 23.70	  1.21	 -2.12	  3.95	  4.01	  3.62	
317	 45.16	  0.91	 -2.80	 14.27	 14.66	 13.07	
318	 44.68	  0.93	 -2.76	 13.94	 14.32	 12.76	
319	 44.14	  0.90	 -2.81	 13.57	 13.93	 12.45	
320	 43.59	  0.86	 -2.72	 13.20	 13.56	 12.09	
321	 43.11	  0.84	 -2.85	 12.88	 13.23	 11.85	
322	 42.70	  0.90	 -2.99	 12.62	 12.96	 11.66	
323	 42.10	  0.89	 -2.85	 12.24	 12.56	 11.27	
324	 41.41	  0.78	 -2.76	 11.79	 12.12	 10.85	
325	 40.91	  0.68	 -2.60	 11.47	 11.81	 10.53	
326	 40.31	  0.76	 -2.44	 11.13	 11.44	 10.16	
327	 39.86	  0.73	 -2.48	 10.86	 11.17	  9.94	
328	 39.57	  0.79	 -2.67	 10.70	 10.99	  9.84	
329	 39.16	  0.89	 -2.67	 10.48	 10.75	  9.63	
330	 38.69	  0.99	 -2.76	 10.23	 10.48	  9.42	
331	 34.87	  0.96	 -2.51	  8.23	  8.43	  7.57	
332	 34.51	  1.02	 -2.61	  8.07	  8.25	  7.43	
333	 34.09	  1.04	 -2.53	  7.87	  8.05	  7.24	
334	 33.53	  1.14	 -2.73	  7.62	  7.78	  7.05	
335	 32.97	  1.11	 -2.49	  7.36	  7.52	  6.77	
336	 32.50	  1.01	 -2.46	  7.15	  7.31	  6.57	
337	 32.11	  0.97	 -2.36	  6.97	  7.14	  6.40	
338	 31.53	  0.90	 -2.31	  6.72	  6.88	  6.17	
339	 31.13	  0.92	 -2.38	  6.55	  6.71	  6.03	
340	 30.73	  0.84	 -2.24	  6.38	  6.54	  5.85	
341	 30.55	  0.81	 -2.13	  6.31	  6.46	  5.77	
342	 30.27	  0.83	 -2.12	  6.19	  6.35	  5.66	
343	 29.82	  0.87	 -2.17	  6.02	  6.16	  5.51	
344	 29.44	  0.94	 -2.03	  5.88	  6.01	  5.35	
345	 29.14	  0.86	 -1.94	  5.76	  5.89	  5.23	
346	 28.56	  0.70	 -1.76	  5.52	  5.67	  5.00	
347	 28.17	  0.82	 -1.98	  5.39	  5.52	  4.92	
348	 27.74	  0.72	 -1.87	  5.22	  5.36	  4.76	
349	 27.07	  0.63	 -1.74	  4.98	  5.12	  4.52	
350	 26.80	  0.77	 -2.00	  4.90	  5.02	  4.49	
351	 26.45	  0.73	 -1.97	  4.78	  4.90	  4.38	
352	 26.22	  0.78	 -1.99	  4.71	  4.82	  4.31	
353	 24.01	  0.96	 -2.18	  4.02	  4.10	  3.71	
354	 23.73	  1.08	 -2.15	  3.95	  4.02	  3.63	
355	 45.16	  0.86	 -2.74	 14.26	 14.66	 13.05	
356	 44.66	  1.00	 -2.84	 13.94	 14.30	 12.78	
357	 44.12	  0.97	 -2.87	 13.57	 13.92	 12.46	
358	 43.74	  0.87	 -2.90	 13.30	 13.66	 12.24	
359	 43.25	  0.90	 -2.96	 12.98	 13.32	 11.97	
360	 42.66	  0.92	 -3.14	 12.60	 12.93	 11.69	
361	 42.12	  0.84	 -2.88	 12.25	 12.58	 11.29	
362	 41.48	  0.79	 -2.97	 11.84	 12.17	 10.96	
363	 40.94	  0.69	 -2.64	 11.50	 11.83	 10.56	
364	 40.34	  0.72	 -2.54	 11.14	 11.45	 10.20	
365	 39.93	  0.82	 -2.48	 10.91	 11.21	  9.97	
366	 39.60	  0.84	 -2.70	 10.72	 11.01	  9.87	
367	 39.10	  0.98	 -2.59	 10.46	 10.72	  9.58	
368	 38.68	  0.86	 -2.60	 10.20	 10.47	  9.37	
369	 38.20	  0.98	 -2.67	  9.95	 10.20	  9.15	
370	 37.69	  0.87	 -2.55	  9.66	  9.91	  8.87	
371	 37.12	  0.85	 -2.41	  9.36	  9.60	  8.56	
372	 36.49	  0.84	 -2.48	  9.03	  9.27	  8.29	
373	 35.91	  0.86	 -2.59	  8.74	  8.96	  8.05	
374	 35.27	  0.98	 -2.50	  8.43	  8.63	  7.74	
375	 32.01	  1.11	 -2.34	  6.95	  7.09	  6.36	
376	 31.59	  0.96	 -2.34	  6.75	  6.91	  6.19	
377	 31.14	  0.96	 -2.28	  6.56	  6.71	  6.01	
378	 30.74	  0.86	 -2.26	  6.38	  6.54	  5.86	
379	 30.53	  0.92	 -2.07	  6.31	  6.45	  5.74	
380	 30.40	  0.98	 -2.16	  6.26	  6.40	  5.71	
381	 30.00	  0.94	 -2.07	  6.09	  6.23	  5.55	
382	 29.55	  0.98	 -2.09	  5.92	  6.05	  5.40	
383	 29.17	  0.97	 -2.08	  5.78	  5.90	  5.27	
384	 28.80	  0.91	 -2.13	  5.63	  5.76	  5.15	
385	 28.32	  0.85	 -2.03	  5.45	  5.58	  4.97	
386	 27.77	  0.80	 -1.70	  5.24	  5.37	  4.73	
387	 27.29	  0.80	 -2.01	  5.07	  5.20	  4.64	
388	 26.93	  0.91	 -1.97	  4.96	  5.07	  4.52	
389	 26.55	  0.79	 -2.05	  4.82	  4.94	  4.42	
390	 26.21	  0.85	 -2.15	  4.71	  4.82	  4.34	
391	 25.95	  0.75	 -2.23	  4.61	  4.73	  4.27	
392	 25.46	  0.68	 -2.05	  4.45	  4.56	  4.10	
393	 25.10	  0.71	 -1.80	  4.34	  4.45	  3.95	
394	 24.88	  0.60	 -1.82	  4.26	  4.38	  3.90	
395	 24.63	  0.81	 -1.80	  4.20	  4.30	  3.82	
396	 24.24	  0.86	 -2.13	  4.08	  4.18	  3.77	
397	 43.09	  0.92	 -2.93	 12.88	 13.22	 11.86	
398	 42.60	  0.79	 -2.89	 12.54	 12.89	 11.57	
399	 42.12	  0.86	 -2.82	 12.25	 12.58	 11.27	
400	 41.45	  0.81	 -2.80	 11.82	 12.15	 10.89	
401	 41.01	  0.81	 -2.63	 11.55	 11.87	 10.59	
402	 40.52	  0.89	 -2.64	 11.27	 11.57	 10.33	
403	 40.10	  0.89	 -2.66	 11.02	 11.31	 10.12	
404	 39.57	  0.92	 -2.77	 10.72	 10.99	  9.87	
405	 39.17	  0.94	 -2.84	 10.49	 10.76	  9.69	
406	 38.81	  1.03	 -2.80	 10.30	 10.55	  9.50	
407	 38.26	  0.99	 -2.67	  9.99	 10.23	  9.18	
408	 37.65	  0.88	 -2.54	  9.64	  9.89	  8.85	
409	 37.27	  0.95	 -2.53	  9.45	  9.69	  8.66	
410	 36.60	  0.92	 -2.62	  9.10	  9.33	  8.37	
411	 35.78	  0.91	 -2.44	  8.68	  8.89	  7.95	
412	 35.29	  0.90	 -2.34	  8.43	  8.64	  7.71	
413	 34.81	  0.92	 -2.74	  8.20	  8.40	  7.60	
414	 34.33	  0.84	 -2.55	  7.97	  8.17	  7.35	
415	 33.81	  0.86	 -2.24	  7.72	  7.92	  7.05	
416	 33.32	  0.92	 -2.28	  7.50	  7.68	  6.86	
417	 32.89	  0.99	 -2.39	  7.32	  7.49	  6.71	
418	 32.26	  1.03	 -2.25	  7.05	  7.20	  6.43	
419	 29.88	  0.92	 -2.22	  6.05	  6.19	  5.54	
420	 29.62	  0.98	 -2.15	  5.95	  6.08	  5.44	
421	 29.22	  0.92	 -2.01	  5.79	  5.92	  5.27	
422	 28.80	  1.01	 -2.07	  5.64	  5.76	  5.14	
423	 28.49	  0.94	 -1.95	  5.52	  5.64	  5.02	
424	 28.03	  1.06	 -2.11	  5.36	  5.47	  4.89	
425	 27.47	  0.90	 -1.99	  5.15	  5.26	  4.69	
426	 27.00	  0.97	 -1.98	  4.99	  5.09	  4.55	
427	 26.66	  0.96	 -2.33	  4.87	  4.97	  4.50	
428	 26.46	  0.93	 -2.12	  4.80	  4.90	  4.40	
429	 25.98	  0.83	 -2.17	  4.63	  4.74	  4.27	
430	 25.52	  0.74	 -1.86	  4.48	  4.59	  4.08	
431	 25.33	  0.85	 -1.90	  4.42	  4.52	  4.03	
432	 24.99	  0.78	 -1.71	  4.31	  4.41	  3.91	
433	 24.54	  0.70	 -1.66	  4.16	  4.27	  3.78	
434	 24.24	  0.74	 -1.73	  4.07	  4.17	  3.70	
435	 24.00	  1.00	 -2.12	  4.02	  4.10	  3.70	
436	 23.55	  0.86	 -1.99	  3.88	  3.96	  3.56	
437	 45.00	  0.78	 -2.55	 14.14	 14.54	 12.89	
438	 44.54	  0.83	 -2.55	 13.83	 14.21	 12.60	
439	 44.08	  0.87	 -2.66	 13.53	 13.90	 12.36	
440	 43.50	  0.90	 -2.92	 13.15	 13.50	 12.11	
441	 40.03	  0.87	 -2.76	 10.98	 11.27	 10.11	
442	 39.65	  0.85	 -2.55	 10.75	 11.04	  9.85	
443	 39.22	  0.95	 -2.68	 10.52	 10.79	  9.67	
444	 38.79	  1.08	 -2.78	 10.30	 10.54	  9.48	
445	 38.38	  1.04	 -2.91	 10.06	 10.30	  9.31	
446	 37.87	  0.97	 -2.75	  9.77	 10.01	  9.01	
447	 37.35	  1.08	 -2.68	  9.51	  9.73	  8.74	
448	 36.61	  0.88	 -2.58	  9.10	  9.33	  8.37	
449	 35.90	  1.07	 -2.54	  8.76	  8.96	  8.03	
450	 35.36	  1.01	 -2.57	  8.48	  8.68	  7.80	
451	 34.87	  0.87	 -2.39	  8.22	  8.43	  7.53	
452	 34.34	  0.87	 -2.39	  7.97	  8.17	  7.31	
453	 33.94	  0.92	 -2.47	  7.79	  7.98	  7.16	
454	 33.35	  1.04	 -2.47	  7.53	  7.70	  6.92	
455	 32.80	  0.99	 -2.34	  7.28	  7.44	  6.66	
456	 32.31	  0.94	 -2.24	  7.06	  7.22	  6.45	
457	 31.90	  0.92	 -2.19	  6.88	  7.04	  6.28	
458	 31.39	  0.82	 -2.07	  6.65	  6.82	  6.06	
459	 30.93	  0.76	 -1.94	  6.46	  6.62	  5.86	
460	 30.56	  0.69	 -1.72	  6.30	  6.47	  5.68	
461	 30.53	  0.71	 -2.11	  6.29	  6.45	  5.75	
462	 30.16	  0.86	 -1.96	  6.15	  6.30	  5.59	
463	 27.33	  0.78	 -2.04	  5.08	  5.21	  4.66	
464	 26.96	  0.81	 -2.15	  4.96	  5.08	  4.56	
465	 26.72	  0.93	 -2.10	  4.89	  4.99	  4.48	
466	 26.49	  0.91	 -2.15	  4.81	  4.91	  4.42	
467	 26.09	  0.77	 -1.98	  4.66	  4.78	  4.27	
468	 25.75	  0.83	 -2.10	  4.56	  4.66	  4.19	
469	 25.58	  0.87	 -2.18	  4.50	  4.60	  4.15	
470	 25.08	  0.85	 -1.99	  4.34	  4.44	  3.98	
471	 24.71	  0.82	 -1.91	  4.23	  4.32	  3.86	
472	 24.45	  0.94	 -1.95	  4.15	  4.24	  3.80	
473	 24.02	  0.94	 -2.04	  4.02	  4.10	  3.69	
474	 23.53	  0.91	 -1.81	  3.88	  3.96	  3.53	
475	 45.10	  0.86	 -2.70	 14.22	 14.61	 13.00	
476	 44.58	  0.93	 -2.70	 13.87	 14.24	 12.68	
477	 44.04	  0.94	 -2.59	 13.51	 13.86	 12.31	
478	 43.62	  0.93	 -2.74	 13.23	 13.58	 12.11	
479	 43.06	  0.84	 -2.87	 12.85	 13.20	 11.83	
480	 42.55	  0.83	 -2.73	 12.52	 12.86	 11.49	
481	 42.00	  0.74	 -2.74	 12.15	 12.50	 11.17	
482	 41.59	  0.81	 -2.70	 11.91	 12.23	 10.93	
483	 40.93	  0.80	 -2.62	 11.51	 11.82	 10.55	
484	 40.41	  0.83	 -2.74	 11.20	 11.50	 10.30	
485	 37.20	  0.98	 -2.63	  9.42	  9.65	  8.66	
486	 36.70	  1.00	 -2.54	  9.16	  9.38	  8.40	
487	 35.96	  0.95	 -2.66	  8.78	  8.99	  8.09	
488	 35.51	  0.98	 -2.59	  8.55	  8.76	  7.87	
489	 35.01	  1.14	 -2.59	  8.32	  8.50	  7.65	
490	 34.55	  1.02	 -2.42	  8.09	  8.28	  7.41	
