tool_per_2010/w11macro/calibration_input/ref__113405.it8
Rene - TRC level chart 22x29

ORIGINATOR          ""
DESCRIPTOR          "Output Characterisation"
CREATED             "6/26/2008"

INSTRUMENTATION     "Spectrophotometer   Spectrolino ; Serial number 12554"

MEASUREMENT_SOURCE  "Illumination=D50	ObserverAngle=2°	DensityStd=ANSI A	WhiteBase=Abs	Filter=No"
ILLUMINANT          "D50"
OBSERVER            "2°"
FILTER_STATUS       "ANSI A"

PRINT_CONDITIONS    ""

NUMBER_OF_FIELDS    7
BEGIN_DATA_FORMAT
SAMPLE_ID	LAB_L	LAB_A	LAB_B	XYZ_X	XYZ_Y	XYZ_Z	
END_DATA_FORMAT

NUMBER_OF_SETS      638

BEGIN_DATA
1	 95.06	 -0.29	 -4.06	 84.44	 87.77	 77.07	
2	 87.86	  0.29	 -5.27	 69.32	 71.78	 64.57	
3	 81.79	  0.18	 -4.03	 57.82	 59.92	 53.03	
4	 76.01	  0.36	 -2.99	 48.23	 49.91	 43.52	
5	 69.77	  0.02	 -3.34	 38.97	 40.43	 35.64	
6	 64.34	 -0.15	 -2.87	 31.98	 33.23	 29.13	
7	 57.58	  0.14	 -3.17	 24.63	 25.52	 22.66	
8	 52.62	  0.45	 -3.18	 20.04	 20.70	 18.48	
9	 47.26	  0.94	 -3.47	 15.79	 16.22	 14.69	
10	 41.21	  1.24	 -3.36	 11.74	 12.00	 10.94	
11	 35.17	  1.20	 -2.86	  8.41	  8.58	  7.79	
12	 29.76	  1.14	 -2.36	  6.02	  6.14	  5.53	
13	 25.19	  1.25	 -2.35	  4.41	  4.48	  4.07	
14	 21.57	  1.25	 -2.53	  3.35	  3.40	  3.14	
15	 17.87	  1.04	 -2.02	  2.45	  2.49	  2.27	
16	 14.52	  0.51	 -2.12	  1.78	  1.82	  1.69	
17	 12.38	  0.24	 -2.06	  1.42	  1.46	  1.37	
18	 10.14	 -0.04	 -1.56	  1.10	  1.14	  1.04	
19	  8.24	 -0.17	 -1.15	  0.88	  0.91	  0.82	
20	  6.66	 -0.37	 -1.08	  0.70	  0.74	  0.67	
21	  5.90	 -0.30	 -1.14	  0.62	  0.65	  0.60	
22	  5.60	 -0.29	 -0.99	  0.59	  0.62	  0.56	
23	 30.19	  1.34	 -2.67	  6.21	  6.31	  5.75	
24	 29.79	  1.18	 -2.54	  6.03	  6.15	  5.58	
25	 29.60	  1.26	 -2.55	  5.97	  6.08	  5.51	
26	 29.49	  1.35	 -2.59	  5.93	  6.03	  5.48	
27	 29.05	  1.27	 -2.45	  5.76	  5.86	  5.30	
28	 28.69	  1.29	 -2.39	  5.62	  5.72	  5.17	
29	 28.32	  1.35	 -2.38	  5.49	  5.58	  5.04	
30	 27.91	  1.36	 -2.30	  5.34	  5.42	  4.89	
31	 27.44	  1.30	 -2.34	  5.17	  5.25	  4.75	
32	 27.19	  1.19	 -2.20	  5.07	  5.16	  4.64	
33	 26.51	  1.18	 -2.28	  4.84	  4.92	  4.45	
34	 25.94	  1.24	 -2.23	  4.65	  4.73	  4.27	
35	 25.58	  1.22	 -2.28	  4.53	  4.60	  4.17	
36	 25.33	  1.20	 -2.50	  4.45	  4.52	  4.13	
37	 24.89	  1.13	 -2.43	  4.30	  4.38	  4.00	
38	 24.60	  1.03	 -2.25	  4.21	  4.29	  3.89	
39	 24.36	  1.03	 -2.19	  4.13	  4.21	  3.81	
40	 23.93	  1.01	 -2.06	  4.00	  4.08	  3.67	
41	 23.61	  1.00	 -1.88	  3.91	  3.98	  3.56	
42	 23.49	  1.22	 -2.07	  3.88	  3.94	  3.56	
43	 23.19	  1.34	 -2.22	  3.81	  3.86	  3.50	
44	 22.94	  1.38	 -2.39	  3.74	  3.78	  3.47	
45	 41.06	  1.15	 -3.31	 11.63	 11.90	 10.84	
46	 40.51	  1.03	 -3.10	 11.29	 11.56	 10.47	
47	 39.96	  1.09	 -2.99	 10.97	 11.23	 10.14	
48	 39.44	  1.05	 -2.84	 10.66	 10.92	  9.83	
49	 39.09	  1.10	 -3.10	 10.47	 10.71	  9.72	
50	 38.63	  1.33	 -2.97	 10.24	 10.45	  9.45	
51	 38.12	  1.28	 -3.04	  9.95	 10.15	  9.22	
52	 37.71	  1.40	 -3.00	  9.74	  9.93	  9.00	
53	 37.29	  1.35	 -2.88	  9.51	  9.70	  8.77	
54	 36.91	  1.24	 -2.99	  9.30	  9.49	  8.62	
55	 36.34	  1.37	 -3.07	  9.02	  9.19	  8.37	
56	 35.44	  1.23	 -2.91	  8.55	  8.72	  7.92	
57	 34.89	  1.28	 -3.01	  8.28	  8.44	  7.70	
58	 34.37	  1.19	 -2.76	  8.02	  8.19	  7.41	
59	 33.73	  1.16	 -2.64	  7.72	  7.88	  7.11	
60	 33.34	  1.27	 -2.81	  7.55	  7.70	  6.99	
61	 32.89	  1.37	 -2.81	  7.36	  7.49	  6.81	
62	 32.38	  1.20	 -2.64	  7.12	  7.26	  6.57	
63	 31.89	  1.31	 -2.55	  6.91	  7.04	  6.36	
64	 31.50	  1.34	 -2.44	  6.75	  6.86	  6.18	
65	 31.01	  1.28	 -2.50	  6.54	  6.66	  6.01	
66	 30.55	  1.30	 -2.50	  6.35	  6.46	  5.84	
67	 28.16	  1.25	 -2.48	  5.42	  5.52	  5.01	
68	 27.78	  1.25	 -2.42	  5.29	  5.38	  4.87	
69	 27.46	  1.35	 -2.58	  5.18	  5.26	  4.80	
70	 27.08	  1.34	 -2.45	  5.04	  5.12	  4.65	
71	 26.37	  1.21	 -2.42	  4.79	  4.87	  4.43	
72	 25.96	  1.36	 -2.40	  4.66	  4.73	  4.30	
73	 25.81	  1.26	 -2.56	  4.61	  4.68	  4.29	
74	 25.42	  1.32	 -2.40	  4.49	  4.55	  4.15	
75	 25.19	  1.26	 -2.35	  4.41	  4.48	  4.07	
76	 24.81	  1.05	 -2.29	  4.27	  4.35	  3.95	
77	 24.39	  1.02	 -2.15	  4.14	  4.22	  3.81	
78	 23.93	  0.99	 -2.06	  4.00	  4.08	  3.67	
79	 23.68	  1.15	 -2.15	  3.94	  4.00	  3.62	
80	 23.42	  1.14	 -2.36	  3.86	  3.92	  3.59	
81	 23.04	  1.18	 -2.32	  3.75	  3.81	  3.48	
82	 22.68	  1.29	 -2.28	  3.66	  3.71	  3.38	
83	 44.08	  1.16	 -3.05	 13.57	 13.89	 12.50	
84	 43.45	  1.12	 -2.83	 13.15	 13.46	 12.04	
85	 43.04	  1.01	 -2.88	 12.86	 13.19	 11.82	
86	 42.48	  1.10	 -3.10	 12.51	 12.81	 11.57	
87	 41.98	  1.09	 -3.14	 12.20	 12.49	 11.30	
88	 41.47	  1.11	 -3.10	 11.88	 12.16	 10.99	
89	 37.99	  1.27	 -3.05	  9.88	 10.08	  9.16	
90	 37.57	  1.32	 -3.03	  9.66	  9.85	  8.95	
91	 37.10	  1.40	 -3.12	  9.42	  9.59	  8.75	
92	 36.68	  1.18	 -3.25	  9.17	  9.37	  8.58	
93	 36.13	  1.25	 -2.99	  8.89	  9.07	  8.25	
94	 35.53	  1.31	 -3.05	  8.60	  8.77	  8.00	
95	 34.81	  1.18	 -2.79	  8.23	  8.40	  7.61	
96	 34.38	  1.30	 -2.86	  8.04	  8.19	  7.45	
97	 33.92	  1.24	 -2.84	  7.81	  7.97	  7.24	
98	 33.51	  1.25	 -2.97	  7.63	  7.77	  7.10	
99	 32.89	  1.24	 -2.78	  7.34	  7.49	  6.80	
100	 32.33	  1.33	 -2.76	  7.11	  7.23	  6.58	
101	 31.88	  1.45	 -2.78	  6.92	  7.03	  6.40	
102	 31.27	  1.26	 -2.68	  6.64	  6.77	  6.15	
103	 30.79	  1.26	 -2.48	  6.44	  6.56	  5.92	
104	 30.41	  1.05	 -2.41	  6.27	  6.40	  5.77	
105	 30.04	  1.13	 -2.55	  6.13	  6.25	  5.67	
106	 29.59	  1.03	 -2.35	  5.94	  6.07	  5.47	
107	 29.40	  1.13	 -2.43	  5.88	  6.00	  5.42	
108	 29.23	  1.11	 -2.31	  5.81	  5.93	  5.34	
109	 28.88	  1.10	 -2.45	  5.68	  5.79	  5.24	
110	 28.46	  1.17	 -2.28	  5.53	  5.63	  5.07	
111	 25.55	  1.14	 -2.45	  4.52	  4.60	  4.19	
112	 25.38	  1.10	 -2.38	  4.46	  4.54	  4.13	
113	 25.13	  1.17	 -2.55	  4.38	  4.46	  4.08	
114	 24.75	  1.09	 -2.37	  4.26	  4.33	  3.95	
115	 24.35	  1.06	 -2.34	  4.13	  4.21	  3.83	
116	 24.06	  1.02	 -2.16	  4.04	  4.12	  3.73	
117	 23.82	  1.18	 -2.34	  3.98	  4.04	  3.69	
118	 23.38	  1.14	 -2.25	  3.85	  3.91	  3.56	
119	 23.14	  1.13	 -2.30	  3.78	  3.84	  3.50	
120	 22.80	  1.32	 -2.51	  3.69	  3.74	  3.45	
121	 44.10	  1.05	 -3.08	 13.57	 13.91	 12.52	
122	 43.51	  1.08	 -2.94	 13.18	 13.50	 12.12	
123	 42.93	  1.08	 -3.01	 12.80	 13.11	 11.80	
124	 42.43	  1.11	 -3.11	 12.48	 12.78	 11.54	
125	 41.85	  1.06	 -3.02	 12.11	 12.40	 11.18	
126	 41.35	  1.08	 -3.19	 11.80	 12.08	 10.96	
127	 40.85	  1.07	 -3.21	 11.50	 11.77	 10.69	
128	 40.22	  1.01	 -2.98	 11.11	 11.38	 10.28	
129	 39.71	  0.97	 -2.75	 10.81	 11.08	  9.94	
130	 39.19	  0.98	 -2.89	 10.51	 10.77	  9.71	
131	 38.90	  1.02	 -3.00	 10.35	 10.60	  9.60	
132	 38.42	  1.14	 -3.00	 10.09	 10.32	  9.35	
133	 34.68	  1.20	 -2.92	  8.17	  8.34	  7.59	
134	 34.22	  1.18	 -2.99	  7.95	  8.11	  7.41	
135	 33.83	  1.29	 -2.90	  7.78	  7.92	  7.22	
136	 33.32	  1.29	 -2.91	  7.54	  7.69	  7.01	
137	 32.95	  1.32	 -2.90	  7.38	  7.51	  6.85	
138	 32.43	  1.33	 -2.78	  7.15	  7.28	  6.62	
139	 32.01	  1.39	 -2.82	  6.97	  7.09	  6.46	
140	 31.41	  1.34	 -2.65	  6.71	  6.83	  6.20	
141	 31.00	  1.25	 -2.61	  6.53	  6.65	  6.03	
142	 30.49	  1.12	 -2.49	  6.31	  6.44	  5.82	
143	 30.05	  1.05	 -2.45	  6.13	  6.26	  5.65	
144	 29.55	  1.05	 -2.34	  5.93	  6.05	  5.45	
145	 29.53	  1.03	 -2.34	  5.92	  6.05	  5.45	
146	 29.26	  0.99	 -2.41	  5.81	  5.94	  5.37	
147	 28.77	  0.91	 -2.24	  5.62	  5.75	  5.16	
148	 28.45	  0.92	 -2.35	  5.50	  5.63	  5.08	
149	 28.07	  1.10	 -2.39	  5.38	  5.48	  4.96	
150	 27.61	  1.04	 -2.29	  5.21	  5.31	  4.79	
151	 27.18	  0.95	 -2.10	  5.05	  5.16	  4.62	
152	 26.90	  0.97	 -2.06	  4.95	  5.06	  4.53	
153	 26.20	  0.97	 -2.17	  4.72	  4.81	  4.34	
154	 25.84	  0.98	 -2.22	  4.60	  4.69	  4.24	
155	 23.74	  1.02	 -2.40	  3.95	  4.02	  3.68	
156	 23.47	  1.13	 -2.22	  3.87	  3.94	  3.58	
157	 23.12	  1.38	 -2.41	  3.79	  3.84	  3.52	
158	 23.03	  1.41	 -2.46	  3.76	  3.81	  3.50	
159	 44.16	  1.05	 -2.90	 13.61	 13.95	 12.49	
160	 43.64	  1.10	 -3.05	 13.26	 13.59	 12.23	
161	 43.22	  1.00	 -3.05	 12.97	 13.30	 11.98	
162	 42.70	  1.03	 -3.04	 12.64	 12.96	 11.67	
163	 42.23	  1.07	 -3.08	 12.35	 12.65	 11.42	
164	 41.65	  1.16	 -3.39	 12.00	 12.27	 11.19	
165	 40.99	  1.04	 -2.96	 11.57	 11.86	 10.69	
166	 40.33	  1.02	 -2.96	 11.17	 11.45	 10.33	
167	 39.81	  0.95	 -2.80	 10.86	 11.14	 10.01	
168	 39.29	  0.91	 -2.81	 10.56	 10.83	  9.74	
169	 38.80	  0.92	 -2.66	 10.28	 10.54	  9.45	
170	 38.37	  1.06	 -2.85	 10.06	 10.30	  9.29	
171	 37.99	  1.07	 -2.98	  9.85	 10.09	  9.14	
172	 37.51	  1.23	 -2.96	  9.61	  9.82	  8.90	
173	 37.02	  1.16	 -2.78	  9.34	  9.55	  8.61	
174	 36.58	  1.21	 -2.93	  9.12	  9.31	  8.45	
175	 36.12	  1.11	 -3.00	  8.87	  9.07	  8.25	
176	 35.45	  1.17	 -2.65	  8.54	  8.72	  7.86	
177	 31.84	  1.37	 -2.83	  6.90	  7.01	  6.40	
178	 31.47	  1.19	 -2.76	  6.72	  6.85	  6.24	
179	 31.01	  1.22	 -2.56	  6.53	  6.65	  6.02	
180	 30.56	  1.16	 -2.68	  6.34	  6.47	  5.88	
181	 30.15	  1.04	 -2.50	  6.16	  6.30	  5.70	
182	 29.71	  1.09	 -2.45	  6.00	  6.12	  5.53	
183	 29.66	  1.12	 -2.30	  5.98	  6.10	  5.48	
184	 29.32	  1.19	 -2.41	  5.85	  5.96	  5.39	
185	 29.02	  0.99	 -2.33	  5.72	  5.85	  5.27	
186	 28.67	  1.06	 -2.28	  5.60	  5.71	  5.14	
187	 28.22	  1.05	 -2.43	  5.43	  5.54	  5.02	
188	 27.63	  0.93	 -2.06	  5.20	  5.32	  4.76	
189	 27.28	  1.02	 -2.14	  5.09	  5.19	  4.66	
190	 26.83	  0.96	 -2.02	  4.93	  5.03	  4.50	
191	 26.18	  0.80	 -2.10	  4.70	  4.81	  4.32	
192	 25.77	  0.90	 -2.17	  4.57	  4.67	  4.21	
193	 25.51	  0.94	 -2.40	  4.49	  4.58	  4.17	
194	 25.21	  0.86	 -2.22	  4.39	  4.48	  4.05	
195	 24.76	  0.74	 -2.14	  4.23	  4.34	  3.91	
196	 24.47	  0.86	 -2.12	  4.15	  4.25	  3.83	
197	 24.30	  0.85	 -2.18	  4.10	  4.19	  3.79	
198	 23.91	  0.90	 -2.11	  3.99	  4.07	  3.68	
199	 43.11	  0.99	 -3.05	 12.90	 13.23	 11.92	
200	 42.54	  1.08	 -3.08	 12.55	 12.86	 11.60	
201	 42.04	  1.07	 -3.21	 12.23	 12.53	 11.35	
202	 41.57	  1.13	 -3.30	 11.94	 12.23	 11.12	
203	 41.11	  1.12	 -3.14	 11.66	 11.94	 10.81	
204	 40.47	  0.88	 -2.98	 11.24	 11.54	 10.41	
205	 39.98	  1.00	 -2.92	 10.97	 11.24	 10.13	
206	 39.40	  0.93	 -2.79	 10.62	 10.89	  9.79	
207	 38.99	  0.95	 -2.90	 10.39	 10.65	  9.61	
208	 38.55	  1.04	 -3.04	 10.16	 10.40	  9.43	
209	 38.15	  1.07	 -3.06	  9.94	 10.17	  9.24	
210	 37.56	  1.04	 -2.85	  9.62	  9.85	  8.89	
211	 37.18	  1.09	 -2.84	  9.42	  9.64	  8.71	
212	 36.71	  1.09	 -2.76	  9.17	  9.38	  8.46	
213	 36.03	  1.16	 -2.80	  8.83	  9.02	  8.16	
214	 35.37	  1.01	 -2.81	  8.48	  8.68	  7.86	
215	 34.72	  1.08	 -2.87	  8.17	  8.36	  7.59	
216	 34.21	  1.05	 -2.79	  7.93	  8.11	  7.35	
217	 33.61	  1.03	 -2.63	  7.65	  7.82	  7.07	
218	 33.33	  0.98	 -2.69	  7.51	  7.69	  6.96	
219	 32.87	  1.11	 -2.70	  7.32	  7.48	  6.78	
220	 32.29	  1.19	 -2.64	  7.07	  7.22	  6.53	
221	 29.50	  1.14	 -2.56	  5.92	  6.04	  5.48	
222	 29.32	  1.11	 -2.32	  5.85	  5.96	  5.37	
223	 28.98	  1.19	 -2.42	  5.72	  5.83	  5.27	
224	 28.61	  1.21	 -2.32	  5.59	  5.69	  5.13	
225	 28.22	  1.20	 -2.22	  5.44	  5.54	  4.98	
226	 27.83	  1.19	 -2.28	  5.30	  5.40	  4.86	
227	 27.45	  1.10	 -2.18	  5.16	  5.26	  4.72	
228	 26.98	  1.19	 -2.30	  5.00	  5.09	  4.60	
229	 26.38	  1.10	 -2.33	  4.79	  4.88	  4.42	
230	 26.03	  0.97	 -2.22	  4.66	  4.76	  4.29	
231	 25.67	  0.94	 -2.09	  4.54	  4.63	  4.16	
232	 25.28	  0.97	 -2.24	  4.41	  4.51	  4.08	
233	 24.95	  1.03	 -2.20	  4.31	  4.40	  3.98	
234	 24.54	  0.99	 -2.09	  4.19	  4.27	  3.85	
235	 24.19	  0.76	 -1.86	  4.06	  4.16	  3.71	
236	 23.83	  0.78	 -1.92	  3.95	  4.05	  3.63	
237	 23.62	  0.88	 -2.32	  3.90	  3.98	  3.63	
238	 23.19	  1.03	 -2.06	  3.79	  3.86	  3.48	
239	 22.94	  1.05	 -2.08	  3.71	  3.78	  3.42	
240	 22.54	  1.17	 -2.07	  3.61	  3.67	  3.31	
241	 43.93	  1.05	 -2.78	 13.45	 13.79	 12.31	
242	 43.49	  1.17	 -2.97	 13.18	 13.49	 12.11	
243	 39.72	  1.05	 -2.91	 10.82	 11.08	  9.99	
244	 39.29	  1.08	 -2.84	 10.58	 10.83	  9.75	
245	 38.82	  1.14	 -3.04	 10.32	 10.55	  9.57	
246	 38.54	  1.16	 -3.03	 10.17	 10.39	  9.43	
247	 38.09	  1.34	 -3.01	  9.94	 10.14	  9.20	
248	 37.74	  1.28	 -3.03	  9.74	  9.94	  9.03	
249	 37.21	  1.37	 -3.06	  9.47	  9.65	  8.78	
250	 36.75	  1.31	 -2.82	  9.22	  9.40	  8.49	
251	 36.22	  1.28	 -2.83	  8.95	  9.13	  8.26	
252	 35.48	  1.20	 -2.70	  8.56	  8.74	  7.89	
253	 34.76	  1.20	 -2.83	  8.21	  8.38	  7.60	
254	 34.15	  1.30	 -2.71	  7.93	  8.08	  7.31	
255	 33.73	  1.30	 -2.67	  7.73	  7.88	  7.12	
256	 33.22	  1.36	 -2.75	  7.51	  7.64	  6.93	
257	 32.81	  1.28	 -2.64	  7.31	  7.45	  6.74	
258	 32.20	  1.30	 -2.55	  7.04	  7.17	  6.48	
259	 31.79	  1.36	 -2.62	  6.87	  6.99	  6.33	
260	 31.14	  1.28	 -2.54	  6.59	  6.71	  6.07	
261	 30.69	  1.24	 -2.35	  6.40	  6.52	  5.86	
262	 30.27	  1.12	 -2.18	  6.22	  6.35	  5.67	
263	 29.95	  1.16	 -2.40	  6.10	  6.22	  5.61	
264	 29.55	  1.19	 -2.34	  5.94	  6.05	  5.45	
265	 27.44	  1.17	 -2.28	  5.16	  5.25	  4.74	
266	 26.94	  1.28	 -2.30	  4.99	  5.07	  4.58	
267	 26.38	  1.25	 -2.21	  4.80	  4.88	  4.40	
268	 26.03	  1.22	 -2.51	  4.68	  4.76	  4.34	
269	 25.73	  1.24	 -2.39	  4.58	  4.65	  4.23	
270	 25.37	  1.15	 -2.25	  4.46	  4.54	  4.11	
271	 25.21	  1.33	 -2.37	  4.42	  4.48	  4.08	
272	 24.76	  1.27	 -2.09	  4.27	  4.34	  3.91	
273	 24.51	  1.22	 -2.08	  4.19	  4.26	  3.84	
274	 24.10	  1.19	 -1.98	  4.06	  4.13	  3.71	
275	 23.76	  1.06	 -1.97	  3.95	  4.03	  3.61	
276	 23.39	  1.11	 -2.10	  3.85	  3.92	  3.54	
277	 23.00	  1.28	 -2.11	  3.75	  3.80	  3.44	
278	 22.67	  1.49	 -2.28	  3.67	  3.70	  3.38	
279	 43.88	  1.08	 -2.95	 13.42	 13.75	 12.34	
280	 43.27	  1.16	 -2.94	 13.03	 13.34	 11.98	
281	 42.97	  1.18	 -2.94	 12.84	 13.14	 11.80	
282	 42.29	  1.05	 -3.00	 12.38	 12.69	 11.42	
283	 41.78	  1.11	 -2.95	 12.07	 12.36	 11.12	
284	 41.42	  1.09	 -2.97	 11.84	 12.13	 10.93	
285	 40.84	  1.13	 -3.00	 11.50	 11.77	 10.62	
286	 40.34	  1.11	 -2.91	 11.20	 11.46	 10.32	
287	 37.04	  1.38	 -2.95	  9.38	  9.56	  8.67	
288	 36.50	  1.24	 -2.96	  9.08	  9.27	  8.42	
289	 36.16	  1.42	 -3.14	  8.93	  9.09	  8.31	
290	 35.56	  1.33	 -2.93	  8.61	  8.78	  7.98	
291	 34.78	  1.34	 -2.90	  8.23	  8.39	  7.62	
292	 34.24	  1.31	 -2.84	  7.97	  8.13	  7.38	
293	 33.90	  1.33	 -2.83	  7.82	  7.96	  7.23	
294	 33.37	  1.21	 -2.75	  7.56	  7.71	  6.99	
295	 32.89	  1.39	 -2.61	  7.36	  7.49	  6.76	
296	 32.44	  1.40	 -2.61	  7.16	  7.28	  6.59	
297	 31.86	  1.31	 -2.56	  6.90	  7.02	  6.34	
298	 31.32	  1.32	 -2.57	  6.67	  6.79	  6.14	
299	 30.80	  1.33	 -2.48	  6.45	  6.57	  5.93	
300	 30.37	  1.22	 -2.44	  6.27	  6.39	  5.76	
301	 29.89	  1.03	 -2.22	  6.06	  6.19	  5.55	
302	 29.48	  1.02	 -2.19	  5.90	  6.03	  5.40	
303	 29.39	  1.07	 -2.28	  5.87	  5.99	  5.38	
304	 29.19	  1.01	 -2.20	  5.79	  5.91	  5.30	
305	 28.69	  1.10	 -2.18	  5.61	  5.72	  5.13	
306	 28.45	  1.10	 -2.14	  5.52	  5.63	  5.04	
307	 28.02	  1.15	 -2.19	  5.36	  5.47	  4.91	
308	 27.67	  1.27	 -2.19	  5.25	  5.33	  4.79	
309	 24.98	  1.16	 -2.49	  4.33	  4.41	  4.03	
310	 24.71	  1.26	 -2.43	  4.26	  4.32	  3.95	
311	 24.48	  1.25	 -2.43	  4.19	  4.25	  3.88	
312	 24.16	  1.28	 -2.48	  4.09	  4.15	  3.80	
313	 23.88	  1.30	 -2.33	  4.01	  4.06	  3.70	
314	 23.53	  1.36	 -2.51	  3.91	  3.96	  3.64	
315	 23.26	  1.48	 -2.37	  3.83	  3.88	  3.54	
316	 22.83	  1.48	 -2.22	  3.71	  3.75	  3.41	
317	 44.20	  1.23	 -2.85	 13.66	 13.98	 12.50	
318	 43.58	  1.20	 -3.12	 13.24	 13.55	 12.22	
319	 43.16	  1.26	 -2.95	 12.97	 13.27	 11.91	
320	 42.49	  1.09	 -2.98	 12.52	 12.82	 11.54	
321	 42.01	  1.14	 -3.15	 12.22	 12.51	 11.32	
322	 41.57	  1.20	 -3.13	 11.96	 12.23	 11.07	
323	 40.81	  1.12	 -2.98	 11.47	 11.74	 10.59	
324	 40.30	  1.05	 -3.03	 11.16	 11.43	 10.34	
325	 39.84	  1.00	 -2.84	 10.89	 11.15	 10.03	
326	 39.26	  1.02	 -2.85	 10.55	 10.81	  9.74	
327	 38.79	  1.10	 -2.66	 10.30	 10.54	  9.44	
328	 38.44	  1.06	 -2.82	 10.10	 10.34	  9.31	
329	 37.98	  1.20	 -2.87	  9.86	 10.08	  9.10	
330	 37.55	  1.25	 -3.02	  9.63	  9.84	  8.93	
331	 33.67	  1.22	 -2.77	  7.70	  7.85	  7.12	
332	 33.37	  1.31	 -2.77	  7.57	  7.71	  7.00	
333	 32.84	  1.30	 -2.88	  7.33	  7.46	  6.81	
334	 32.33	  1.49	 -2.90	  7.12	  7.23	  6.61	
335	 31.95	  1.41	 -2.73	  6.95	  7.06	  6.42	
336	 31.37	  1.33	 -2.70	  6.69	  6.81	  6.19	
337	 30.97	  1.27	 -2.55	  6.52	  6.64	  6.00	
338	 30.56	  1.24	 -2.46	  6.35	  6.47	  5.84	
339	 30.12	  1.18	 -2.51	  6.17	  6.29	  5.69	
340	 29.71	  1.19	 -2.44	  6.01	  6.12	  5.53	
341	 29.53	  1.15	 -2.30	  5.93	  6.04	  5.44	
342	 29.16	  1.06	 -2.28	  5.78	  5.90	  5.31	
343	 28.79	  1.14	 -2.41	  5.65	  5.76	  5.21	
344	 28.36	  1.22	 -2.25	  5.49	  5.59	  5.03	
345	 27.95	  1.14	 -2.22	  5.34	  5.44	  4.89	
346	 27.61	  1.10	 -2.13	  5.21	  5.31	  4.76	
347	 27.27	  1.16	 -2.06	  5.10	  5.19	  4.64	
348	 26.69	  1.07	 -2.09	  4.89	  4.98	  4.47	
349	 26.03	  1.04	 -1.87	  4.66	  4.76	  4.23	
350	 25.88	  1.09	 -2.18	  4.62	  4.71	  4.24	
351	 25.56	  1.05	 -2.15	  4.51	  4.60	  4.14	
352	 25.17	  1.09	 -2.21	  4.39	  4.47	  4.04	
353	 23.04	  1.24	 -2.47	  3.76	  3.81	  3.50	
354	 22.76	  1.35	 -2.42	  3.68	  3.73	  3.42	
355	 44.13	  1.24	 -3.15	 13.62	 13.93	 12.56	
356	 43.57	  1.21	 -3.01	 13.24	 13.54	 12.18	
357	 43.14	  1.23	 -3.05	 12.96	 13.25	 11.94	
358	 42.62	  1.15	 -3.01	 12.61	 12.90	 11.62	
359	 42.21	  1.15	 -3.13	 12.35	 12.64	 11.43	
360	 41.58	  1.16	 -3.31	 11.95	 12.23	 11.13	
361	 41.11	  1.11	 -3.12	 11.66	 11.93	 10.80	
362	 40.57	  1.20	 -3.22	 11.34	 11.60	 10.54	
363	 39.87	  1.05	 -2.85	 10.91	 11.17	 10.05	
364	 39.26	  0.98	 -2.74	 10.55	 10.81	  9.71	
365	 38.84	  1.15	 -2.74	 10.33	 10.57	  9.49	
366	 38.39	  1.18	 -3.04	 10.09	 10.31	  9.35	
367	 37.97	  1.15	 -2.70	  9.85	 10.07	  9.05	
368	 37.51	  1.23	 -2.73	  9.61	  9.81	  8.83	
369	 36.98	  1.23	 -2.93	  9.33	  9.52	  8.63	
370	 36.51	  1.26	 -2.82	  9.09	  9.27	  8.38	
371	 35.94	  1.09	 -2.84	  8.78	  8.98	  8.13	
372	 35.38	  1.16	 -2.64	  8.51	  8.69	  7.83	
373	 34.60	  1.19	 -2.75	  8.13	  8.30	  7.51	
374	 34.19	  1.31	 -2.79	  7.95	  8.10	  7.34	
375	 30.82	  1.28	 -2.52	  6.46	  6.57	  5.94	
376	 30.47	  1.29	 -2.58	  6.32	  6.43	  5.83	
377	 30.14	  1.21	 -2.39	  6.18	  6.29	  5.67	
378	 29.78	  1.20	 -2.50	  6.03	  6.15	  5.56	
379	 29.62	  1.25	 -2.29	  5.97	  6.08	  5.46	
380	 29.40	  1.23	 -2.30	  5.89	  5.99	  5.39	
381	 29.05	  1.28	 -2.37	  5.76	  5.86	  5.28	
382	 28.61	  1.25	 -2.35	  5.59	  5.69	  5.13	
383	 28.22	  1.18	 -2.30	  5.44	  5.54	  5.00	
384	 27.78	  1.27	 -2.27	  5.29	  5.38	  4.84	
385	 27.42	  1.17	 -2.23	  5.15	  5.24	  4.72	
386	 26.85	  1.12	 -2.13	  4.95	  5.04	  4.52	
387	 26.27	  1.03	 -2.16	  4.74	  4.84	  4.36	
388	 25.90	  1.12	 -2.26	  4.63	  4.71	  4.26	
389	 25.53	  1.10	 -2.30	  4.51	  4.59	  4.16	
390	 25.20	  1.01	 -2.27	  4.39	  4.48	  4.06	
391	 24.92	  1.10	 -2.38	  4.31	  4.39	  4.00	
392	 24.47	  1.02	 -2.18	  4.17	  4.25	  3.84	
393	 24.15	  0.94	 -2.11	  4.06	  4.15	  3.74	
394	 23.90	  1.01	 -2.09	  3.99	  4.07	  3.67	
395	 23.58	  0.93	 -1.95	  3.89	  3.97	  3.56	
396	 23.23	  1.09	 -2.13	  3.80	  3.87	  3.50	
397	 41.96	  1.10	 -3.07	 12.18	 12.47	 11.26	
398	 41.49	  1.14	 -3.20	 11.90	 12.17	 11.04	
399	 40.99	  1.20	 -3.15	 11.60	 11.86	 10.75	
400	 40.47	  1.10	 -3.05	 11.27	 11.53	 10.43	
401	 39.94	  1.09	 -2.86	 10.96	 11.22	 10.09	
402	 39.45	  1.09	 -2.87	 10.67	 10.92	  9.84	
403	 39.14	  1.13	 -2.97	 10.50	 10.74	  9.71	
404	 38.55	  1.26	 -3.04	 10.19	 10.40	  9.43	
405	 38.15	  1.22	 -3.07	  9.96	 10.17	  9.24	
406	 37.67	  1.25	 -3.12	  9.70	  9.90	  9.02	
407	 37.08	  1.16	 -2.98	  9.38	  9.58	  8.70	
408	 36.49	  1.10	 -2.78	  9.06	  9.27	  8.36	
409	 36.03	  1.23	 -2.70	  8.84	  9.03	  8.13	
410	 35.45	  1.21	 -2.68	  8.55	  8.72	  7.86	
411	 34.53	  1.16	 -2.62	  8.09	  8.26	  7.45	
412	 34.18	  1.11	 -2.59	  7.92	  8.10	  7.29	
413	 33.67	  1.25	 -2.74	  7.70	  7.85	  7.11	
414	 33.12	  1.17	 -2.78	  7.44	  7.59	  6.90	
415	 32.61	  1.23	 -2.64	  7.22	  7.36	  6.66	
416	 32.20	  1.20	 -2.57	  7.04	  7.18	  6.48	
417	 31.77	  1.29	 -2.62	  6.86	  6.98	  6.33	
418	 31.21	  1.33	 -2.44	  6.63	  6.74	  6.07	
419	 28.79	  1.10	 -2.36	  5.64	  5.76	  5.19	
420	 28.53	  1.16	 -2.33	  5.55	  5.66	  5.10	
421	 28.17	  1.23	 -2.38	  5.42	  5.52	  4.99	
422	 27.86	  1.13	 -2.14	  5.30	  5.41	  4.85	
423	 27.47	  1.15	 -2.10	  5.17	  5.26	  4.71	
424	 27.02	  1.26	 -2.22	  5.02	  5.10	  4.59	
425	 26.42	  1.13	 -2.09	  4.80	  4.89	  4.39	
426	 25.99	  1.22	 -2.20	  4.66	  4.74	  4.28	
427	 25.69	  1.17	 -2.46	  4.56	  4.64	  4.23	
428	 25.42	  1.19	 -2.36	  4.48	  4.55	  4.14	
429	 24.99	  0.98	 -2.38	  4.32	  4.41	  4.02	
430	 24.52	  0.91	 -2.25	  4.17	  4.26	  3.87	
431	 24.30	  0.94	 -2.03	  4.11	  4.19	  3.77	
432	 23.95	  0.89	 -2.09	  4.00	  4.08	  3.68	
433	 23.55	  0.88	 -2.02	  3.88	  3.96	  3.57	
434	 23.26	  1.02	 -1.98	  3.80	  3.88	  3.49	
435	 23.05	  1.10	 -2.09	  3.75	  3.81	  3.45	
436	 22.62	  1.15	 -2.21	  3.63	  3.69	  3.36	
437	 43.87	  1.01	 -2.81	 13.41	 13.75	 12.29	
438	 43.42	  1.14	 -2.84	 13.13	 13.44	 12.03	
439	 42.94	  1.07	 -2.93	 12.80	 13.12	 11.78	
440	 42.48	  1.16	 -2.99	 12.52	 12.81	 11.53	
441	 38.86	  1.21	 -2.91	 10.35	 10.58	  9.55	
442	 38.55	  1.13	 -2.92	 10.17	 10.40	  9.40	
443	 38.06	  1.21	 -2.79	  9.91	 10.12	  9.12	
444	 37.74	  1.30	 -2.99	  9.74	  9.94	  9.01	
445	 37.27	  1.25	 -2.96	  9.49	  9.69	  8.78	
446	 36.78	  1.28	 -2.87	  9.23	  9.42	  8.52	
447	 36.27	  1.40	 -2.94	  8.99	  9.15	  8.31	
448	 35.59	  1.22	 -2.76	  8.62	  8.80	  7.95	
449	 34.84	  1.27	 -2.79	  8.25	  8.42	  7.62	
450	 34.25	  1.31	 -2.74	  7.98	  8.13	  7.36	
451	 33.71	  1.16	 -2.66	  7.71	  7.87	  7.11	
452	 33.19	  1.10	 -2.55	  7.46	  7.62	  6.87	
453	 32.69	  1.18	 -2.52	  7.25	  7.40	  6.66	
454	 32.26	  1.25	 -2.54	  7.06	  7.20	  6.50	
455	 31.71	  1.30	 -2.45	  6.83	  6.96	  6.27	
456	 31.24	  1.23	 -2.54	  6.63	  6.75	  6.10	
457	 30.82	  1.14	 -2.31	  6.44	  6.57	  5.90	
458	 30.30	  1.06	 -2.32	  6.23	  6.36	  5.71	
459	 29.79	  0.97	 -2.19	  6.02	  6.15	  5.51	
460	 29.53	  1.05	 -2.20	  5.92	  6.05	  5.42	
461	 29.37	  1.05	 -2.23	  5.86	  5.98	  5.37	
462	 29.14	  1.15	 -2.19	  5.78	  5.89	  5.28	
463	 26.26	  1.05	 -2.29	  4.74	  4.84	  4.38	
464	 25.91	  1.04	 -2.31	  4.62	  4.72	  4.27	
465	 25.69	  1.14	 -2.29	  4.56	  4.64	  4.20	
466	 25.51	  1.11	 -2.41	  4.50	  4.58	  4.17	
467	 25.09	  1.09	 -2.27	  4.36	  4.45	  4.03	
468	 24.78	  1.02	 -2.34	  4.26	  4.35	  3.95	
469	 24.64	  1.17	 -2.36	  4.23	  4.30	  3.92	
470	 24.16	  1.13	 -2.17	  4.08	  4.15	  3.75	
471	 23.79	  1.11	 -2.11	  3.97	  4.04	  3.64	
472	 23.51	  1.20	 -2.28	  3.89	  3.95	  3.59	
473	 23.02	  1.11	 -2.18	  3.74	  3.81	  3.45	
474	 22.58	  1.17	 -2.20	  3.62	  3.68	  3.35	
475	 44.06	  1.04	 -2.96	 13.54	 13.88	 12.45	
476	 43.45	  1.07	 -2.90	 13.14	 13.46	 12.07	
477	 42.98	  1.23	 -2.82	 12.86	 13.15	 11.77	
478	 42.43	  1.15	 -2.95	 12.49	 12.78	 11.49	
479	 41.96	  1.11	 -3.25	 12.18	 12.48	 11.32	
480	 41.36	  1.15	 -3.17	 11.82	 12.09	 10.96	
481	 40.82	  1.05	 -2.94	 11.47	 11.75	 10.59	
482	 40.29	  1.05	 -2.89	 11.16	 11.43	 10.29	
483	 39.67	  1.08	 -2.94	 10.80	 11.05	  9.98	
484	 39.29	  1.03	 -2.85	 10.57	 10.83	  9.75	
485	 36.08	  1.20	 -2.83	  8.86	  9.05	  8.19	
486	 35.71	  1.28	 -2.67	  8.69	  8.86	  7.98	
487	 34.85	  1.28	 -2.79	  8.26	  8.42	  7.63	
488	 34.40	  1.29	 -2.71	  8.05	  8.20	  7.42	
489	 33.97	  1.34	 -2.77	  7.85	  7.99	  7.25	
490	 33.52	  1.30	 -2.70	  7.64	  7.78	  7.04	
