tool_per_2010/w11macro/calibration_input/ref__114733.it8
Rene - TRC level chart 22x29

ORIGINATOR          ""
DESCRIPTOR          "Output Characterisation"
CREATED             "6/26/2008"

INSTRUMENTATION     "Spectrophotometer   Spectrolino ; Serial number 12554"

MEASUREMENT_SOURCE  "Illumination=D50	ObserverAngle=2°	DensityStd=ANSI A	WhiteBase=Abs	Filter=No"
ILLUMINANT          "D50"
OBSERVER            "2°"
FILTER_STATUS       "ANSI A"

PRINT_CONDITIONS    ""

NUMBER_OF_FIELDS    7
BEGIN_DATA_FORMAT
SAMPLE_ID	LAB_L	LAB_A	LAB_B	XYZ_X	XYZ_Y	XYZ_Z	
END_DATA_FORMAT

NUMBER_OF_SETS      638

BEGIN_DATA
1	 95.08	 -0.31	 -4.01	 84.47	 87.81	 77.04	
2	 88.13	  0.29	 -5.04	 69.86	 72.34	 64.81	
3	 82.17	  0.16	 -3.88	 58.49	 60.62	 53.49	
4	 76.71	  0.27	 -2.83	 49.30	 51.04	 44.36	
5	 71.10	 -0.10	 -2.94	 40.77	 42.33	 36.99	
6	 65.07	 -0.23	 -2.76	 32.83	 34.13	 29.84	
7	 58.96	  0.12	 -2.76	 26.04	 26.99	 23.71	
8	 53.37	  0.45	 -2.96	 20.71	 21.39	 18.98	
9	 47.98	  0.89	 -3.34	 16.33	 16.78	 15.13	
10	 42.13	  1.05	 -3.19	 12.28	 12.59	 11.40	
11	 36.28	  1.20	 -2.83	  8.96	  9.15	  8.28	
12	 30.65	  1.02	 -2.33	  6.36	  6.50	  5.84	
13	 26.27	  1.06	 -2.32	  4.75	  4.84	  4.38	
14	 22.29	  1.16	 -2.40	  3.54	  3.60	  3.30	
15	 18.41	  0.83	 -1.98	  2.56	  2.61	  2.38	
16	 15.33	  0.40	 -1.95	  1.92	  1.97	  1.81	
17	 12.99	  0.09	 -1.90	  1.51	  1.56	  1.44	
18	 10.79	  0.04	 -1.62	  1.19	  1.23	  1.13	
19	  8.74	 -0.21	 -1.06	  0.93	  0.97	  0.86	
20	  7.03	 -0.35	 -1.10	  0.74	  0.78	  0.70	
21	  5.85	 -0.28	 -1.06	  0.62	  0.65	  0.59	
22	  5.32	 -0.23	 -1.01	  0.56	  0.59	  0.54	
23	 31.47	  1.27	 -2.58	  6.73	  6.85	  6.20	
24	 31.08	  1.15	 -2.52	  6.55	  6.69	  6.04	
25	 30.70	  1.19	 -2.50	  6.40	  6.53	  5.90	
26	 30.33	  1.23	 -2.50	  6.25	  6.37	  5.76	
27	 29.91	  1.21	 -2.35	  6.08	  6.20	  5.58	
28	 29.58	  1.22	 -2.35	  5.96	  6.07	  5.46	
29	 29.15	  1.33	 -2.29	  5.80	  5.90	  5.30	
30	 28.62	  1.27	 -2.28	  5.59	  5.69	  5.12	
31	 28.25	  1.22	 -2.26	  5.45	  5.55	  5.00	
32	 27.77	  1.23	 -2.07	  5.28	  5.37	  4.81	
33	 27.39	  1.25	 -2.24	  5.14	  5.23	  4.71	
34	 26.95	  1.07	 -2.09	  4.98	  5.08	  4.55	
35	 26.73	  1.14	 -2.11	  4.91	  5.00	  4.48	
36	 26.37	  1.16	 -2.36	  4.79	  4.87	  4.42	
37	 26.01	  1.14	 -2.23	  4.66	  4.75	  4.29	
38	 25.71	  1.07	 -2.24	  4.56	  4.65	  4.20	
39	 25.43	  1.09	 -2.17	  4.47	  4.56	  4.11	
40	 25.00	  0.96	 -2.13	  4.33	  4.42	  3.98	
41	 24.74	  0.85	 -1.72	  4.24	  4.33	  3.84	
42	 24.44	  1.00	 -1.96	  4.15	  4.24	  3.80	
43	 24.36	  1.12	 -2.06	  4.14	  4.21	  3.79	
44	 23.99	  1.28	 -2.20	  4.04	  4.10	  3.71	
45	 41.82	  1.16	 -3.25	 12.10	 12.38	 11.24	
46	 41.36	  1.09	 -2.98	 11.81	 12.09	 10.89	
47	 40.85	  1.11	 -2.94	 11.50	 11.77	 10.61	
48	 40.28	  1.12	 -2.86	 11.16	 11.42	 10.27	
49	 39.90	  1.21	 -2.94	 10.95	 11.19	 10.10	
50	 39.48	  1.13	 -2.90	 10.69	 10.94	  9.86	
51	 39.07	  1.38	 -3.00	 10.50	 10.70	  9.69	
52	 38.57	  1.36	 -2.68	 10.21	 10.41	  9.34	
53	 38.10	  1.31	 -3.02	  9.94	 10.14	  9.20	
54	 37.61	  1.22	 -2.84	  9.67	  9.87	  8.91	
55	 37.06	  1.26	 -2.92	  9.38	  9.57	  8.67	
56	 36.43	  1.24	 -2.80	  9.05	  9.24	  8.35	
57	 36.11	  1.27	 -2.83	  8.88	  9.06	  8.20	
58	 35.60	  1.22	 -2.83	  8.62	  8.80	  7.97	
59	 35.01	  1.25	 -2.76	  8.34	  8.51	  7.69	
60	 34.54	  1.24	 -2.71	  8.11	  8.27	  7.48	
61	 34.24	  1.18	 -2.82	  7.96	  8.12	  7.37	
62	 33.66	  1.30	 -2.62	  7.70	  7.85	  7.08	
63	 33.16	  1.18	 -2.45	  7.46	  7.61	  6.83	
64	 32.80	  1.34	 -2.52	  7.31	  7.44	  6.71	
65	 32.32	  1.39	 -2.55	  7.11	  7.23	  6.52	
66	 31.72	  1.27	 -2.53	  6.84	  6.96	  6.29	
67	 28.95	  1.32	 -2.61	  5.72	  5.82	  5.30	
68	 28.61	  1.30	 -2.35	  5.59	  5.69	  5.13	
69	 28.22	  1.31	 -2.36	  5.45	  5.54	  5.00	
70	 27.79	  1.40	 -2.40	  5.30	  5.38	  4.87	
71	 27.42	  1.27	 -2.27	  5.16	  5.24	  4.73	
72	 27.13	  1.35	 -2.20	  5.06	  5.14	  4.63	
73	 26.93	  1.27	 -2.28	  4.99	  5.07	  4.58	
74	 26.50	  1.24	 -2.39	  4.84	  4.92	  4.47	
75	 26.16	  1.25	 -2.38	  4.72	  4.80	  4.36	
76	 25.88	  1.20	 -2.46	  4.63	  4.70	  4.29	
77	 25.52	  1.14	 -2.16	  4.50	  4.59	  4.13	
78	 25.05	  1.04	 -2.11	  4.35	  4.43	  3.99	
79	 24.71	  1.02	 -2.12	  4.24	  4.32	  3.90	
80	 24.36	  1.11	 -2.15	  4.14	  4.21	  3.81	
81	 24.12	  1.08	 -2.14	  4.06	  4.14	  3.74	
82	 23.68	  1.19	 -2.23	  3.94	  4.00	  3.63	
83	 44.88	  1.20	 -3.01	 14.13	 14.46	 12.98	
84	 44.31	  1.12	 -2.82	 13.72	 14.05	 12.55	
85	 43.83	  1.04	 -2.81	 13.39	 13.72	 12.26	
86	 43.46	  1.16	 -3.01	 13.16	 13.47	 12.11	
87	 42.99	  1.21	 -3.09	 12.86	 13.15	 11.86	
88	 42.46	  1.08	 -3.05	 12.49	 12.80	 11.54	
89	 38.99	  1.22	 -3.00	 10.43	 10.65	  9.64	
90	 38.55	  1.29	 -2.97	 10.19	 10.40	  9.41	
91	 38.08	  1.38	 -3.01	  9.94	 10.13	  9.19	
92	 37.63	  1.24	 -2.93	  9.68	  9.88	  8.95	
93	 37.21	  1.24	 -2.89	  9.45	  9.65	  8.73	
94	 36.70	  1.21	 -2.83	  9.18	  9.37	  8.47	
95	 36.30	  1.19	 -2.62	  8.98	  9.17	  8.24	
96	 35.77	  1.17	 -2.74	  8.70	  8.89	  8.03	
97	 35.26	  1.31	 -2.73	  8.46	  8.63	  7.79	
98	 34.76	  1.19	 -3.02	  8.21	  8.38	  7.65	
99	 34.23	  1.20	 -2.73	  7.96	  8.12	  7.35	
100	 33.60	  1.20	 -2.70	  7.66	  7.82	  7.08	
101	 33.21	  1.22	 -2.63	  7.49	  7.64	  6.90	
102	 32.79	  1.25	 -2.56	  7.30	  7.44	  6.71	
103	 32.21	  1.18	 -2.51	  7.04	  7.18	  6.47	
104	 31.71	  1.07	 -2.21	  6.81	  6.96	  6.21	
105	 31.37	  1.23	 -2.51	  6.68	  6.81	  6.15	
106	 30.86	  1.01	 -2.22	  6.45	  6.59	  5.90	
107	 30.46	  0.81	 -2.20	  6.27	  6.42	  5.74	
108	 30.13	  1.03	 -2.22	  6.15	  6.29	  5.63	
109	 29.72	  1.16	 -2.21	  6.00	  6.12	  5.48	
110	 29.28	  1.08	 -1.97	  5.83	  5.95	  5.28	
111	 26.81	  1.11	 -2.33	  4.93	  5.03	  4.55	
112	 26.53	  1.11	 -2.12	  4.84	  4.93	  4.43	
113	 26.29	  1.12	 -2.39	  4.76	  4.84	  4.40	
114	 25.91	  0.99	 -2.23	  4.62	  4.72	  4.26	
115	 25.55	  1.03	 -2.12	  4.51	  4.60	  4.14	
116	 25.21	  1.01	 -2.11	  4.39	  4.48	  4.03	
117	 24.98	  1.12	 -2.22	  4.33	  4.41	  3.99	
118	 24.46	  1.01	 -2.18	  4.16	  4.24	  3.84	
119	 24.12	  1.02	 -2.12	  4.06	  4.14	  3.74	
120	 23.85	  1.22	 -2.28	  3.99	  4.05	  3.69	
121	 44.94	  1.02	 -2.92	 14.13	 14.50	 12.98	
122	 44.33	  1.06	 -2.86	 13.73	 14.07	 12.58	
123	 43.93	  1.10	 -2.96	 13.46	 13.79	 12.37	
124	 43.34	  0.95	 -2.89	 13.04	 13.38	 12.00	
125	 42.79	  0.96	 -2.88	 12.69	 13.02	 11.68	
126	 42.35	  0.96	 -3.11	 12.41	 12.73	 11.49	
127	 41.84	  1.06	 -3.08	 12.10	 12.40	 11.20	
128	 41.25	  0.93	 -2.96	 11.72	 12.02	 10.83	
129	 40.69	  0.84	 -2.63	 11.37	 11.67	 10.42	
130	 40.20	  0.96	 -2.77	 11.09	 11.37	 10.20	
131	 39.80	  1.00	 -2.72	 10.86	 11.13	  9.98	
132	 39.33	  1.00	 -2.75	 10.59	 10.85	  9.74	
133	 36.09	  1.21	 -2.86	  8.87	  9.05	  8.20	
134	 35.72	  1.21	 -2.83	  8.68	  8.86	  8.02	
135	 35.23	  1.25	 -2.88	  8.44	  8.61	  7.82	
136	 34.80	  1.36	 -2.85	  8.25	  8.40	  7.62	
137	 34.38	  1.39	 -2.79	  8.05	  8.19	  7.42	
138	 33.83	  1.26	 -2.69	  7.77	  7.92	  7.17	
139	 33.47	  1.37	 -2.62	  7.62	  7.76	  7.00	
140	 32.77	  1.39	 -2.62	  7.31	  7.43	  6.72	
141	 32.28	  1.33	 -2.62	  7.08	  7.21	  6.52	
142	 31.85	  1.27	 -2.58	  6.89	  7.02	  6.34	
143	 31.40	  1.21	 -2.41	  6.69	  6.82	  6.14	
144	 30.81	  1.05	 -2.21	  6.43	  6.57	  5.88	
145	 30.54	  1.01	 -2.24	  6.32	  6.46	  5.79	
146	 30.10	  1.02	 -2.17	  6.14	  6.28	  5.61	
147	 29.64	  0.95	 -2.11	  5.96	  6.09	  5.44	
148	 29.24	  1.02	 -2.27	  5.81	  5.93	  5.33	
149	 29.00	  1.05	 -2.24	  5.72	  5.84	  5.24	
150	 28.55	  1.04	 -2.24	  5.55	  5.66	  5.09	
151	 28.06	  0.96	 -1.96	  5.36	  5.48	  4.88	
152	 27.67	  1.02	 -1.92	  5.23	  5.34	  4.75	
153	 27.36	  1.00	 -2.05	  5.12	  5.22	  4.67	
154	 26.90	  0.96	 -2.01	  4.95	  5.06	  4.52	
155	 24.86	  1.15	 -2.25	  4.30	  4.37	  3.96	
156	 24.58	  1.18	 -2.18	  4.21	  4.28	  3.87	
157	 24.30	  1.17	 -2.36	  4.12	  4.19	  3.82	
158	 24.01	  1.32	 -2.23	  4.05	  4.10	  3.72	
159	 44.97	  1.18	 -2.85	 14.19	 14.52	 12.98	
160	 44.51	  1.26	 -2.87	 13.88	 14.20	 12.70	
161	 44.10	  1.13	 -3.01	 13.58	 13.90	 12.49	
162	 43.42	  1.11	 -2.99	 13.12	 13.44	 12.08	
163	 42.96	  1.18	 -3.04	 12.83	 13.13	 11.83	
164	 42.42	  1.27	 -3.28	 12.50	 12.78	 11.60	
165	 41.83	  1.15	 -2.87	 12.11	 12.39	 11.12	
166	 41.22	  1.08	 -2.97	 11.72	 12.00	 10.82	
167	 40.69	  0.98	 -2.60	 11.39	 11.67	 10.41	
168	 40.22	  1.04	 -2.82	 11.12	 11.39	 10.23	
169	 39.72	  1.07	 -2.65	 10.82	 11.08	  9.91	
170	 39.20	  1.08	 -2.93	 10.53	 10.78	  9.73	
171	 38.88	  1.23	 -3.01	 10.37	 10.59	  9.59	
172	 38.33	  1.25	 -2.99	 10.06	 10.28	  9.31	
173	 37.79	  1.16	 -2.76	  9.76	  9.97	  8.98	
174	 37.44	  1.25	 -2.89	  9.58	  9.78	  8.85	
175	 37.05	  1.21	 -2.64	  9.37	  9.57	  8.59	
176	 36.49	  1.20	 -2.65	  9.07	  9.27	  8.33	
177	 33.28	  1.33	 -2.86	  7.53	  7.67	  6.98	
178	 32.72	  1.40	 -2.74	  7.28	  7.41	  6.72	
179	 32.28	  1.26	 -2.47	  7.07	  7.21	  6.49	
180	 31.90	  1.27	 -2.46	  6.91	  7.04	  6.34	
181	 31.43	  1.15	 -2.48	  6.70	  6.84	  6.17	
182	 30.96	  1.18	 -2.42	  6.51	  6.64	  5.98	
183	 30.69	  1.24	 -2.30	  6.40	  6.52	  5.85	
184	 30.19	  1.24	 -2.39	  6.20	  6.31	  5.69	
185	 29.79	  1.12	 -2.28	  6.03	  6.15	  5.52	
186	 29.37	  1.13	 -2.32	  5.87	  5.98	  5.38	
187	 28.96	  1.15	 -2.24	  5.71	  5.82	  5.23	
188	 28.42	  1.07	 -2.07	  5.50	  5.62	  5.02	
189	 28.04	  1.02	 -2.05	  5.36	  5.47	  4.89	
190	 27.73	  1.04	 -1.96	  5.25	  5.36	  4.77	
191	 27.22	  0.96	 -2.01	  5.06	  5.17	  4.62	
192	 26.80	  0.90	 -2.09	  4.91	  5.02	  4.50	
193	 26.56	  1.07	 -2.20	  4.84	  4.94	  4.45	
194	 26.23	  0.90	 -2.18	  4.72	  4.83	  4.35	
195	 25.85	  0.86	 -2.00	  4.59	  4.69	  4.20	
196	 25.60	  0.94	 -1.97	  4.52	  4.61	  4.12	
197	 25.37	  0.88	 -2.11	  4.44	  4.54	  4.08	
198	 25.02	  0.97	 -2.06	  4.33	  4.42	  3.97	
199	 44.00	  1.18	 -2.98	 13.52	 13.84	 12.42	
200	 43.46	  1.13	 -3.00	 13.16	 13.47	 12.11	
201	 42.97	  1.15	 -3.03	 12.84	 13.14	 11.83	
202	 42.52	  1.14	 -3.19	 12.54	 12.84	 11.62	
203	 42.04	  1.14	 -3.03	 12.24	 12.52	 11.29	
204	 41.50	  1.04	 -2.91	 11.88	 12.18	 10.95	
205	 40.91	  1.07	 -2.88	 11.53	 11.81	 10.62	
206	 40.30	  0.98	 -2.80	 11.15	 11.44	 10.27	
207	 39.92	  1.04	 -2.84	 10.93	 11.20	 10.07	
208	 39.41	  1.06	 -3.03	 10.65	 10.90	  9.87	
209	 38.93	  1.12	 -3.07	 10.38	 10.62	  9.63	
210	 38.41	  1.15	 -2.83	 10.09	 10.32	  9.30	
211	 37.97	  1.13	 -2.81	  9.85	 10.07	  9.08	
212	 37.56	  1.05	 -2.76	  9.62	  9.84	  8.86	
213	 36.92	  1.08	 -2.82	  9.28	  9.49	  8.58	
214	 36.40	  1.00	 -2.79	  9.00	  9.22	  8.32	
215	 36.00	  1.05	 -2.76	  8.80	  9.01	  8.13	
216	 35.50	  1.10	 -2.65	  8.56	  8.75	  7.88	
217	 35.01	  0.94	 -2.44	  8.30	  8.50	  7.61	
218	 34.61	  1.07	 -2.66	  8.12	  8.30	  7.49	
219	 34.24	  1.11	 -2.61	  7.95	  8.12	  7.32	
220	 33.67	  1.14	 -2.51	  7.69	  7.85	  7.06	
221	 30.57	  1.06	 -2.35	  6.33	  6.47	  5.82	
222	 30.17	  1.07	 -2.22	  6.17	  6.30	  5.64	
223	 29.91	  1.18	 -2.28	  6.08	  6.20	  5.56	
224	 29.50	  1.11	 -2.20	  5.92	  6.04	  5.41	
225	 29.13	  1.15	 -2.10	  5.78	  5.89	  5.26	
226	 28.78	  1.19	 -2.15	  5.65	  5.75	  5.15	
227	 28.34	  1.07	 -2.11	  5.47	  5.59	  5.00	
228	 27.83	  1.12	 -2.20	  5.29	  5.40	  4.85	
229	 27.31	  1.04	 -2.04	  5.10	  5.20	  4.65	
230	 27.10	  1.11	 -2.06	  5.03	  5.13	  4.59	
231	 26.73	  0.90	 -2.08	  4.89	  5.00	  4.48	
232	 26.24	  0.93	 -2.12	  4.72	  4.83	  4.34	
233	 26.02	  0.93	 -2.14	  4.65	  4.75	  4.28	
234	 25.80	  1.08	 -2.02	  4.59	  4.68	  4.19	
235	 25.36	  0.89	 -1.89	  4.44	  4.53	  4.04	
236	 25.00	  0.74	 -2.12	  4.31	  4.41	  3.98	
237	 24.68	  0.76	 -1.94	  4.21	  4.31	  3.86	
238	 24.25	  0.83	 -1.89	  4.09	  4.18	  3.73	
239	 23.89	  0.86	 -1.81	  3.98	  4.07	  3.63	
240	 23.66	  1.11	 -1.92	  3.93	  4.00	  3.58	
241	 44.96	  0.99	 -2.86	 14.15	 14.52	 12.97	
242	 44.33	  0.97	 -2.88	 13.71	 14.07	 12.59	
243	 40.78	  0.98	 -2.94	 11.44	 11.73	 10.57	
244	 40.30	  1.11	 -2.94	 11.17	 11.43	 10.31	
245	 39.87	  1.14	 -2.74	 10.92	 11.17	 10.02	
246	 39.64	  1.17	 -2.96	 10.79	 11.03	  9.97	
247	 39.09	  1.32	 -2.96	 10.50	 10.71	  9.69	
248	 38.65	  1.25	 -2.92	 10.24	 10.46	  9.45	
249	 38.15	  1.34	 -2.90	  9.97	 10.17	  9.19	
250	 37.62	  1.17	 -2.79	  9.66	  9.88	  8.90	
251	 37.05	  1.30	 -2.86	  9.38	  9.57	  8.65	
252	 36.62	  1.27	 -2.62	  9.15	  9.33	  8.38	
253	 36.08	  1.18	 -2.77	  8.86	  9.05	  8.18	
254	 35.65	  1.10	 -2.65	  8.63	  8.83	  7.95	
255	 35.16	  1.18	 -2.64	  8.40	  8.58	  7.73	
256	 34.75	  1.13	 -2.62	  8.19	  8.37	  7.54	
257	 34.19	  1.19	 -2.71	  7.94	  8.10	  7.33	
258	 33.75	  1.16	 -2.45	  7.73	  7.89	  7.08	
259	 33.31	  1.20	 -2.57	  7.53	  7.68	  6.92	
260	 32.61	  1.19	 -2.45	  7.21	  7.36	  6.62	
261	 32.10	  1.18	 -2.35	  6.99	  7.13	  6.39	
262	 31.68	  1.12	 -2.18	  6.80	  6.95	  6.19	
263	 31.37	  1.17	 -2.38	  6.68	  6.81	  6.12	
264	 30.86	  1.11	 -2.11	  6.46	  6.59	  5.87	
265	 28.10	  1.19	 -2.35	  5.40	  5.50	  4.96	
266	 27.77	  1.21	 -2.08	  5.28	  5.37	  4.81	
267	 27.33	  1.19	 -2.13	  5.12	  5.21	  4.68	
268	 27.13	  1.28	 -2.16	  5.06	  5.14	  4.62	
269	 26.90	  1.12	 -2.31	  4.96	  5.06	  4.57	
270	 26.59	  1.11	 -2.16	  4.86	  4.95	  4.45	
271	 26.31	  1.24	 -2.26	  4.77	  4.85	  4.39	
272	 25.89	  1.08	 -2.02	  4.62	  4.71	  4.22	
273	 25.52	  1.09	 -2.10	  4.50	  4.59	  4.12	
274	 25.26	  1.13	 -1.97	  4.42	  4.50	  4.03	
275	 24.80	  0.93	 -2.07	  4.26	  4.35	  3.91	
276	 24.37	  0.96	 -1.90	  4.13	  4.21	  3.77	
277	 24.05	  1.14	 -2.07	  4.04	  4.11	  3.71	
278	 23.75	  1.31	 -2.25	  3.97	  4.02	  3.65	
279	 44.85	  1.14	 -2.80	 14.10	 14.44	 12.88	
280	 44.25	  1.10	 -2.76	 13.67	 14.01	 12.50	
281	 43.87	  1.09	 -2.89	 13.42	 13.75	 12.31	
282	 43.26	  1.15	 -2.88	 13.02	 13.33	 11.95	
283	 42.68	  1.02	 -2.91	 12.63	 12.95	 11.62	
284	 42.40	  1.16	 -2.88	 12.47	 12.76	 11.45	
285	 41.91	  1.12	 -2.89	 12.15	 12.44	 11.18	
286	 41.25	  1.16	 -2.85	 11.75	 12.02	 10.80	
287	 38.01	  1.28	 -2.88	  9.89	 10.09	  9.12	
288	 37.48	  1.18	 -2.71	  9.59	  9.80	  8.81	
289	 37.09	  1.35	 -2.93	  9.41	  9.59	  8.69	
290	 36.65	  1.17	 -2.88	  9.15	  9.35	  8.46	
291	 36.27	  1.30	 -2.79	  8.97	  9.15	  8.27	
292	 35.76	  1.22	 -2.61	  8.70	  8.88	  7.99	
293	 35.33	  1.31	 -2.74	  8.50	  8.67	  7.83	
294	 34.67	  1.14	 -2.62	  8.16	  8.33	  7.51	
295	 34.31	  1.27	 -2.57	  8.00	  8.16	  7.34	
296	 33.71	  1.17	 -2.60	  7.71	  7.87	  7.10	
297	 33.19	  1.27	 -2.48	  7.48	  7.62	  6.85	
298	 32.63	  1.25	 -2.48	  7.23	  7.37	  6.63	
299	 32.25	  1.28	 -2.36	  7.06	  7.19	  6.45	
300	 31.67	  1.19	 -2.29	  6.81	  6.94	  6.22	
301	 31.30	  1.09	 -2.23	  6.64	  6.78	  6.06	
302	 30.78	  0.97	 -1.99	  6.41	  6.56	  5.82	
303	 30.48	  1.05	 -2.22	  6.30	  6.44	  5.76	
304	 30.02	  0.87	 -1.96	  6.10	  6.24	  5.54	
305	 29.62	  0.92	 -2.03	  5.94	  6.08	  5.41	
306	 29.40	  1.05	 -1.91	  5.87	  5.99	  5.31	
307	 28.97	  1.09	 -1.94	  5.71	  5.82	  5.17	
308	 28.54	  1.12	 -2.05	  5.55	  5.66	  5.05	
309	 26.18	  1.07	 -2.44	  4.72	  4.81	  4.38	
310	 25.77	  1.01	 -2.20	  4.58	  4.67	  4.22	
311	 25.62	  1.15	 -2.25	  4.54	  4.62	  4.18	
312	 25.17	  1.10	 -2.29	  4.39	  4.47	  4.05	
313	 24.95	  1.06	 -2.20	  4.32	  4.40	  3.98	
314	 24.65	  1.22	 -2.27	  4.23	  4.30	  3.90	
315	 24.34	  1.25	 -2.16	  4.14	  4.20	  3.80	
316	 23.84	  1.26	 -2.18	  3.99	  4.05	  3.67	
317	 44.98	  1.00	 -2.88	 14.16	 14.53	 12.99	
318	 44.51	  1.06	 -3.02	 13.85	 14.20	 12.75	
319	 43.90	  1.02	 -3.02	 13.43	 13.77	 12.38	
320	 43.33	  1.05	 -2.94	 13.05	 13.38	 12.01	
321	 42.89	  1.03	 -2.96	 12.77	 13.09	 11.76	
322	 42.46	  1.05	 -3.02	 12.49	 12.80	 11.53	
323	 41.79	  1.04	 -2.89	 12.07	 12.37	 11.11	
324	 41.20	  0.98	 -2.91	 11.69	 11.99	 10.79	
325	 40.72	  0.97	 -2.71	 11.40	 11.69	 10.46	
326	 40.12	  0.94	 -2.68	 11.04	 11.32	 10.14	
327	 39.67	  0.88	 -2.56	 10.77	 11.06	  9.87	
328	 39.32	  0.96	 -2.70	 10.58	 10.85	  9.72	
329	 38.93	  1.02	 -2.76	 10.37	 10.62	  9.54	
330	 38.52	  1.09	 -2.80	 10.14	 10.38	  9.35	
331	 35.07	  1.17	 -2.68	  8.35	  8.53	  7.70	
332	 34.76	  1.18	 -2.61	  8.21	  8.38	  7.54	
333	 34.24	  1.24	 -2.64	  7.96	  8.12	  7.33	
334	 33.85	  1.30	 -2.82	  7.79	  7.94	  7.21	
335	 33.34	  1.32	 -2.62	  7.55	  7.69	  6.95	
336	 32.83	  1.35	 -2.70	  7.33	  7.46	  6.76	
337	 32.36	  1.22	 -2.61	  7.11	  7.24	  6.55	
338	 31.81	  1.23	 -2.45	  6.87	  7.00	  6.30	
339	 31.35	  1.20	 -2.42	  6.67	  6.80	  6.12	
340	 30.98	  0.97	 -2.45	  6.49	  6.64	  5.99	
341	 30.48	  1.01	 -2.21	  6.30	  6.43	  5.76	
342	 30.10	  0.93	 -2.09	  6.13	  6.28	  5.59	
343	 29.70	  1.06	 -2.21	  5.99	  6.11	  5.48	
344	 29.25	  1.03	 -2.00	  5.81	  5.94	  5.28	
345	 28.88	  0.93	 -2.02	  5.66	  5.79	  5.16	
346	 28.44	  0.89	 -1.88	  5.49	  5.62	  4.98	
347	 28.01	  1.02	 -2.06	  5.35	  5.46	  4.88	
348	 27.53	  0.87	 -2.00	  5.16	  5.28	  4.71	
349	 27.09	  0.83	 -1.79	  5.01	  5.13	  4.54	
350	 26.87	  0.89	 -2.05	  4.93	  5.05	  4.52	
351	 26.67	  0.86	 -1.97	  4.86	  4.98	  4.44	
352	 26.29	  0.91	 -2.06	  4.74	  4.85	  4.34	
353	 24.16	  1.00	 -2.26	  4.07	  4.15	  3.77	
354	 23.88	  1.12	 -2.18	  3.99	  4.06	  3.68	
355	 44.93	  1.11	 -2.91	 14.14	 14.49	 12.97	
356	 44.48	  1.11	 -2.86	 13.83	 14.17	 12.67	
357	 44.14	  1.12	 -2.89	 13.61	 13.94	 12.48	
358	 43.48	  1.07	 -2.84	 13.16	 13.48	 12.06	
359	 43.16	  0.99	 -2.91	 12.93	 13.26	 11.90	
360	 42.48	  0.99	 -3.13	 12.50	 12.81	 11.58	
361	 41.92	  1.06	 -3.01	 12.15	 12.45	 11.22	
362	 41.37	  1.08	 -2.96	 11.81	 12.10	 10.90	
363	 40.70	  0.98	 -2.89	 11.39	 11.68	 10.51	
364	 40.11	  0.88	 -2.69	 11.03	 11.32	 10.13	
365	 39.78	  0.99	 -2.61	 10.85	 11.12	  9.94	
366	 39.38	  1.10	 -2.66	 10.63	 10.88	  9.74	
367	 38.87	  0.99	 -2.57	 10.33	 10.59	  9.46	
368	 38.47	  1.17	 -2.68	 10.13	 10.35	  9.29	
369	 37.92	  1.00	 -2.77	  9.80	 10.04	  9.04	
370	 37.43	  0.95	 -2.52	  9.53	  9.77	  8.73	
371	 36.98	  1.00	 -2.48	  9.30	  9.53	  8.51	
372	 36.55	  0.99	 -2.45	  9.08	  9.29	  8.30	
373	 36.12	  1.14	 -2.52	  8.88	  9.07	  8.13	
374	 35.60	  1.03	 -2.51	  8.60	  8.80	  7.89	
375	 32.18	  1.27	 -2.45	  7.03	  7.16	  6.44	
376	 31.74	  1.10	 -2.37	  6.83	  6.97	  6.26	
377	 31.34	  1.17	 -2.43	  6.66	  6.80	  6.12	
378	 31.01	  1.09	 -2.26	  6.52	  6.66	  5.96	
379	 30.59	  1.00	 -2.11	  6.34	  6.48	  5.77	
380	 30.26	  1.17	 -2.15	  6.22	  6.34	  5.66	
381	 29.87	  1.11	 -2.17	  6.06	  6.18	  5.53	
382	 29.37	  1.10	 -2.20	  5.86	  5.98	  5.36	
383	 29.00	  1.22	 -2.09	  5.73	  5.84	  5.21	
384	 28.55	  1.13	 -2.01	  5.56	  5.67	  5.05	
385	 28.12	  1.02	 -2.10	  5.39	  5.50	  4.92	
386	 27.64	  1.00	 -1.89	  5.21	  5.32	  4.73	
387	 27.28	  1.03	 -2.05	  5.09	  5.19	  4.64	
388	 26.97	  1.08	 -1.94	  4.98	  5.08	  4.53	
389	 26.61	  0.86	 -2.11	  4.85	  4.96	  4.45	
390	 26.19	  0.93	 -2.28	  4.71	  4.81	  4.35	
391	 26.06	  1.01	 -2.23	  4.67	  4.77	  4.30	
392	 25.62	  0.88	 -2.17	  4.52	  4.62	  4.16	
393	 25.18	  0.87	 -2.02	  4.38	  4.48	  4.01	
394	 25.00	  0.91	 -1.80	  4.32	  4.41	  3.93	
395	 24.68	  0.90	 -1.84	  4.22	  4.31	  3.84	
396	 24.43	  0.95	 -1.94	  4.15	  4.23	  3.79	
397	 42.80	  1.08	 -2.91	 12.72	 13.03	 11.69	
398	 42.38	  1.04	 -3.10	 12.44	 12.75	 11.51	
399	 41.89	  1.06	 -3.06	 12.13	 12.43	 11.22	
400	 41.46	  1.00	 -2.91	 11.85	 12.15	 10.93	
401	 40.81	  1.00	 -2.64	 11.46	 11.75	 10.49	
402	 40.35	  0.97	 -2.67	 11.18	 11.47	 10.25	
403	 39.99	  1.15	 -2.85	 10.99	 11.25	 10.12	
404	 39.42	  1.05	 -2.96	 10.65	 10.91	  9.86	
405	 38.99	  1.17	 -2.95	 10.42	 10.65	  9.63	
406	 38.57	  1.19	 -2.93	 10.19	 10.41	  9.41	
407	 37.98	  1.16	 -2.83	  9.86	 10.08	  9.09	
408	 37.47	  1.03	 -2.63	  9.57	  9.80	  8.79	
409	 36.93	  1.10	 -2.65	  9.29	  9.50	  8.53	
410	 36.44	  1.00	 -2.65	  9.02	  9.24	  8.31	
411	 35.93	  0.95	 -2.48	  8.76	  8.97	  8.03	
412	 35.55	  1.03	 -2.62	  8.58	  8.78	  7.90	
413	 35.11	  1.12	 -2.69	  8.37	  8.55	  7.72	
414	 34.58	  0.99	 -2.67	  8.10	  8.29	  7.48	
415	 34.12	  0.96	 -2.43	  7.88	  8.07	  7.23	
416	 33.75	  1.11	 -2.48	  7.72	  7.89	  7.08	
417	 33.13	  1.16	 -2.50	  7.44	  7.60	  6.83	
418	 32.64	  1.17	 -2.34	  7.23	  7.37	  6.60	
419	 29.63	  1.06	 -2.26	  5.96	  6.09	  5.46	
420	 29.40	  1.16	 -2.18	  5.88	  6.00	  5.37	
421	 29.02	  1.16	 -2.10	  5.74	  5.85	  5.22	
422	 28.72	  1.20	 -2.02	  5.63	  5.73	  5.11	
423	 28.29	  1.05	 -1.97	  5.45	  5.57	  4.95	
424	 27.96	  1.24	 -2.06	  5.35	  5.44	  4.86	
425	 27.53	  1.09	 -2.04	  5.18	  5.29	  4.72	
426	 27.07	  1.18	 -2.08	  5.03	  5.12	  4.59	
427	 26.82	  1.23	 -2.19	  4.95	  5.03	  4.53	
428	 26.53	  1.14	 -2.23	  4.84	  4.93	  4.45	
429	 26.16	  0.91	 -2.26	  4.70	  4.80	  4.34	
430	 25.66	  0.91	 -1.93	  4.53	  4.63	  4.14	
431	 25.40	  0.97	 -1.97	  4.45	  4.54	  4.07	
432	 25.12	  0.94	 -1.92	  4.36	  4.46	  3.98	
433	 24.67	  0.81	 -1.74	  4.21	  4.31	  3.82	
434	 24.32	  0.81	 -1.82	  4.11	  4.20	  3.74	
435	 24.06	  0.89	 -2.18	  4.03	  4.12	  3.73	
436	 23.64	  0.91	 -2.03	  3.91	  3.99	  3.59	
437	 44.79	  0.98	 -2.67	 14.03	 14.39	 12.80	
438	 44.38	  1.08	 -2.70	 13.76	 14.10	 12.55	
439	 43.92	  1.01	 -2.80	 13.44	 13.78	 12.31	
440	 43.34	  1.08	 -2.83	 13.06	 13.39	 11.98	
441	 39.80	  1.06	 -2.96	 10.87	 11.13	 10.05	
442	 39.44	  1.00	 -2.80	 10.65	 10.92	  9.81	
443	 39.00	  1.21	 -2.87	 10.43	 10.66	  9.61	
444	 38.61	  1.24	 -2.76	 10.22	 10.44	  9.38	
445	 38.21	  1.28	 -2.86	 10.00	 10.20	  9.21	
446	 37.68	  1.22	 -2.78	  9.70	  9.91	  8.93	
447	 37.14	  1.19	 -2.85	  9.41	  9.61	  8.69	
448	 36.53	  1.15	 -2.66	  9.09	  9.29	  8.35	
449	 36.10	  1.15	 -2.71	  8.87	  9.06	  8.17	
450	 35.63	  1.18	 -2.54	  8.63	  8.82	  7.91	
451	 35.08	  1.13	 -2.56	  8.36	  8.54	  7.67	
452	 34.58	  1.09	 -2.48	  8.11	  8.29	  7.44	
453	 34.16	  1.08	 -2.52	  7.91	  8.08	  7.27	
454	 33.67	  1.14	 -2.52	  7.69	  7.85	  7.06	
455	 33.09	  1.15	 -2.49	  7.42	  7.58	  6.82	
456	 32.62	  1.17	 -2.46	  7.22	  7.36	  6.62	
457	 32.18	  1.19	 -2.38	  7.03	  7.17	  6.43	
458	 31.64	  1.05	 -2.28	  6.78	  6.93	  6.20	
459	 31.17	  0.94	 -2.06	  6.57	  6.72	  5.97	
460	 30.73	  0.92	 -2.05	  6.39	  6.54	  5.81	
461	 30.55	  0.89	 -2.07	  6.31	  6.46	  5.75	
462	 30.05	  1.08	 -2.08	  6.13	  6.26	  5.57	
463	 27.31	  1.04	 -2.16	  5.10	  5.20	  4.67	
464	 27.04	  0.99	 -2.03	  5.00	  5.11	  4.57	
465	 26.81	  1.00	 -2.01	  4.93	  5.03	  4.49	
466	 26.64	  1.18	 -2.17	  4.88	  4.97	  4.47	
467	 26.27	  0.97	 -2.23	  4.74	  4.84	  4.37	
468	 25.99	  1.05	 -2.21	  4.65	  4.74	  4.28	
469	 25.75	  1.02	 -2.24	  4.57	  4.66	  4.21	
470	 25.27	  1.07	 -2.10	  4.42	  4.50	  4.05	
471	 24.88	  0.93	 -1.99	  4.29	  4.38	  3.92	
472	 24.57	  0.99	 -2.16	  4.19	  4.28	  3.86	
473	 24.22	  1.11	 -1.99	  4.10	  4.17	  3.74	
474	 23.70	  0.89	 -1.90	  3.93	  4.01	  3.59	
475	 44.90	  1.03	 -2.91	 14.11	 14.47	 12.95	
476	 44.38	  1.03	 -2.79	 13.75	 14.10	 12.59	
477	 43.83	  1.00	 -2.82	 13.38	 13.72	 12.27	
478	 43.28	  1.13	 -2.88	 13.04	 13.35	 11.96	
479	 42.86	  0.97	 -2.97	 12.73	 13.06	 11.74	
480	 42.32	  1.01	 -2.89	 12.40	 12.71	 11.41	
481	 41.70	  1.02	 -2.68	 12.01	 12.31	 10.99	
482	 41.21	  1.08	 -2.72	 11.72	 12.00	 10.73	
483	 40.71	  0.92	 -2.65	 11.39	 11.68	 10.44	
484	 40.15	  1.02	 -2.67	 11.07	 11.34	 10.15	
485	 37.05	  1.12	 -2.75	  9.35	  9.56	  8.62	
486	 36.63	  1.17	 -2.60	  9.14	  9.34	  8.38	
487	 36.26	  1.17	 -2.68	  8.95	  9.15	  8.23	
488	 35.83	  1.26	 -2.65	  8.74	  8.92	  8.03	
489	 35.31	  1.25	 -2.52	  8.48	  8.65	  7.76	
490	 34.84	  1.31	 -2.52	  8.26	  8.42	  7.56	
